%
O00238 (F-L-EXIT-WEAR-PLATES-2.HAS)
N2 (DATE 9-25-2025 TIME 9:06) 
N4 (created by hyperMILL 2024 OPEN MIND Technologies AG) 
N6 ( .5 STUB R. END MILL TIN 4 FL. ) 
N8 ( .5 STUB CARBIDE END MILL 4 FL. ) 
N10 G00 G17 G20 G40 G49 G80 G90 
N12 (TIMELY NEW UNIVERSAL PRESS=F.L EXIT WEAR PLATES) 
N14 (NOTA FOR SERAP MONT PART BLOK FICHOR) 
N16 (OPERATION 2) 
N18 (D-.5 STUB R. END MILL TIN 4 FL.) 
N20 G28 M05 G91 Y0 Z0.0 
N22 ( .5 STUB R. END MILL TIN 4 FL. ) 
N24 T01 M06 
N26 M03 S615 
N28 G0 G90 G54 X-0.2744 Y0.3704 
N30 G43 H1 Z0.1 
N32 M08 
N34 G1 Z-0.4 F10.0 
N36 G42 D1 X-0.283 Y0.3469 F6.0 
N38 X-0.0011 Y0.2443 
N40 X0.0889 Y0.2116 
N42 X0.3708 Y0.109 
N44 G40 X0.3794 Y0.1324 
N46 G0 Z0.5 
N48 (TIMELY NEW UNIVERSAL PRESS=F.L EXIT WEAR PLATES) 
N50 (NOTA FOR SERAP MONT PART BLOK FICHOR) 
N52 (OPERATION 3) 
N54 (D-.5 STUB R. END MILL TIN 4 FL.) 
N56 S615 
N58 G0 X-1.3856 Y-1.1204 
N60 Z0.1 
N62 G1 Z-0.4 F10.0 
N64 G42 D1 X-1.377 Y-1.0969 F6.0 
N66 X-1.6589 Y-0.9943 
N68 X-1.7489 Y-0.9616 
N70 X-2.0308 Y-0.859 
N72 G40 X-2.0394 Y-0.8824 
N74 G0 Z0.5 
N76 (TIMELY NEW UNIVERSAL PRESS=F.L EXIT WEAR PLATES) 
N78 (NOTA FOR SERAP MONT PART BLOK FICHOR) 
N80 (OPERATION 1) 
N82 (D-.5 STUB R. END MILL TIN 4 FL.) 
N84 S615 
N86 G0 X0.5781 Y-1.06 
N88 Z0.1 
N90 G1 Z-0.2 F10.0 
N92 G42 D1 X0.6016 Y-1.0514 F6.0 
N94 G3 X0.0889 Y-0.8123 I-0.376 J-0.137 
N96 G1 X-0.4111 Y-0.9943 
N98 X-0.505 Y-1.0285 
N100 G40 X-0.4965 Y-1.052 
N102 G0 Z0.1 
N104 X0.5781 Y-1.06 
N106 Z-0.1 
N108 G1 Z-0.4 F10.0 
N110 G42 D1 X0.6016 Y-1.0514 F6.0 
N112 G3 X0.0889 Y-0.8123 I-0.376 J-0.137 
N114 G1 X-0.4111 Y-0.9943 
N116 X-0.505 Y-1.0285 
N118 G40 X-0.4965 Y-1.052 
N120 G0 Z0.5 
N122 (TIMELY NEW UNIVERSAL PRESS=F.L EXIT WEAR PLATES) 
N124 (NOTA FOR SERAP MONT PART BLOK FICHOR) 
N126 (OPERATION 4) 
N128 (D-.5 STUB R. END MILL TIN 4 FL.) 
N130 S615 
N132 G0 X-2.2381 Y0.31 
N134 Z0.1 
N136 G1 Z-0.2 F10.0 
N138 G42 D1 X-2.2616 Y0.3014 F6.0 
N140 G3 X-1.7489 Y0.0623 I0.376 J0.137 
N142 G1 X-1.2489 Y0.2443 
N144 X-1.155 Y0.2785 
N146 G40 X-1.1635 Y0.302 
N148 G0 Z0.1 
N150 X-2.2381 Y0.31 
N152 Z-0.1 
N154 G1 Z-0.4 F10.0 
N156 G42 D1 X-2.2616 Y0.3014 F6.0 
N158 G3 X-1.7489 Y0.0623 I0.376 J0.137 
N160 G1 X-1.2489 Y0.2443 
N162 X-1.155 Y0.2785 
N164 G40 X-1.1635 Y0.302 
N166 G0 Z0.1 
N168 (TIMELY NEW UNIVERSAL PRESS=F.L EXIT WEAR PLATES) 
N170 (NOTA FOR SERAP MONT PART BLOK FICHOR) 
N172 (OPERATION 7) 
N174 (G-.5 STUB CARBIDE END MILL 4 FL.) 
N176 M09 
N178 G28 M05 G91 Y0 Z0.0 
N180 ( .5 STUB CARBIDE END MILL 4 FL. ) 
N182 T02 M06 
N184 M03 S993 
N186 G0 G90 G54 X-0.2779 Y0.361 
N188 G43 H2 Z0.1 
N190 M08 
N192 G1 Z-0.4 F10.0 
N194 G42 D2 X-0.2864 Y0.3375 F5. 
N196 X-0.0045 Y0.2349 
N198 X0.0855 Y0.2022 
N200 X0.3674 Y0.0996 
N202 G40 X0.376 Y0.1231 
N204 G0 Z0.5 
N206 (TIMELY NEW UNIVERSAL PRESS=F.L EXIT WEAR PLATES) 
N208 (NOTA FOR SERAP MONT PART BLOK FICHOR) 
N210 (OPERATION 8) 
N212 (G-.5 STUB CARBIDE END MILL 4 FL.) 
N214 S993 
N216 G0 X-1.3821 Y-1.111 
N218 Z0.1 
N220 G1 Z-0.4 F10.0 
N222 G42 D2 X-1.3736 Y-1.0875 F5. 
N224 X-1.6555 Y-0.9849 
N226 X-1.7455 Y-0.9522 
N228 X-2.0274 Y-0.8496 
N230 G40 X-2.036 Y-0.8731 
N232 G0 Z0.5 
N234 (TIMELY NEW UNIVERSAL PRESS=F.L EXIT WEAR PLATES) 
N236 (NOTA FOR SERAP MONT PART BLOK FICHOR) 
N238 (OPERATION 9) 
N240 (G-.5 STUB CARBIDE END MILL 4 FL.) 
N242 S993 
N244 G0 X0.5747 Y-1.0506 
N246 Z0.1 
N248 G1 Z-0.4 F10.0 
N250 G42 D2 X0.5982 Y-1.042 F5. 
N252 G3 X0.0855 Y-0.8029 I-0.376 J-0.137 
N254 G1 X-0.4145 Y-0.9849 
N256 X-0.5085 Y-1.0191 
N258 G40 X-0.4999 Y-1.0426 
N260 G0 Z0.5 
N262 (TIMELY NEW UNIVERSAL PRESS=F.L EXIT WEAR PLATES) 
N264 (NOTA FOR SERAP MONT PART BLOK FICHOR) 
N266 (OPERATION 10) 
N268 (G-.5 STUB CARBIDE END MILL 4 FL.) 
N270 S993 
N272 G0 X-2.2347 Y0.3006 
N274 Z0.1 
N276 G1 Z-0.4 F10.0 
N278 G42 D2 X-2.2582 Y0.292 F5. 
N280 G3 X-1.7455 Y0.0529 I0.376 J0.137 
N282 G1 X-1.2455 Y0.2349 
N284 X-1.1515 Y0.2691 
N286 G40 X-1.1601 Y0.2926 
N288 G0 Z0.1 
N290 M09 
N292 G28 M05 G91 Y0 Z0.0 
N294 M30 

%