%
O00248 (ENCODER-SUPPORT-PLATE-2.HAS)
N2 (DATE 11-5-2025 TIME 15:17) 
N4 (created by hyperMILL 2024 OPEN MIND Technologies AG) 
N6 ( .5_1/2 X 90 DEG. SPOT DRILL .265 TO .390 DIA. ) 
N8 ( .177_NO.16 PARABOLIC DRILL ) 
N10 ( NO. 8 COUNTERBORE W PLANE -.200 PL.250 ) 
N12 ( .166_NO.19 PARABOLIC DRILL ) 
N14 ( 10-32 NF OSG TAP ) 
N16 ( .250_1/4 PARABOLIC DRILL ) 
N18 ( .04 X.25 SH X 60 DEG. ENGRAVE CUTTER ) 
N20 ( .250 STUB CARBIDE END MILL 4 FL. ) 
N22 ( .250 REG. CARBIDE END MILL 4 FL. ) 
N24 G00 G17 G20 G40 G49 G80 G90 
N26 (TIMELY NEW UNIVERSAL PRESS=ENCODER SIDE SUPPORTS) 
N28 (OPERATION 1) 
N30 (.5_1/2 SPOT DRILL .265 TO .390 DIA.) 
N32 G28 M05 G91 Y0 Z0.0 
N34 ( .5_1/2 X 90 DEG. SPOT DRILL .265 TO .390 DIA. ) 
N36 T01 M06 
N38 M03 S1042 
N40 G0 G90 G54 X1.8057 Y-0.9545 
N42 G43 H1 Z0.1 
N44 M08 
N46 G98 G81 Z-0.15 R0.1 F3. 
N48 Y-1.545 
N50 X0.664 
N52 Y-0.9545 
N54 G80 
N56 (TIMELY NEW UNIVERSAL PRESS=ENCODER SIDE SUPPORTS) 
N58 (OPERATION 4) 
N60 (.5_1/2 SPOT DRILL .125 TO .218 DIA.) 
N62 S1910 
N64 G0 X3.4125 Y-1.617 
N66 Z0.1 
N68 G98 G81 Z-0.1 R0.1 F3. 
N70 X2.7825 
N72 G80 
N74 (TIMELY NEW UNIVERSAL PRESS=ENCODER SIDE SUPPORTS) 
N76 (OPERATION 7) 
N78 (.5_1/2 SPOT DRIL 218 TO.265 DIA.) 
N80 S1563 
N82 G0 X2.7225 Y-0.742 
N84 Z0.1 
N86 G98 G81 Z-0.13 R0.1 F3. 
N88 Y-2.117 
N90 G80 
N92 (TIMELY NEW UNIVERSAL PRESS=ENCODER SIDE SUPPORTS) 
N94 (OPERATION 2) 
N96 (.177_NO.16 PARABOLIC DRILL) 
N98 M09 
N100 G28 M05 G91 Y0 Z0.0 
N102 ( .177_NO.16 PARABOLIC DRILL ) 
N104 T02 M06 
N106 M03 S1910 
N108 G0 G90 G54 X1.8057 Y-0.9545 
N110 G43 H2 Z0.1 
N112 M08 
N114 G98 G83 Z-0.6 Q0.1 R0.1 F4.0 
N116 Y-1.545 
N118 X0.664 
N120 Y-0.9545 
N122 G80 
N124 (TIMELY NEW UNIVERSAL PRESS=ENCODER SIDE SUPPORTS) 
N126 (OPERATION 3) 
N128 (NO. 8 COUNTERBORE) 
N130 M09 
N132 G28 M05 G91 Y0 Z0.0 
N134 ( NO. 8 COUNTERBORE W PLANE -.200 PL.250 ) 
N136 T03 M06 
N138 M03 S1131 
N140 G0 G90 G54 X1.8057 Y-0.9545 
N142 G43 H3 Z0.1 
N144 M08 
N146 G98 G83 Z-0.49 Q0.035 R-0.15 F4. 
N148 Y-1.545 
N150 X0.664 
N152 Y-0.9545 
N154 G80 
N156 (TIMELY NEW UNIVERSAL PRESS=ENCODER SIDE SUPPORTS) 
N158 (OPERATION 5) 
N160 (.166_NO.19 PARABOLIC DRILL) 
N162 M09 
N164 G28 M05 G91 Y0 Z0.0 
N166 ( .166_NO.19 PARABOLIC DRILL ) 
N168 T04 M06 
N170 M03 S2071 
N172 G0 G90 G54 X3.4125 Y-1.617 
N174 G43 H4 Z0.1 
N176 M08 
N178 G98 G73 Z-0.7 Q0.05 K0.15 R0.1 F4.0 
N180 X2.7825 
N182 G80 
N184 (TIMELY NEW UNIVERSAL PRESS=ENCODER SIDE SUPPORTS) 
N186 (OPERATION 6) 
N188 (N-10-32 NF OSG TAP) 
N190 M09 
N192 G28 M05 G91 Y0 Z0.0 
N194 ( 10-32 NF OSG TAP ) 
N196 T05 M06 
N198 M03 S792 
N200 G0 G90 G54 X3.4125 Y-1.617 
N202 G43 H5 Z0.1 
N204 M08 
N206 G98 G84 Z-0.6 R0.1 F24.75 
N208 X2.7825 
N210 G80 
N212 (TIMELY NEW UNIVERSAL PRESS=ENCODER SIDE SUPPORTS) 
N214 (OPERATION 8) 
N216 (.250_1/4 PARABOLIC DRILL) 
N218 M09 
N220 G28 M05 G91 Y0 Z0.0 
N222 ( .250_1/4 PARABOLIC DRILL ) 
N224 T06 M06 
N226 M03 S1375 
N228 G0 G90 G54 X2.7225 Y-0.742 
N230 G43 H6 Z0.1 
N232 M08 
N234 G98 G73 Z-0.4 Q0.1 K0.2 R0.1 F4. 
N236 Y-2.117 
N238 G80 
N240 (TIMELY NEW UNIVERSAL PRESS=ENCODER SIDE SUPPORTS) 
N242 (OPERATION 9) 
N244 (.04 X.25 SH X 60 DEG. ENGRAVE CUTTER) 
N246 M09 
N248 G28 M05 G91 Y0 Z0.0 
N250 ( .04 X.25 SH X 60 DEG. ENGRAVE CUTTER ) 
N252 T07 M06 
N254 M03 S4000 
N256 G0 G90 G54 X2.6195 Y0.1 
N258 G43 H7 Z0.1 
N260 M08 
N262 G1 Z-0.006 F10.0 
N264 G42 D7 X2.6175 F12.0 
N266 Y0.0 
N268 Y-0.742 
N270 G3 X2.7225 Y-0.847 I0.105 J0.0 
N272 G1 X3.5975 
N274 X3.6975 
N276 G40 Y-0.845 
N278 G0 Z0.1 
N280 Y-2.014 
N282 G1 Z-0.006 F10.0 
N284 G42 D7 Y-2.012 F12.0 
N286 X3.5975 
N288 X2.7225 
N290 G3 X2.6175 Y-2.117 I0.0 J-0.105 
N292 G1 Y-2.5 
N294 Y-2.6 
N296 G40 X2.6195 
N298 G0 Z0.1 
N300 (TIMELY NEW UNIVERSAL PRESS=ENCODER SIDE SUPPORTS) 
N302 (OPERATION 10) 
N304 (G-.250 STUB CARBIDE END MILL 4 FL.) 
N306 M09 
N308 G28 M05 G91 Y0 Z0.0 
N310 ( .250 STUB CARBIDE END MILL 4 FL. ) 
N312 T08 M06 
N314 M03 S2139 
N316 G0 G90 G54 X-0.1375 Y-1.25 
N318 G43 H8 Z0.1 
N320 M08 
N322 Z0.1063 
N324 G1 Z-0.063 F6.0 
N326 X0.0 
N328 Y-2.5 
N330 X0.255 
N332 Y-1.6 
N334 G2 X0.2697 Y-1.5387 I0.135 J0.0 
N336 G3 X0.2588 Y-1.505 I-0.022 J0.011 
N338 G1 X0.192 Y-1.471 
N340 G3 X0.1584 Y-1.4819 I-0.011 J-0.022 
N342 X0.13 Y-1.6 I0.232 J-0.118 
N344 G1 Y-2.3731 
N346 X0.1281 Y-2.375 
N348 X0.1269 
N350 X0.125 Y-2.3731 
N352 Y-1.47 
N354 X0.1277 Y-1.4683 
N356 G3 X0.1572 Y-1.4792 I0.064 J0.129 
N358 G1 X0.1584 Y-1.4819 
N360 G3 X0.1693 Y-1.5155 I0.022 J-0.011 
N362 G1 X0.2361 Y-1.5496 
N364 G3 X0.2697 Y-1.5387 I0.011 J0.022 
N366 G2 X0.39 Y-1.465 I0.12 J-0.061 
N368 G1 X2.035 
N370 G2 X2.17 Y-1.6 I0.0 J-0.135 
N372 G1 Y-2.5 
N374 X2.275 
N376 Y0.0 
N378 X2.17 
N380 Y-0.9 
N382 G2 X2.035 Y-1.035 I-0.135 J0.0 
N384 G1 X0.39 
N386 G2 X0.255 Y-0.9 I0.0 J0.135 
N388 G1 Y0.0 
N390 X0.0 
N392 Y-1.03 
N394 G3 X0.025 Y-1.055 I0.025 J0.0 
N396 G1 X0.1 
N398 G3 X0.125 Y-1.03 I0.0 J0.025 
N400 G1 Y-0.1269 
N402 X0.1269 Y-0.125 
N404 X0.1281 
N406 X0.13 Y-0.1269 
N408 Y-0.9 
N410 G3 X0.1584 Y-1.0181 I0.26 J0.0 
N412 G1 X0.1572 Y-1.0208 
N414 G3 X0.1277 Y-1.0317 I0.035 J-0.139 
N416 G1 X0.125 Y-1.03 
N418 G3 X0.1 Y-1.005 I-0.025 J0.0 
N420 G1 X0.025 
N422 G3 X0.0 Y-1.03 I0.0 J-0.025 
N424 G1 Y-1.25 
N426 G3 X0.025 Y-1.275 I0.025 J0.0 
N428 G1 X0.1482 
N430 G3 X0.1732 Y-1.25 I0.0 J0.025 
N432 G1 Y-1.1602 
N434 G2 X0.2034 Y-1.1453 I0.019 J0.0 
N436 G3 X0.39 Y-1.2083 I0.187 J0.245 
N438 G1 X2.035 
N440 G3 X2.0802 Y-1.2049 I0.0 J0.308 
N442 G2 X2.1018 Y-1.2235 I0.003 J-0.019 
N444 G1 Y-1.2765 
N446 G2 X2.0802 Y-1.2951 I-0.019 J0.0 
N448 G3 X2.035 Y-1.2917 I-0.045 J-0.305 
N450 G1 X0.39 
N452 G3 X0.2034 Y-1.3547 I0.0 J-0.308 
N454 G2 X0.1732 Y-1.3398 I-0.011 J0.015 
N456 G1 Y-1.25 
N458 G0 Z0.1 
N460 (TIMELY NEW UNIVERSAL PRESS=ENCODER SIDE SUPPORTS) 
N462 (OPERATION 11) 
N464 (H-.250 REG. CARBIDE END MILL 4 FL.) 
N466 M09 
N468 G28 M05 G91 Y0 Z0.0 
N470 ( .250 REG. CARBIDE END MILL 4 FL. ) 
N472 T09 M06 
N474 M03 S2139 
N476 G0 G90 G54 X2.2725 Y-2.8 
N478 G43 H9 Z0.1 
N480 M08 
N482 G1 Z-0.063 F10.0 
N484 G42 D9 X2.285 F6.0 
N486 Y-2.5 
N488 Y0.0 
N490 Y0.3 
N492 G40 X2.2725 
N494 G0 Z0.1 
N496 X2.1725 
N498 G1 Z-0.063 F10.0 
N500 G42 D9 X2.16 F6.0 
N502 Y0.0 
N504 Y-0.9 
N506 G2 X2.035 Y-1.025 I-0.125 J0.0 
N508 G1 X0.39 
N510 G2 X0.265 Y-0.9 I0.0 J0.125 
N512 G1 Y0.0 
N514 Y0.3 
N516 G40 X0.2525 
N518 G0 Z0.1 
N520 Y-2.8 
N522 G1 Z-0.063 F10.0 
N524 G42 D9 X0.265 F6.0 
N526 Y-2.5 
N528 Y-1.6 
N530 G2 X0.39 Y-1.475 I0.125 J0.0 
N532 G1 X2.035 
N534 G2 X2.16 Y-1.6 I0.0 J-0.125 
N536 G1 Y-2.5 
N538 Y-2.8 
N540 G40 X2.1725 
N542 G0 Z0.1 
N544 M09 
N546 G28 M05 G91 Y0 Z0.0 
N548 M30 

%