%
O00240 (ENCODER-SIDE-SUPPORTS-1.HAS)
N2 (DATE 11-5-2025 TIME 11:26) 
N4 (created by hyperMILL 2024 OPEN MIND Technologies AG) 
N6 ( KOMET-1.0 ) 
N8 ( 3/4 COROMILL ) 
N10 ( .375 STUB CARBIDE END MILL 4 FL. ) 
N12 ( 3/16 45GRIS CATRE ) 
N14 ( .375_3/8 X 90 DEG. SPOT DRILL ) 
N16 ( .152_NO.24 PARABOLIC DRILL ) 
N18 G00 G17 G20 G40 G49 G80 G90 
N20 (TIMELY NEW UNIVERSAL PRESS=ENCODER SIDE SUPPORTS) 
N22 (OPERATION 1) 
N24 (KOMET-1.0) 
N26 G28 M05 G91 Y0 Z0.0 
N28 ( KOMET-1.0 ) 
N30 T01 M06 
N32 M03 S2200 
N34 G0 G90 G54 X1.17 Y-1.25 
N36 G43 H1 Z0.1 
N38 M88 
N40 G98 G81 Z-0.6 R0.1 F6.0 
N42 G80 
N44 (TIMELY NEW UNIVERSAL PRESS=ENCODER SIDE SUPPORTS) 
N46 (OPERATION 2) 
N48 (3/4 COROMILL) 
N50 M89 
N52 G28 M05 G91 Y0 Z0.0 
N54 ( 3/4 COROMILL ) 
N56 T02 M06 
N58 M03 S2900 
N60 G0 G90 G54 X1.17 Y-1.25 
N62 G43 H2 Z0.1 
N64 M08 
N66 Z0.02 
N68 G42 D2 G1 X1.39 Z0.006 F18.0 
N70 G3 X0.95 I-0.22 J0.0 Z-0.039 
N72 X1.39 I0.22 J0.0 Z-0.084 
N74 X0.95 I-0.22 J0.0 Z-0.129 
N76 X1.39 I0.22 J0.0 Z-0.174 
N78 X0.95 I-0.22 J0.0 Z-0.219 
N80 X1.39 I0.22 J0.0 Z-0.264 
N82 X0.95 I-0.22 J0.0 Z-0.309 
N84 X1.39 I0.22 J0.0 Z-0.354 
N86 X0.95 I-0.22 J0.0 Z-0.399 
N88 X1.39 I0.22 J0.0 Z-0.444 
N90 X0.95 I-0.22 J0.0 
N92 X1.39 I0.22 J0.0 
N94 G40 G1 X1.17 
N96 G0 Z0.1 
N98 (TIMELY NEW UNIVERSAL PRESS=ENCODER SIDE SUPPORTS) 
N100 (OPERATION 3) 
N102 (3/4 COROMILL) 
N104 S2900 
N106 G0 X1.17 Y-1.25 
N108 Z0.1 
N110 Z0.02 
N112 G42 D2 G1 X1.915 Z0.056 F18.0 
N114 G3 X0.425 I-0.745 J0.0 Z0.011 
N116 X1.915 I0.745 J0.0 Z-0.034 
N118 X0.425 I-0.745 J0.0 Z-0.079 
N120 X1.915 I0.745 J0.0 Z-0.124 
N122 X0.425 I-0.745 J0.0 Z-0.169 
N124 X1.915 I0.745 J0.0 Z-0.214 
N126 X0.425 I-0.745 J0.0 Z-0.259 
N128 X1.915 I0.745 J0.0 Z-0.304 
N130 X0.425 I-0.745 J0.0 
N132 X1.915 I0.745 J0.0 
N134 G40 G1 X1.17 
N136 G0 Z0.1 
N138 (TIMELY NEW UNIVERSAL PRESS=ENCODER SIDE SUPPORTS) 
N140 (OPERATION 4) 
N142 (G-.375 STUB CARBIDE END MILL 4 FL.) 
N144 M09 
N146 G28 M05 G91 Y0 Z0.0 
N148 ( .375 STUB CARBIDE END MILL 4 FL. ) 
N150 T03 M06 
N152 M03 S1426 
N154 G0 G90 G54 X1.0888 Y-1.5635 
N156 G43 H3 Z0.1 
N158 M08 
N160 G1 Z-0.444 F10.0 
N162 G42 D3 X1.07 F9.0 
N164 G3 X1.17 Y-1.6635 I0.1 J0.0 
N166 Y-0.8365 I0.0 J0.413 
N168 Y-1.6635 I0.0 J-0.413 
N170 X1.27 Y-1.5635 I0.0 J0.1 
N172 G40 G1 X1.2512 
N174 G0 Z0.1 
N176 (TIMELY NEW UNIVERSAL PRESS=ENCODER SIDE SUPPORTS) 
N178 (OPERATION 5) 
N180 (G-.375 STUB CARBIDE END MILL 4 FL.) 
N182 S1426 
N184 G0 X1.0888 Y-2.0915 
N186 Z0.1 
N188 G1 Z-0.304 F10.0 
N190 G42 D3 X1.07 F9.0 
N192 G3 X1.17 Y-2.1915 I0.1 J0.0 
N194 Y-0.3085 I0.0 J0.942 
N196 Y-2.1915 I0.0 J-0.942 
N198 X1.27 Y-2.0915 I0.0 J0.1 
N200 G40 G1 X1.2512 
N202 G0 Z0.1 
N204 (TIMELY NEW UNIVERSAL PRESS=ENCODER SIDE SUPPORTS) 
N206 (OPERATION 6) 
N208 (3/16 45GRIS CATRE) 
N210 M09 
N212 G28 M05 G91 Y0 Z0.0 
N214 ( 3/16 45GRIS CATRE ) 
N216 T04 M06 
N218 M03 S2860 
N220 G0 G90 G54 X1.072 Y-2.259 
N222 G43 H4 Z0.1 
N224 M08 
N226 G1 Z-0.03 F10.0 
N228 G42 D4 X1.07 F12. 
N230 G3 X1.17 Y-2.359 I0.1 J0.0 
N232 Y-0.141 I0.0 J1.109 
N234 Y-2.359 I0.0 J-1.109 
N236 X1.27 Y-2.259 I0.0 J0.1 
N238 G40 G1 X1.268 
N240 G0 Z0.1 
N242 (TIMELY NEW UNIVERSAL PRESS=ENCODER SIDE SUPPORTS) 
N244 (OPERATION 7) 
N246 (3/16 45GRIS CATRE) 
N248 S2860 
N250 G0 X1.072 Y-1.731 
N252 Z0.1 
N254 G1 Z-0.335 F10.0 
N256 G42 D4 X1.07 F12. 
N258 G3 X1.17 Y-1.831 I0.1 J0.0 
N260 Y-0.669 I0.0 J0.581 
N262 Y-1.831 I0.0 J-0.581 
N264 X1.27 Y-1.731 I0.0 J0.1 
N266 G40 G1 X1.268 
N268 G0 Z0.1 
N270 (TIMELY NEW UNIVERSAL PRESS=ENCODER SIDE SUPPORTS) 
N272 (OPERATION 8) 
N274 (.375_3/8 SPOT DRILL) 
N276 M09 
N278 G28 M05 G91 Y0 Z0.0 
N280 ( .375_3/8 X 90 DEG. SPOT DRILL ) 
N282 T05 M06 
N284 M03 S1250 
N286 G0 G90 G54 X0.9738 Y-0.5178 
N288 G43 H5 Z0.1 
N290 M08 
N292 G98 G81 Z-0.388 R-0.204 F4. 
N294 X1.3662 
N296 X1.706 Y-0.714 
N298 X1.9022 Y-1.0538 
N300 Y-1.4462 
N302 X1.706 Y-1.786 
N304 X1.3662 Y-1.9822 
N306 X0.9738 
N308 X0.634 Y-1.786 
N310 X0.4378 Y-1.4462 
N312 Y-1.0538 
N314 X0.634 Y-0.714 
N316 G80 
N318 (TIMELY NEW UNIVERSAL PRESS=ENCODER SIDE SUPPORTS) 
N320 (OPERATION 9) 
N322 (.152_NO.24 PARABOLIC DRILL) 
N324 M09 
N326 G28 M05 G91 Y0 Z0.0 
N328 ( .152_NO.24 PARABOLIC DRILL ) 
N330 T06 M06 
N332 M03 S2339 
N334 G0 G90 G54 X0.9738 Y-0.5178 
N336 G43 H6 Z0.1 
N338 M08 
N340 G98 G83 Z-0.7115 Q0.08 R-0.204 F4.0 
N342 X0.634 Y-0.714 
N344 X0.4378 Y-1.0538 
N346 Y-1.4462 
N348 X0.634 Y-1.786 
N350 X0.9738 Y-1.9822 
N352 X1.3662 
N354 X1.706 Y-1.786 
N356 X1.9022 Y-1.4462 
N358 Y-1.0538 
N360 X1.706 Y-0.714 
N362 X1.3662 Y-0.5178 
N364 G80 
N366 M09 
N368 G28 M05 G91 Y0 Z0.0 
N370 M30 

%