%
O00244 (ENCODER-SIDE-SUPPORTS-3.HAS)
N2 (DATE 11-5-2025 TIME 9:06) 
N4 (created by hyperMILL 2024 OPEN MIND Technologies AG) 
N6 ( .375_3/8 X 90 DEG. SPOT DRILL ) 
N8 ( NO. 6 COUNTEBORE W PLANE -.168 PL .218 ) 
N10 ( .5 STUB CARBIDE END MILL 4 FL. ) 
N12 ( .250 STUB CARBIDE END MILL 4 FL. ) 
N14 ( .250 REG. CARBIDE END MILL 4 FL. ) 
N16 G00 G17 G20 G40 G49 G80 G90 
N18 (TIMELY NEW UNIVERSAL PRESS=ENCODER SIDE SUPPORTS) 
N20 (OPERATION 3) 
N22 (.375_3/8 SPOT DRILL) 
N24 G28 M05 G91 Y0 Z0.0 
N26 ( .375_3/8 X 90 DEG. SPOT DRILL ) 
N28 T01 M06 
N30 M03 S1250 
N32 G0 G90 G54 X1.3662 Y-0.5178 
N34 G43 H1 Z0.1 
N36 M08 
N38 G98 G81 Z-0.126 R0.1 F4. 
N40 X0.9738 
N42 X0.634 Y-0.714 
N44 X0.4378 Y-1.0538 
N46 Y-1.4462 
N48 X0.634 Y-1.786 
N50 X0.9738 Y-1.9822 
N52 X1.3662 
N54 X1.706 Y-1.786 
N56 X1.9022 Y-1.4462 
N58 Y-1.0538 
N60 X1.706 Y-0.714 
N62 G80 
N64 (TIMELY NEW UNIVERSAL PRESS=ENCODER SIDE SUPPORTS) 
N66 (OPERATION 5) 
N68 (NO. 6 COUNTERBORE) 
N70 M09 
N72 G28 M05 G91 Y0 Z0.0 
N74 ( NO. 6 COUNTEBORE W PLANE -.168 PL .218 ) 
N76 T02 M06 
N78 M03 S1336 
N80 G0 G90 G54 X1.3662 Y-0.5178 
N82 G43 H2 Z0.1 
N84 M08 
N86 G98 G83 Z-0.445 Q0.03 R-0.28 F6. 
N88 X0.9738 
N90 X0.634 Y-0.714 
N92 X0.4378 Y-1.0538 
N94 Y-1.4462 
N96 X0.634 Y-1.786 
N98 X0.9738 Y-1.9822 
N100 X1.3662 
N102 X1.706 Y-1.786 
N104 X1.9022 Y-1.4462 
N106 Y-1.0538 
N108 X1.706 Y-0.714 
N110 G80 
N112 (TIMELY NEW UNIVERSAL PRESS=ENCODER SIDE SUPPORTS) 
N114 (OPERATION 1) 
N116 (G-.5 STUB CARBIDE END MILL 4 FL.) 
N118 M09 
N120 G28 M05 G91 Y0 Z0.0 
N122 ( .5 STUB CARBIDE END MILL 4 FL. ) 
N124 T03 M06 
N126 M03 S1070 
N128 G0 G90 G54 X1.075 Y-2.86 
N130 G43 H3 Z0.1 
N132 M08 
N134 G1 Z-0.1 F10.0 
N136 G42 D3 X1.1 F5. 
N138 G3 X1.0 Y-2.76 I-0.1 J0.0 
N140 G2 X-0.1529 Y-2.0084 I0.0 J1.26 
N142 X-0.175 Y-1.9035 I0.238 J0.105 
N144 G1 Y-0.5965 
N146 G2 X-0.1529 Y-0.4916 I0.26 J0.0 
N148 X1.0 Y0.26 I1.153 J-0.508 
N150 G3 X1.1 Y0.36 I0.0 J0.1 
N152 G40 G1 X1.075 
N154 G0 Z0.1 
N156 Y-2.86 
N158 Z0.0 
N160 G1 Z-0.125 F10.0 
N162 G42 D3 X1.1 F9.0 
N164 G3 X1.0 Y-2.76 I-0.1 J0.0 
N166 G2 X-0.1529 Y-2.0084 I0.0 J1.26 
N168 X-0.175 Y-1.9035 I0.238 J0.105 
N170 G1 Y-0.5965 
N172 G2 X-0.1529 Y-0.4916 I0.26 J0.0 
N174 X1.0 Y0.26 I1.153 J-0.508 
N176 G3 X1.1 Y0.36 I0.0 J0.1 
N178 G40 G1 X1.075 
N180 G0 Z0.1 
N182 (TIMELY NEW UNIVERSAL PRESS=ENCODER SIDE SUPPORTS) 
N184 (OPERATION 2) 
N186 (G-.250 STUB CARBIDE END MILL 4 FL.) 
N188 M09 
N190 G28 M05 G91 Y0 Z0.0 
N192 ( .250 STUB CARBIDE END MILL 4 FL. ) 
N194 T04 M06 
N196 M03 S2139 
N198 G0 G90 G54 X1.0825 Y0.235 
N200 G43 H4 Z0.1 
N202 M08 
N204 G1 Z-0.1 F10.0 
N206 G42 D4 X1.07 F4. 
N208 G3 X1.17 Y0.135 I0.1 J0.0 
N210 G2 Y-2.635 I0.0 J-1.385 
N212 G3 X1.07 Y-2.735 I0.0 J-0.1 
N214 G40 G1 X1.0825 
N216 G0 Z0.1 
N218 Y0.235 
N220 Z0.0 
N222 G1 Z-0.125 F10.0 
N224 G42 D4 X1.07 F6.0 
N226 G3 X1.17 Y0.135 I0.1 J0.0 
N228 G2 Y-2.635 I0.0 J-1.385 
N230 G3 X1.07 Y-2.735 I0.0 J-0.1 
N232 G40 G1 X1.0825 
N234 G0 Z0.1 
N236 (TIMELY NEW UNIVERSAL PRESS=ENCODER SIDE SUPPORTS) 
N238 (OPERATION 6) 
N240 (H-.250 REG. CARBIDE END MILL 4 FL.) 
N242 M09 
N244 G28 M05 G91 Y0 Z0.0 
N246 ( .250 REG. CARBIDE END MILL 4 FL. ) 
N248 T05 M06 
N250 M03 S2139 
N252 G0 G90 G54 X0.9125 Y0.225 
N254 G43 H5 Z0.1 
N256 M08 
N258 G1 Z-0.125 F10.0 
N260 G42 D5 X0.9 F6.0 
N262 G3 X1.0 Y0.125 I0.1 J0.0 
N264 G1 X1.17 
N266 G2 Y-2.625 I0.0 J-1.375 
N268 G1 X1.0 
N270 G2 X-0.0294 Y-1.9539 I0.0 J1.125 
N272 X-0.04 Y-1.9035 I0.114 J0.05 
N274 G1 Y-0.5965 
N276 G2 X-0.0294 Y-0.5461 I0.125 J0.0 
N278 X1.0 Y0.125 I1.029 J-0.454 
N280 G3 X1.1 Y0.225 I0.0 J0.1 
N282 G40 G1 X1.0875 
N284 G0 Z0.1 
N286 M09 
N288 G28 M05 G91 Y0 Z0.0 
N290 M30 

%