%
O00230 (L-F-ENTRANCE-SUPPORTS- PLATE-1.HAS)
N2 (DATE 9-23-2025 TIME 12:20) 
N4 (created by hyperMILL 2024 OPEN MIND Technologies AG) 
N6 ( .5_1/2 X 90 DEG. SPOT DRILL .265 TO .390 DIA. ) 
N8 ( .3281_21/64 PARABOLIC DRILL ) 
N10 ( 5/16 COUNTERBORE W PLANE -.330 PL.380 ) 
N12 ( .2187_7/32 PARABOLIC DRILL ) 
N14 ( 1.0 COROMILL ) 
N16 ( .375 STUB CARBIDE END MILL 4 FL. ) 
N18 ( .375_3/8 X 90 DEG. SPOT DRILL ) 
N20 ( .209_NO.4 PARABOLIC DRILL ) 
N22 ( 1/4-20 OSG TAP ) 
N24 G00 G17 G20 G40 G49 G80 G90 
N26 (TIMELY NEW UNIVERSAL PRESS=L.F. ENTRANCE SUPPORTS PLATE) 
N28 (OPERATION 1) 
N30 (.5_1/2 SPOT DRILL .265 TO .390 DIA.) 
N32 G28 M05 G91 Y0 Z0.0 
N34 ( .5_1/2 X 90 DEG. SPOT DRILL .265 TO .390 DIA. ) 
N36 T01 M06 
N38 M03 S926 
N40 G0 G90 G54 X0.5 Y-0.75 
N42 G43 H1 Z0.1 
N44 M08 
N46 G98 G81 Z-0.18 R0.1 F3.0 
N48 Y-1.75 
N50 G80 
N52 (TIMELY NEW UNIVERSAL PRESS=L.F. ENTRANCE SUPPORTS PLATE) 
N54 (OPERATION 2) 
N56 (.5_1/2 SPOT DRILL .125 TO .218 DIA.) 
N58 S1100 
N60 G0 X0.25 Y-0.281 
N62 Z0.1 
N64 G98 G81 Z-0.108 R0.1 F4.0 
N66 Y-2.219 
N68 G80 
N70 (TIMELY NEW UNIVERSAL PRESS=L.F. ENTRANCE SUPPORTS PLATE) 
N72 (OPERATION 3) 
N74 (.3281_21/64 PARABOLIC DRILL) 
N76 M09 
N78 G28 M05 G91 Y0 Z0.0 
N80 ( .3281_21/64 PARABOLIC DRILL ) 
N82 T02 M06 
N84 M03 S932 
N86 G0 G90 G54 X0.5 Y-0.75 
N88 G43 H2 Z0.1 
N90 M08 
N92 G98 G73 Z-0.9179 Q0.1 K0.2 R0.1 F4.0 
N94 Y-1.75 
N96 G80 
N98 (TIMELY NEW UNIVERSAL PRESS=L.F. ENTRANCE SUPPORTS PLATE) 
N100 (OPERATION 4) 
N102 (5/16 COUNTERBORE) 
N104 M09 
N106 G28 M05 G91 Y0 Z0.0 
N108 ( 5/16 COUNTERBORE W PLANE -.330 PL.380 ) 
N110 T03 M06 
N112 M03 S560 
N114 G0 G90 G54 X0.5 Y-0.75 
N116 G43 H3 Z0.1 
N118 M08 
N120 G98 G83 Z-0.72 Q0.035 R-0.33 F4.0 
N122 Y-1.75 
N124 G80 
N126 (TIMELY NEW UNIVERSAL PRESS=L.F. ENTRANCE SUPPORTS PLATE) 
N128 (OPERATION 5) 
N130 (.2187_7/32 PARABOLIC DRILL) 
N132 M09 
N134 G28 M05 G91 Y0 Z0.0 
N136 ( .2187_7/32 PARABOLIC DRILL ) 
N138 T04 M06 
N140 M03 S1402 
N142 G0 G90 G54 X0.25 Y-0.281 
N144 G43 H4 Z0.1 
N146 M08 
N148 G98 G73 Z-0.8952 Q0.1 K0.2 R0.1 F4.0 
N150 Y-2.219 
N152 G80 
N154 (TIMELY NEW UNIVERSAL PRESS=L.F. ENTRANCE SUPPORTS PLATE) 
N156 (OPERATION 6) 
N158 (1.0 COROMILL) 
N160 M09 
N162 G28 M05 G91 Y0 Z0.0 
N164 ( 1.0 COROMILL ) 
N166 T05 M06 
N168 M03 S1010 
N170 G0 G90 G54 X3.31 Y-2.306 
N172 G43 H5 Z0.1 
N174 M08 
N176 G1 Z-0.05 F10.0 
N178 G42 D5 Y-2.256 F9.0 
N180 X2.71 
N182 X0.0 
N184 X-0.6 
N186 G40 Y-2.306 
N188 G0 Z0.1 
N190 X3.31 
N192 Z0.05 
N194 G1 Z-0.1 F10.0 
N196 G42 D5 Y-2.256 F9.0 
N198 X2.71 
N200 X0.0 
N202 X-0.6 
N204 G40 Y-2.306 
N206 G0 Z0.1 
N208 X3.31 
N210 Z0.0 
N212 G1 Z-0.124 F10.0 
N214 G42 D5 Y-2.256 F9.0 
N216 X2.71 
N218 X0.0 
N220 X-0.6 
N222 G40 Y-2.306 
N224 G0 Z0.1 
N226 (TIMELY NEW UNIVERSAL PRESS=L.F. ENTRANCE SUPPORTS PLATE) 
N228 (OPERATION 7) 
N230 (G-.375 STUB CARBIDE END MILL 4 FL.) 
N232 M09 
N234 G28 M05 G91 Y0 Z0.0 
N236 ( .375 STUB CARBIDE END MILL 4 FL. ) 
N238 T06 M06 
N240 M03 S1324 
N242 G0 G90 G54 X2.91 Y-1.9603 
N244 G43 H6 Z0.1 
N246 M08 
N248 G1 Z-0.124 F10.0 
N250 G42 D6 Y-1.9415 F5. 
N252 X2.71 
N254 X0.0 
N256 X-0.2 
N258 G40 Y-1.9603 
N260 G0 Z0.1 
N262 (TIMELY NEW UNIVERSAL PRESS=L.F. ENTRANCE SUPPORTS PLATE) 
N264 (OPERATION 8) 
N266 (.375_3/8 SPOT DRILL) 
N268 M09 
N270 G28 M05 G91 Y0 Z0.0 
N272 ( .375_3/8 X 90 DEG. SPOT DRILL ) 
N274 T07 M06 
N276 M03 S1100 
N278 G0 G90 G54 X2.16 Y-2.125 
N280 G43 H7 Z0.1 
N282 M08 
N284 G98 G81 Z-0.25 R-0.025 F4.0 
N286 X1.51 
N288 G80 
N290 (TIMELY NEW UNIVERSAL PRESS=L.F. ENTRANCE SUPPORTS PLATE) 
N292 (OPERATION 9) 
N294 (.209_NO.4 PARABOLIC DRILL) 
N296 M09 
N298 G28 M05 G91 Y0 Z0.0 
N300 ( .209_NO.4 PARABOLIC DRILL ) 
N302 T08 M06 
N304 M03 S1462 
N306 G0 G90 G54 X2.16 Y-2.125 
N308 G43 H8 Z0.1 
N310 M08 
N312 G98 G73 Z-0.8933 Q0.1 K0.2 R0.1 F4.0 
N314 X1.51 
N316 G80 
N318 (TIMELY NEW UNIVERSAL PRESS=L.F. ENTRANCE SUPPORTS PLATE) 
N320 (OPERATION 10) 
N322 (O-1/4-20 OSG TAP) 
N324 M09 
N326 G28 M05 G91 Y0 Z0.0 
N328 ( 1/4-20 OSG TAP ) 
N330 T09 M06 
N332 M03 S458 
N334 G0 G90 G54 X2.16 Y-2.125 
N336 G43 H9 Z0.1 
N338 M08 
N340 G98 G84 Z-0.75 R-0.025 F22.9 
N342 X1.51 
N344 G80 
N346 M09 
N348 G28 M05 G91 Y0 Z0.0 
N350 M30 

%