%
O00256 (UP-STOP-BLOCK-2.HAS)
N2 (DATE 11-11-2025 TIME 8:24) 
N4 (created by hyperMILL 2024 OPEN MIND Technologies AG) 
N6 ( 3/4 COROMILL ) 
N8 ( .5 REG. CARBIDE END MILL 4 FL. ) 
N10 G00 G17 G20 G40 G49 G80 G90 
N12 (TIMELY NEW UNIVERSAL PRESS=WEIGTH-SUPPORT) 
N14 (OPERATION 1) 
N16 (3/4 COROMILL) 
N18 G28 M05 G91 Y0 Z0.0 
N20 ( 3/4 COROMILL ) 
N22 T01 M06 
N24 M03 S2900 
N26 G0 G90 G54 X1.0225 Y0.4 
N28 G43 H1 Z0.1 
N30 M08 
N32 G1 Z-0.09 F10.0 
N34 G42 D1 X0.985 F18.0 
N36 Y0.0 
N38 Y-0.375 
N40 G2 X0.475 Y-0.885 I-0.51 J0.0 
N42 G3 X0.275 Y-1.085 I0.0 J-0.2 
N44 G40 G1 X0.3125 
N46 G0 Z0.1 
N48 X1.0225 Y0.4 
N50 Z0.01 
N52 G1 Z-0.18 F10.0 
N54 G42 D1 X0.985 F18.0 
N56 Y0.0 
N58 Y-0.375 
N60 G2 X0.475 Y-0.885 I-0.51 J0.0 
N62 G3 X0.275 Y-1.085 I0.0 J-0.2 
N64 G40 G1 X0.3125 
N66 G0 Z0.1 
N68 X1.0225 Y0.4 
N70 Z-0.08 
N72 G1 Z-0.27 F10.0 
N74 G42 D1 X0.985 F18.0 
N76 Y0.0 
N78 Y-0.375 
N80 G2 X0.475 Y-0.885 I-0.51 J0.0 
N82 G3 X0.275 Y-1.085 I0.0 J-0.2 
N84 G40 G1 X0.3125 
N86 G0 Z0.1 
N88 X1.0225 Y0.4 
N90 Z-0.17 
N92 G1 Z-0.36 F10.0 
N94 G42 D1 X0.985 F18.0 
N96 Y0.0 
N98 Y-0.375 
N100 G2 X0.475 Y-0.885 I-0.51 J0.0 
N102 G3 X0.275 Y-1.085 I0.0 J-0.2 
N104 G40 G1 X0.3125 
N106 G0 Z0.1 
N108 X1.0225 Y0.4 
N110 Z-0.26 
N112 G1 Z-0.45 F10.0 
N114 G42 D1 X0.985 F18.0 
N116 Y0.0 
N118 Y-0.375 
N120 G2 X0.475 Y-0.885 I-0.51 J0.0 
N122 G3 X0.275 Y-1.085 I0.0 J-0.2 
N124 G40 G1 X0.3125 
N126 G0 Z0.1 
N128 X1.0225 Y0.4 
N130 Z-0.35 
N132 G1 Z-0.54 F10.0 
N134 G42 D1 X0.985 F18.0 
N136 Y0.0 
N138 Y-0.375 
N140 G2 X0.475 Y-0.885 I-0.51 J0.0 
N142 G3 X0.275 Y-1.085 I0.0 J-0.2 
N144 G40 G1 X0.3125 
N146 G0 Z0.1 
N148 X1.0225 Y0.4 
N150 Z-0.44 
N152 G1 Z-0.6 F10.0 
N154 G42 D1 X0.985 F18.0 
N156 Y0.0 
N158 Y-0.375 
N160 G2 X0.475 Y-0.885 I-0.51 J0.0 
N162 G3 X0.275 Y-1.085 I0.0 J-0.2 
N164 G40 G1 X0.3125 
N166 G0 Z0.1 
N168 (TIMELY NEW UNIVERSAL PRESS=WEIGTH-SUPPORT) 
N170 (OPERATION 2) 
N172 (H-.5 REG. CARBIDE END MILL 4 FL.) 
N174 M09 
N176 G28 M05 G91 Y0 Z0.0 
N178 ( .5 REG. CARBIDE END MILL 4 FL. ) 
N180 T02 M06 
N182 M03 S1070 
N184 G0 G90 G54 X0.875 Y0.3 
N186 G43 H2 Z0.1 
N188 M08 
N190 G1 Z-0.6 F10.0 
N192 G42 D2 X0.85 F4. 
N194 Y0.0 
N196 Y-0.375 
N198 G2 X0.475 Y-0.75 I-0.375 J0.0 
N200 G3 X0.375 Y-0.85 I0.0 J-0.1 
N202 G40 G1 X0.4 
N204 G0 Z0.1 
N206 M09 
N208 G28 M05 G91 Y0 Z0.0 
N210 M30 

%