%
O00246 (ENCODER-SUPPORT-PLATE-1.HAS)
N2 (DATE 11-5-2025 TIME 15:00) 
N4 (created by hyperMILL 2024 OPEN MIND Technologies AG) 
N6 ( .5_1/2 X 90 DEG. SPOT DRILL .265 TO .390 DIA. ) 
N8 ( .177_NO.16 PARABOLIC DRILL ) 
N10 ( NO. 8 COUNTERBORE W PLANE -.200 PL.250 ) 
N12 ( 3/4 COROMILL ) 
N14 ( .250 REG. CARBIDE END MILL 4 FL. ) 
N16 G00 G17 G20 G40 G49 G80 G90 
N18 (TIMELY NEW UNIVERSAL PRESS=ENCODER SUPPORT PLATE) 
N20 (OPERATION 1) 
N22 (.5_1/2 SPOT DRILL .265 TO .390 DIA.) 
N24 G28 M05 G91 Y0 Z0.0 
N26 ( .5_1/2 X 90 DEG. SPOT DRILL .265 TO .390 DIA. ) 
N28 T01 M06 
N30 M03 S1042 
N32 G0 G90 G54 X-0.1875 Y-0.125 
N34 G43 H1 Z0.1 
N36 M08 
N38 G98 G81 Z-0.15 R0.1 F3. 
N40 X-2.2225 
N42 Y-2.375 
N44 X-0.1875 
N46 G80 
N48 (TIMELY NEW UNIVERSAL PRESS=ENCODER SUPPORT PLATE) 
N50 (OPERATION 2) 
N52 (.177_NO.16 PARABOLIC DRILL) 
N54 M09 
N56 G28 M05 G91 Y0 Z0.0 
N58 ( .177_NO.16 PARABOLIC DRILL ) 
N60 T02 M06 
N62 M03 S1910 
N64 G0 G90 G54 X-0.1875 Y-0.125 
N66 G43 H2 Z0.1 
N68 M08 
N70 G98 G83 Z-0.6 Q0.1 R0.1 F3.5 
N72 X-2.2225 
N74 Y-2.375 
N76 X-0.1875 
N78 G80 
N80 (TIMELY NEW UNIVERSAL PRESS=ENCODER SUPPORT PLATE) 
N82 (OPERATION 3) 
N84 (NO. 8 COUNTERBORE) 
N86 M09 
N88 G28 M05 G91 Y0 Z0.0 
N90 ( NO. 8 COUNTERBORE W PLANE -.200 PL.250 ) 
N92 T03 M06 
N94 M03 S1131 
N96 G0 G90 G54 X-0.1875 Y-0.125 
N98 G43 H3 Z0.1 
N100 M08 
N102 G98 G83 Z-0.44 Q0.035 R-0.15 F4. 
N104 X-2.2225 
N106 Y-2.375 
N108 X-0.1875 
N110 G80 
N112 (TIMELY NEW UNIVERSAL PRESS=ENCODER SUPPORT PLATE) 
N114 (OPERATION 4) 
N116 (3/4 COROMILL) 
N118 M09 
N120 G28 M05 G91 Y0 Z0.0 
N122 ( 3/4 COROMILL ) 
N124 T04 M06 
N126 M03 S2547 
N128 G0 G90 G54 X-1.2345 Y0.4125 
N130 G43 H4 Z0.1 
N132 M08 
N134 Z0.1063 
N136 G1 Z-0.063 F18.0 
N138 Y0.0 
N140 X-1.834 
N142 Y-2.5 
N144 X-0.635 
N146 Y0.0 
N148 X-1.2345 
N150 G3 X-1.3095 Y-0.075 I0.0 J-0.075 
N152 G1 Y-0.3705 
N154 G3 X-1.2345 Y-0.4455 I0.075 J0.0 
N156 G1 X-1.0993 
N158 G2 X-1.0805 Y-0.4642 I0.0 J-0.019 
N160 G1 Y-2.0358 
N162 G2 X-1.0993 Y-2.0545 I-0.019 J0.0 
N164 G1 X-1.3698 
N166 G2 X-1.3885 Y-2.0358 I0.0 J0.019 
N168 G1 Y-0.4642 
N170 G2 X-1.3698 Y-0.4455 I0.019 J0.0 
N172 G1 X-1.2345 
N174 G0 Z0.1 
N176 (TIMELY NEW UNIVERSAL PRESS=ENCODER SUPPORT PLATE) 
N178 (OPERATION 5) 
N180 (H-.250 REG. CARBIDE END MILL 4 FL.) 
N182 M09 
N184 G28 M05 G91 Y0 Z0.0 
N186 ( .250 REG. CARBIDE END MILL 4 FL. ) 
N188 T05 M06 
N190 M03 S2139 
N192 G0 G90 G54 X-2.0815 Y0.3 
N194 G43 H5 Z0.1 
N196 M08 
N198 G1 Z-0.063 F10.0 
N200 G42 D5 X-2.094 F6.0 
N202 Y0.0 
N204 Y-2.5 
N206 Y-2.8 
N208 G40 X-2.0815 
N210 G0 Z0.1 
N212 X-0.3875 
N214 G1 Z-0.063 F10.0 
N216 G42 D5 X-0.375 F6.0 
N218 Y-2.5 
N220 Y0.0 
N222 Y0.3 
N224 G40 X-0.3875 
N226 G0 Z0.1 
N228 M09 
N230 G28 M05 G91 Y0 Z0.0 
N232 M30 

%