%
O00318 (CYLINDER-TRUNNION-STANDS-2.HAS)
N2 (DATE 10-21-2025 TIME 9:48) 
N4 (created by hyperMILL 2024 OPEN MIND Technologies AG) 
N6 ( .5_1/2 X 90 DEG. SPOT DRILL .265 TO .390 DIA. ) 
N8 ( .250_1/4 PARABOLIC DRILL ) 
N10 ( .5938_19/32 SILVER & DEMING DRILL ) 
N12 ( .375 REG. CARBIDE END MILL 4 FL. ) 
N14 ( .6250 REAMER HS 8 FL. ) 
N16 ( .250 REG. CARBIDE END MILL 5 FL. ) 
N18 ( G-.250 CARBIDE END MILL 4 FL. ) 
N20 ( .04 X.25 SH X 60 DEG. ENGRAVE CUTTER ) 
N22 G00 G17 G20 G40 G49 G80 G90 
N24 (TIMELY NEW UNIVERSAL PRESS=CYLINDER TRUNNION STANDS) 
N26 (OPERATION 1) 
N28 (.5_1/2 SPOT DRILL .265 TO .390 DIA.) 
N30 G28 M05 G91 Y0 Z0.0 
N32 ( .5_1/2 X 90 DEG. SPOT DRILL .265 TO .390 DIA. ) 
N34 T01 M06 
N36 M03 S1042 
N38 G0 G90 G54 X1.5 Y-2.355 
N40 G43 H1 Z0.1 
N42 M08 
N44 G98 G81 Z-0.156 R0.1 F4.0 
N46 G80 
N48 (TIMELY NEW UNIVERSAL PRESS=CYLINDER TRUNNION STANDS) 
N50 (OPERATION 2) 
N52 (.250_1/4 PARABOLIC DRILL) 
N54 M09 
N56 G28 M05 G91 Y0 Z0.0 
N58 ( .250_1/4 PARABOLIC DRILL ) 
N60 T02 M06 
N62 M03 S1375 
N64 G0 G90 G54 X1.5 Y-2.355 
N66 G43 H2 Z0.1 
N68 M08 
N70 G98 G73 Z-0.6518 Q0.1 K0.3 R0.1 F4.0 
N72 G80 
N74 (TIMELY NEW UNIVERSAL PRESS=CYLINDER TRUNNION STANDS) 
N76 (OPERATION 3) 
N78 (.5938_19/32 SILVER & DEMING DRILL) 
N80 M09 
N82 G28 M05 G91 Y0 Z0.0 
N84 ( .5938_19/32 SILVER & DEMING DRILL ) 
N86 T03 M06 
N88 M03 S579 
N90 G0 G90 G54 X1.5 Y-2.355 
N92 G43 H3 Z0.1 
N94 M08 
N96 G98 G73 Z-0.7784 Q0.15 K0.45 R0.1 F4.0 
N98 G80 
N100 (TIMELY NEW UNIVERSAL PRESS=CYLINDER TRUNNION STANDS) 
N102 (OPERATION 4) 
N104 (H-.375 REG. CARBIDE END MILL 4 FL.) 
N106 M09 
N108 G28 M05 G91 Y0 Z0.0 
N110 ( .375 REG. CARBIDE END MILL 4 FL. ) 
N112 T04 M06 
N114 M03 S1426 
N116 G0 G90 G54 X1.5 Y-2.355 
N118 G43 H4 Z0.1 
N120 M08 
N122 G42 D4 G1 X1.622 F7.0 
N124 G3 X1.378 I-0.122 J0.0 Z0.05 
N126 X1.622 I0.122 J0.0 Z0.0 
N128 X1.378 I-0.122 J0.0 Z-0.05 
N130 X1.622 I0.122 J0.0 Z-0.1 
N132 X1.378 I-0.122 J0.0 Z-0.15 
N134 X1.622 I0.122 J0.0 Z-0.2 
N136 X1.378 I-0.122 J0.0 Z-0.25 
N138 X1.622 I0.122 J0.0 Z-0.3 
N140 X1.378 I-0.122 J0.0 Z-0.35 
N142 X1.622 I0.122 J0.0 Z-0.4 
N144 X1.378 I-0.122 J0.0 
N146 X1.622 I0.122 J0.0 
N148 G40 G1 X1.5 
N150 G0 Z0.1 
N152 (TIMELY NEW UNIVERSAL PRESS=CYLINDER TRUNNION STANDS) 
N154 (OPERATION 5) 
N156 (.6250 REAMER HS 8 FL.) 
N158 M09 
N160 G28 M05 G91 Y0 Z0.0 
N162 ( .6250 REAMER HS 8 FL. ) 
N164 T05 M06 
N166 M03 S397 
N168 G0 G90 G54 X1.5 Y-2.355 
N170 G43 H5 Z0.1 
N172 M08 
N174 G98 G83 Z-0.7337 Q0.4 R0.1 F4.0 
N176 G80 
N178 (TIMELY NEW UNIVERSAL PRESS=CYLINDER TRUNNION STANDS) 
N180 (OPERATION 6) 
N182 (.250 REG. CARBIDE END MILL 5 FL.) 
N184 M09 
N186 G28 M05 G91 Y0 Z0.0 
N188 ( .250 REG. CARBIDE END MILL 5 FL. ) 
N190 T06 M06 
N192 M03 S2139 
N194 G0 G90 G54 X0.6565 Y-2.67 
N196 G43 H6 Z0.1 
N198 M08 
N200 G1 Z-0.7 F10.0 
N202 G42 D6 X0.8065 F4.0 
N204 Y-0.881 
N206 X0.0 
N208 X-0.15 
N210 G40 Y-0.8935 
N212 G0 Z0.1 
N214 (TIMELY NEW UNIVERSAL PRESS=CYLINDER TRUNNION STANDS) 
N216 (OPERATION 9) 
N218 (.250 REG. CARBIDE END MILL 5 FL.) 
N220 S2139 
N222 G0 X3.15 Y-0.8935 
N224 Z0.1 
N226 G1 Z-0.7 F10.0 
N228 G42 D6 Y-0.881 F4.0 
N230 X3.0 
N232 X2.1935 
N234 Y-2.67 
N236 G40 X2.3435 
N238 G0 Z0.1 
N240 (TIMELY NEW UNIVERSAL PRESS=CYLINDER TRUNNION STANDS) 
N242 (OPERATION 7) 
N244 (G-.250 CARBIDE END MILL 4 FL.) 
N246 M09 
N248 G28 M05 G91 Y0 Z0.0 
N250 ( G-.250 CARBIDE END MILL 4 FL. ) 
N252 T07 M06 
N254 M03 S2139 
N256 G0 G90 G54 X0.6625 Y-2.67 
N258 G43 H7 Z0.1 
N260 M08 
N262 G1 Z-0.7 F10.0 
N264 G42 D7 X0.8125 F6.0 
N266 Y-0.875 
N268 X0.0 
N270 X-0.15 
N272 G40 Y-0.8875 
N274 G0 Z0.1 
N276 (TIMELY NEW UNIVERSAL PRESS=CYLINDER TRUNNION STANDS) 
N278 (OPERATION 10) 
N280 (G-.250 CARBIDE END MILL 4 FL.) 
N282 S2139 
N284 G0 X3.15 Y-0.8875 
N286 Z0.1 
N288 G1 Z-0.7 F10.0 
N290 G42 D7 Y-0.875 F6.0 
N292 X3.0 
N294 X2.1875 
N296 Y-2.67 
N298 G40 X2.3375 
N300 G0 Z0.1 
N302 (TIMELY NEW UNIVERSAL PRESS=CYLINDER TRUNNION STANDS) 
N304 (OPERATION 8) 
N306 (.04 X.25 SH X 60 DEG. ENGRAVE CUTTER) 
N308 M09 
N310 G28 M05 G91 Y0 Z0.0 
N312 ( .04 X.25 SH X 60 DEG. ENGRAVE CUTTER ) 
N314 T08 M06 
N316 M03 S4000 
N318 G0 G90 G54 X2.1488 Y-2.5698 
N320 G43 H8 Z0.1 
N322 M08 
N324 G1 Z-0.006 F10.0 
N326 G42 D8 X2.1474 Y-2.5684 F12.0 
N328 X2.0766 Y-2.6391 
N330 X1.8266 Y-2.8891 
N332 X1.7559 Y-2.9599 
N334 G40 X1.7573 Y-2.9613 
N336 G0 Z0.1 
N338 X1.2427 
N340 G1 Z-0.006 F10.0 
N342 G42 D8 X1.2441 Y-2.9599 F12.0 
N344 X1.1734 Y-2.8891 
N346 X0.9234 Y-2.6391 
N348 X0.8526 Y-2.5684 
N350 G40 X0.8512 Y-2.5698 
N352 G0 Z0.1 
N354 M09 
N356 G28 M05 G91 Y0 Z0.0 
N358 M30 

%