%
O00346 (MAT-ENC-Top-Insert-2.HAS)
N2 (DATE 10-24-2025 TIME 15:26) 
N4 (created by hyperMILL 2024 OPEN MIND Technologies AG) 
N6 ( .5 REG. CARBIDE END MILL 4 FL. ) 
N8 G00 G17 G20 G40 G49 G80 G90 
N10 (TIMELY NEW UNIVERSAL PRESS=MAT ENC TOP INSERT) 
N12 (OPERATION 1) 
N14 (H-.5 REG. CARBIDE END MILL 4 FL.) 
N16 G28 M05 G91 Y0 Z0.0 
N18 ( .5 REG. CARBIDE END MILL 4 FL. ) 
N20 T01 M06 
N22 M03 S993 
N24 G0 G90 G54 X2.644 Y-0.5425 
N26 G43 H1 Z0.1 
N28 M08 
N30 Z0.02 
N32 G42 D1 G1 X3.019 Z0.08 F8.0 
N34 G3 X2.269 I-0.375 J0.0 Z0.035 
N36 X3.019 I0.375 J0.0 Z-0.01 
N38 X2.269 I-0.375 J0.0 Z-0.055 
N40 X3.019 I0.375 J0.0 Z-0.1 
N42 X2.269 I-0.375 J0.0 Z-0.145 
N44 X3.019 I0.375 J0.0 Z-0.19 
N46 X2.269 I-0.375 J0.0 Z-0.235 
N48 X3.019 I0.375 J0.0 Z-0.28 
N50 X2.269 I-0.375 J0.0 Z-0.325 
N52 X3.019 I0.375 J0.0 Z-0.37 
N54 X2.269 I-0.375 J0.0 Z-0.415 
N56 X3.019 I0.375 J0.0 Z-0.46 
N58 X2.269 I-0.375 J0.0 Z-0.505 
N60 X3.019 I0.375 J0.0 Z-0.55 
N62 X2.269 I-0.375 J0.0 Z-0.595 
N64 X3.019 I0.375 J0.0 Z-0.64 
N66 X2.269 I-0.375 J0.0 
N68 X3.019 I0.375 J0.0 
N70 G40 G1 X2.644 
N72 G0 Z0.1 
N74 (TIMELY NEW UNIVERSAL PRESS=MAT ENC TOP INSERT) 
N76 (OPERATION 2) 
N78 (H-.5 REG. CARBIDE END MILL 4 FL.) 
N80 S993 
N82 G0 X2.8653 Y-0.6626 
N84 Z0.1 
N86 G1 Z-0.64 F10.0 
N88 G42 D1 X2.872 Y-0.6867 F4.0 
N90 G3 X3.0111 Y-0.4404 I-0.054 J0.193 
N92 X2.2769 I-0.367 J-0.102 
N94 X2.416 Y-0.6867 I0.193 J-0.054 
N96 G40 G1 X2.4227 Y-0.6626 
N98 G0 Z0.1 
N100 M09 
N102 G28 M05 G91 Y0 Z0.0 
N104 M30 

%