%
O00330 (BAR-SLIDE-BOTTOM-CASE.HAS)
N2 (DATE 11-1-2025 TIME 6:47) 
N4 (created by hyperMILL 2024 OPEN MIND Technologies AG) 
N6 ( .75 REG. R. END MILL TIN 4 FL. ) 
N8 ( .75 REG. CARBIDE END MILL 4 FL. ) 
N10 ( 3/4 COROMILL ) 
N12 ( .5 STUB CARBIDE END MILL 4 FL. ) 
N14 ( .5_1/2 X 90 DEG. SPOT DRILLL .218 TO.265 DIA. ) 
N16 ( .209_NO.4 PARABOLIC DRILL ) 
N18 ( 1/4-20 OSG TAP ) 
N20 ( .257_F PARABOLIC DRILL ) 
N22 G00 G17 G20 G40 G49 G80 G90 
N24 (TIMELY NEW DUPLEX MILL=BAR SLIDE BOTTOM CASE) 
N26 (OPERATION 2) 
N28 (F-.75 REG. R. END MILL TIN 4 FL.) 
N30 G28 M05 G91 Y0 Z0.0 
N32 ( .75 REG. R. END MILL TIN 4 FL. ) 
N34 T01 M06 
N36 M03 S410 
N38 G0 G90 G54 X-0.4225 Y-2.151 
N40 G43 H1 Z0.1 
N42 M08 
N44 G1 Z-1.2 F10.0 
N46 G42 D1 X-0.385 F5.0 
N48 Y-1.751 
N50 Y0.0 
N52 Y0.4 
N54 G40 X-0.4225 
N56 G0 Z0.1 
N58 X6.494 
N60 G1 Z-1.2 F10.0 
N62 G42 D1 X6.4565 F5.0 
N64 Y0.0 
N66 Y-1.751 
N68 Y-2.151 
N70 G40 X6.494 
N72 G0 Z0.1 
N74 (TIMELY NEW DUPLEX MILL=BAR SLIDE BOTTOM CASE) 
N76 (OPERATION 3) 
N78 (J-.75 REG. CARBIDE END MILL 4 FL.) 
N80 M09 
N82 G28 M05 G91 Y0 Z0.0 
N84 ( .75 REG. CARBIDE END MILL 4 FL. ) 
N86 T02 M06 
N88 M03 S665 
N90 G0 G90 G54 X-0.4125 Y-2.151 
N92 G43 H2 Z0.1 
N94 M08 
N96 G1 Z-1.2 F10.0 
N98 G42 D2 X-0.375 F5. 
N100 Y-1.751 
N102 Y0.0 
N104 Y0.4 
N106 G40 X-0.4125 
N108 G0 Z0.1 
N110 X6.484 
N112 G1 Z-1.2 F10.0 
N114 G42 D2 X6.4465 F5. 
N116 Y0.0 
N118 Y-1.751 
N120 Y-2.151 
N122 G40 X6.484 
N124 G0 Z0.1 
N126 (TIMELY NEW DUPLEX MILL=BAR SLIDE BOTTOM CASE) 
N128 (OPERATION 1) 
N130 (3/4 COROMILL) 
N132 M09 
N134 G28 M05 G91 Y0 Z0.0 
N136 ( 3/4 COROMILL ) 
N138 T03 M06 
N140 M03 S1222 
N142 G0 G90 G54 X6.484 Y-0.8755 
N144 G43 H3 Z0.1 
N146 M08 
N148 Z0.106 
N150 G1 Z-0.06 F9.0 
N152 X6.0715 
N154 Y-0.76 
N156 X0.0 
N158 Y-0.991 
N160 X6.0715 
N162 Y-0.8755 
N164 G0 Z0.1 
N166 X6.484 
N168 Z0.046 
N170 G1 Z-0.12 F9.0 
N172 X6.0715 
N174 Y-0.76 
N176 X0.0 
N178 Y-0.991 
N180 X6.0715 
N182 Y-0.8755 
N184 G0 Z0.1 
N186 X6.484 
N188 Z-0.014 
N190 G1 Z-0.18 F9.0 
N192 X6.0715 
N194 Y-0.76 
N196 X0.0 
N198 Y-0.991 
N200 X6.0715 
N202 Y-0.8755 
N204 G0 Z0.1 
N206 X6.484 
N208 Z-0.074 
N210 G1 Z-0.24 F9.0 
N212 X6.0715 
N214 Y-0.76 
N216 X0.0 
N218 Y-0.991 
N220 X6.0715 
N222 Y-0.8755 
N224 G0 Z0.1 
N226 X6.484 
N228 Z-0.134 
N230 G1 Z-0.3 F9.0 
N232 X6.0715 
N234 Y-0.76 
N236 X0.0 
N238 Y-0.991 
N240 X6.0715 
N242 Y-0.8755 
N244 G0 Z0.1 
N246 X6.484 
N248 Z-0.194 
N250 G1 Z-0.36 F9.0 
N252 X6.0715 
N254 Y-0.76 
N256 X0.0 
N258 Y-0.991 
N260 X6.0715 
N262 Y-0.8755 
N264 G0 Z0.1 
N266 X6.484 
N268 Z-0.254 
N270 G1 Z-0.375 F9.0 
N272 X6.0715 
N274 Y-0.76 
N276 X0.0 
N278 Y-0.991 
N280 X6.0715 
N282 Y-0.8755 
N284 G0 Z0.1 
N286 (TIMELY NEW DUPLEX MILL=BAR SLIDE BOTTOM CASE) 
N288 (OPERATION 4) 
N290 (G-.5 STUB CARBIDE END MILL 4 FL.) 
N292 M09 
N294 G28 M05 G91 Y0 Z0.0 
N296 ( .5 STUB CARBIDE END MILL 4 FL. ) 
N298 T04 M06 
N300 M03 S993 
N302 G0 G90 G54 X6.3715 Y-0.654 
N304 G43 H4 Z0.1 
N306 M08 
N308 G1 Z-0.375 F10.0 
N310 G42 D4 Y-0.629 F6. 
N312 X6.0715 
N314 X0.0 
N316 X-0.3 
N318 G40 Y-0.654 
N320 G0 Z0.1 
N322 Y-1.097 
N324 G1 Z-0.375 F10.0 
N326 G42 D4 Y-1.122 F6. 
N328 X0.0 
N330 X6.0715 
N332 X6.3715 
N334 G40 Y-1.097 
N336 G0 Z0.1 
N338 (TIMELY NEW DUPLEX MILL=BAR SLIDE BOTTOM CASE) 
N340 (OPERATION 5) 
N342 (.5_1/2 SPOT DRIL 218 TO.265 DIA.) 
N344 M09 
N346 G28 M05 G91 Y0 Z0.0 
N348 ( .5_1/2 X 90 DEG. SPOT DRILLL .218 TO.265 DIA. ) 
N350 T05 M06 
N352 M03 S1389 
N354 G0 G90 G54 X0.75 Y-0.205 
N356 G43 H5 Z0.1 
N358 M08 
N360 G98 G81 Z-0.125 R0.1 F3.0 
N362 Y-1.546 
N364 X5.1953 
N366 Y-0.205 
N368 G80 
N370 (TIMELY NEW DUPLEX MILL=BAR SLIDE BOTTOM CASE) 
N372 (OPERATION 8) 
N374 (.5_1/2 SPOT DRIL 218 TO.265 DIA.) 
N376 S1389 
N378 G0 X5.6965 Y-0.205 
N380 Z0.1 
N382 G98 G81 Z-0.128 R0.1 F4.0 
N384 X4.4465 
N386 Y-1.546 
N388 X5.6965 
N390 G80 
N392 (TIMELY NEW DUPLEX MILL=BAR SLIDE BOTTOM CASE) 
N394 (OPERATION 6) 
N396 (.209_NO.4 PARABOLIC DRILL) 
N398 M09 
N400 G28 M05 G91 Y0 Z0.0 
N402 ( .209_NO.4 PARABOLIC DRILL ) 
N404 T06 M06 
N406 M03 S1462 
N408 G0 G90 G54 X0.75 Y-0.205 
N410 G43 H6 Z0.1 
N412 M08 
N414 G98 G73 Z-0.8933 Q0.1 K0.2 R0.1 F4.0 
N416 Y-1.546 
N418 X5.1953 
N420 Y-0.205 
N422 G80 
N424 (TIMELY NEW DUPLEX MILL=BAR SLIDE BOTTOM CASE) 
N426 (OPERATION 7) 
N428 (O-1/4-20 OSG TAP) 
N430 M09 
N432 G28 M05 G91 Y0 Z0.0 
N434 ( 1/4-20 OSG TAP ) 
N436 T07 M06 
N438 M03 S458 
N440 G0 G90 G54 X0.75 Y-0.205 
N442 G43 H7 Z0.1 
N444 M08 
N446 G98 G84 Z-0.7 R0.1 F22.9 
N448 Y-1.546 
N450 X5.1953 
N452 Y-0.205 
N454 G80 
N456 (TIMELY NEW DUPLEX MILL=BAR SLIDE BOTTOM CASE) 
N458 (OPERATION 9) 
N460 (.257_F PARABOLIC DRILL) 
N462 M09 
N464 G28 M05 G91 Y0 Z0.0 
N466 ( .257_F PARABOLIC DRILL ) 
N468 T08 M06 
N470 M03 S1189 
N472 G0 G90 G54 X5.6965 Y-0.205 
N474 G43 H8 Z0.1 
N476 M08 
N478 G98 G73 Z-0.9532 Q0.1 K0.2 R0.1 F3.5 
N480 X4.4465 
N482 Y-1.546 
N484 X5.6965 
N486 G80 
N488 M09 
N490 G28 M05 G91 Y0 Z0.0 
N492 M30 

%