%
O00522 (PUSH-BASE-7.HAS)
N2 (DATE 10-15-2025 TIME 8:54) 
N4 (created by hyperMILL 2024 OPEN MIND Technologies AG) 
N6 ( .5_1/2 X 90 DEG. SPOT DRILL .390 TO .500 DIA. ) 
N8 ( .4218_27/64 PARABOLIC DRILL ) 
N10 ( .250 REG. CARBIDE END MILL 4 FL. ) 
N12 ( .4355 REAMER HS 6 FL. ) 
N14 ( .4370 REAMER HS 6 FL. ) 
N16 ( .5 REG. CARBIDE END MILL 4 FL. ) 
N18 G00 G17 G20 G40 G49 G80 G90 
N20 (TIMELY NEW UNIVERSAL PRESS=SLIDE BASE) 
N22 (OPERATION 1) 
N24 (.5_1/2 SPOT DRILL .390 TO .500 DIA.) 
N26 G28 M05 G91 Y0 Z0.0 
N28 ( .5_1/2 X 90 DEG. SPOT DRILL .390 TO .500 DIA. ) 
N30 T01 M06 
N32 M03 S2274 
N34 G0 G90 G54 X2.9693 Y-1.983 
N36 G43 H1 Z0.1 
N38 M08 
N40 G98 G81 Z-0.512 R-0.212 F9.0 
N42 G80 
N44 (TIMELY NEW UNIVERSAL PRESS=SLIDE BASE) 
N46 (OPERATION 2) 
N48 (.4218_27/64 PARABOLIC DRILL) 
N50 M09 
N52 G28 M05 G91 Y0 Z0.0 
N54 ( .4218_27/64 PARABOLIC DRILL ) 
N56 T02 M06 
N58 M03 S1543 
N60 G0 G90 G54 X2.9693 Y-1.983 
N62 G43 H2 Z0.1 
N64 M08 
N66 G98 G73 Z-1.3 Q0.1 K0.2 R-0.212 F13.0 
N68 G80 
N70 (TIMELY NEW UNIVERSAL PRESS=SLIDE BASE) 
N72 (OPERATION 3) 
N74 (H-.250 REG. CARBIDE END MILL 4 FL.) 
N76 M09 
N78 G28 M05 G91 Y0 Z0.0 
N80 ( .250 REG. CARBIDE END MILL 4 FL. ) 
N82 T03 M06 
N84 M03 S3514 
N86 G0 G90 G54 X2.9693 Y-1.983 
N88 G43 H3 Z0.1 
N90 M08 
N92 Z-0.292 
N94 G42 D3 G1 X3.061 Z-0.3 F13.0 
N96 G3 X2.8775 I-0.092 J0.0 Z-0.33 
N98 X3.061 I0.092 J0.0 Z-0.36 
N100 X2.8775 I-0.092 J0.0 Z-0.39 
N102 X3.061 I0.092 J0.0 Z-0.42 
N104 X2.8775 I-0.092 J0.0 Z-0.45 
N106 X3.061 I0.092 J0.0 Z-0.48 
N108 X2.8775 I-0.092 J0.0 Z-0.51 
N110 X3.061 I0.092 J0.0 Z-0.54 
N112 X2.8775 I-0.092 J0.0 Z-0.57 
N114 X3.061 I0.092 J0.0 Z-0.6 
N116 X2.8775 I-0.092 J0.0 
N118 X3.061 I0.092 J0.0 
N120 G40 G1 X2.9693 
N122 G0 Z0.1 
N124 (TIMELY NEW UNIVERSAL PRESS=SLIDE BASE) 
N126 (OPERATION 4) 
N128 (.4355 REAMER HS 6 FL.) 
N130 M09 
N132 G28 M05 G91 Y0 Z0.0 
N134 ( .4355 REAMER HS 6 FL. ) 
N136 T04 M06 
N138 M03 S684 
N140 G0 G90 G54 X2.9693 Y-1.983 
N142 G43 H4 Z0.1 
N144 M08 
N146 G98 G83 Z-1.3793 Q0.5 R-0.212 F6.0 
N148 G80 
N150 (TIMELY NEW UNIVERSAL PRESS=SLIDE BASE) 
N152 (OPERATION 5) 
N154 (.4370 REAMER HS 6 FL.) 
N156 M09 
N158 G28 M05 G91 Y0 Z0.0 
N160 ( .4370 REAMER HS 6 FL. ) 
N162 T05 M06 
N164 M03 S472 
N166 G0 G90 G54 X2.9693 Y-1.983 
N168 G43 H5 Z0.1 
N170 M08 
N172 G98 G83 Z-1.3795 Q0.5 R-0.212 F8.0 
N174 G80 
N176 (TIMELY NEW UNIVERSAL PRESS=SLIDE BASE) 
N178 (OPERATION 7) 
N180 (H-.5 REG. CARBIDE END MILL 4 FL.) 
N182 M09 
N184 G28 M05 G91 Y0 Z0.0 
N186 ( .5 REG. CARBIDE END MILL 4 FL. ) 
N188 T06 M06 
N190 M03 S3820 
N192 G0 G90 G54 X2.9343 Y-1.227 
N194 G43 H6 Z0.1 
N196 M08 
N198 Z-0.032 
N200 G1 Z-1.4 F10.0 
N202 G42 D6 X2.9093 F6. 
N204 G3 X2.9693 Y-1.287 I0.06 J0.0 
N206 G2 Y-2.679 I0.0 J-0.696 
N208 G3 X2.9093 Y-2.739 I0.0 J-0.06 
N210 G40 G1 X2.9343 
N212 G0 Z0.1 
N214 (TIMELY NEW UNIVERSAL PRESS=SLIDE BASE) 
N216 (OPERATION 8) 
N218 (H-.5 REG. CARBIDE END MILL 4 FL.) 
N220 S3820 
N222 G0 X2.9343 Y-1.267 
N224 Z0.1 
N226 Z-0.032 
N228 G1 Z-1.4 F10.0 
N230 G42 D6 X2.9093 F8. 
N232 G3 X2.9693 Y-1.327 I0.06 J0.0 
N234 G2 Y-2.639 I0.0 J-0.656 
N236 G3 X2.9093 Y-2.699 I0.0 J-0.06 
N238 G40 G1 X2.9343 
N240 G0 Z0.1 
N242 M09 
N244 G28 M05 G91 Y0 Z0.0 
N246 M30 

%