%
O00524 (CROWER-SUPPORT-PLATE-1.HAS)
N2 (DATE 10-17-2025 TIME 11:36) 
N4 (created by hyperMILL 2024 OPEN MIND Technologies AG) 
N6 ( 3/4 COROMILL ) 
N8 ( .375 STUB CARBIDE END MILL 4 FL. ) 
N10 ( .250_1/4 X 90 DEG. SPOT DRILL ) 
N12 ( .2031_13/64 PARABOLIC DRILL ) 
N14 ( .166_NO.19 PARABOLIC DRILL ) 
N16 ( 10-32 NF OSG TAP ) 
N18 ( .5_1/2 X 90 DEG. SPOT DRILLL .218 TO.265 DIA. ) 
N20 ( .2656_17/64 PARABOLIC DRILL ) 
N22 ( 5/16-18 OSG TAP ) 
N24 G00 G17 G20 G40 G49 G80 G90 
N26 (TIMELY NEW UNIVERSAL PRESS=CROWER SUPPORT PLATE) 
N28 (OPERATION 1) 
N30 (3/4 COROMILL) 
N32 G28 M05 G91 Y0 Z0.0 
N34 ( 3/4 COROMILL ) 
N36 T01 M06 
N38 M03 S5093 
N40 G0 G90 G54 X-2.606 Y0.4 
N42 G43 H1 Z0.1 
N44 M08 
N46 G1 Z-0.052 F10.0 
N48 G42 D1 X-2.6435 F31.0 
N50 Y0.0 
N52 Y-1.8125 
N54 Y-2.2125 
N56 G40 X-2.606 
N58 G0 Z0.1 
N60 Y0.4 
N62 Z0.048 
N64 G1 Z-0.1 F10.0 
N66 G42 D1 X-2.6435 F31.0 
N68 Y0.0 
N70 Y-1.8125 
N72 Y-2.2125 
N74 G40 X-2.606 
N76 G0 Z0.1 
N78 X-2.076 
N80 G1 Z-0.052 F10.0 
N82 G42 D1 X-2.0385 F31.0 
N84 Y-1.8125 
N86 Y0.0 
N88 Y0.4 
N90 G40 X-2.076 
N92 G0 Z0.1 
N94 Y-2.2125 
N96 Z0.048 
N98 G1 Z-0.1 F10.0 
N100 G42 D1 X-2.0385 F31.0 
N102 Y-1.8125 
N104 Y0.0 
N106 Y0.4 
N108 G40 X-2.076 
N110 G0 Z0.1 
N112 (TIMELY NEW UNIVERSAL PRESS=CROWER SUPPORT PLATE) 
N114 (OPERATION 11) 
N116 (3/4 COROMILL) 
N118 S5093 
N120 G0 X-2.606 Y0.4 
N122 Z0.1 
N124 G1 Z-0.125 F10.0 
N126 G42 D1 X-2.6435 F12. 
N128 Y0.0 
N130 Y-1.8125 
N132 Y-2.2125 
N134 G40 X-2.606 
N136 G0 Z0.1 
N138 X-2.076 
N140 G1 Z-0.125 F10.0 
N142 G42 D1 X-2.0385 F12. 
N144 Y-1.8125 
N146 Y0.0 
N148 Y0.4 
N150 G40 X-2.076 
N152 G0 Z0.1 
N154 (TIMELY NEW UNIVERSAL PRESS=CROWER SUPPORT PLATE) 
N156 (OPERATION 2) 
N158 (G-.375 STUB CARBIDE END MILL 4 FL.) 
N160 M09 
N162 G28 M05 G91 Y0 Z0.0 
N164 ( .375 STUB CARBIDE END MILL 4 FL. ) 
N166 T02 M06 
N168 M03 S2343 
N170 G0 G90 G54 X-2.8222 Y0.2 
N172 G43 H2 Z0.1 
N174 M08 
N176 G1 Z-0.125 F10.0 
N178 G42 D2 X-2.841 F17.0 
N180 Y0.0 
N182 Y-1.8125 
N184 Y-2.0125 
N186 G40 X-2.8222 
N188 G0 Z0.1 
N190 X-1.8598 
N192 G1 Z-0.125 F10.0 
N194 G42 D2 X-1.841 F17.0 
N196 Y-1.8125 
N198 Y0.0 
N200 Y0.2 
N202 G40 X-1.8598 
N204 G0 Z0.1 
N206 (TIMELY NEW UNIVERSAL PRESS=CROWER SUPPORT PLATE) 
N208 (OPERATION 3) 
N210 (.250_1/4 SPOT DRILL) 
N212 M09 
N214 G28 M05 G91 Y0 Z0.0 
N216 ( .250_1/4 X 90 DEG. SPOT DRILL ) 
N218 T03 M06 
N220 M03 S5220 
N222 G0 G90 G54 X-1.841 Y-0.5625 
N224 G43 H3 Z0.1 
N226 M08 
N228 G98 G81 Z-0.225 R-0.025 F10. 
N230 Y-1.3125 
N232 X-2.841 
N234 Y-0.5625 
N236 G80 
N238 (TIMELY NEW UNIVERSAL PRESS=CROWER SUPPORT PLATE) 
N240 (OPERATION 5) 
N242 (.250_1/4 SPOT DRILL) 
N244 S5220 
N246 G0 X-1.341 Y-1.3125 
N248 Z0.1 
N250 G98 G81 Z-0.1 R0.1 F10. 
N252 X-3.341 
N254 G80 
N256 (TIMELY NEW UNIVERSAL PRESS=CROWER SUPPORT PLATE) 
N258 (OPERATION 4) 
N260 (.2031_13/64 PARABOLIC DRILL) 
N262 M09 
N264 G28 M05 G91 Y0 Z0.0 
N266 ( .2031_13/64 PARABOLIC DRILL ) 
N268 T04 M06 
N270 M03 S3199 
N272 G0 G90 G54 X-1.841 Y-0.5625 
N274 G43 H4 Z0.1 
N276 M08 
N278 G98 G73 Z-0.7 Q0.08 K0.16 R-0.025 F12.0 
N280 Y-1.3125 
N282 X-2.841 
N284 Y-0.5625 
N286 G80 
N288 (TIMELY NEW UNIVERSAL PRESS=CROWER SUPPORT PLATE) 
N290 (OPERATION 6) 
N292 (.166_NO.19 PARABOLIC DRILL) 
N294 M09 
N296 G28 M05 G91 Y0 Z0.0 
N298 ( .166_NO.19 PARABOLIC DRILL ) 
N300 T05 M06 
N302 M03 S3912 
N304 G0 G90 G54 X-1.341 Y-1.3125 
N306 G43 H5 Z0.1 
N308 M08 
N310 G98 G73 Z-0.7 Q0.05 K0.15 R0.1 F11.0 
N312 X-3.341 
N314 G80 
N316 (TIMELY NEW UNIVERSAL PRESS=CROWER SUPPORT PLATE) 
N318 (OPERATION 7) 
N320 (N-10-32 NF OSG TAP) 
N322 M09 
N324 G28 M05 G91 Y0 Z0.0 
N326 ( 10-32 NF OSG TAP ) 
N328 T06 M06 
N330 M03 S792 
N332 G0 G90 G54 X-1.341 Y-1.3125 
N334 G43 H6 Z0.1 
N336 M08 
N338 G98 G84 Z-0.65 R0.1 F24.75 
N340 X-3.341 
N342 G80 
N344 (TIMELY NEW UNIVERSAL PRESS=CROWER SUPPORT PLATE) 
N346 (OPERATION 8) 
N348 (.5_1/2 SPOT DRIL 218 TO.265 DIA.) 
N350 M09 
N352 G28 M05 G91 Y0 Z0.0 
N354 ( .5_1/2 X 90 DEG. SPOT DRILLL .218 TO.265 DIA. ) 
N356 T07 M06 
N358 M03 S4341 
N360 G0 G90 G54 X-0.591 Y-1.5315 
N362 G43 H7 Z0.1 
N364 M08 
N366 G98 G81 Z-0.16 R0.1 F8. 
N368 X-0.7505 Y-0.4995 
N370 X-3.9315 
N372 X-4.091 Y-1.5315 
N374 G80 
N376 (TIMELY NEW UNIVERSAL PRESS=CROWER SUPPORT PLATE) 
N378 (OPERATION 9) 
N380 (.2656_17/64 PARABOLIC DRILL) 
N382 M09 
N384 G28 M05 G91 Y0 Z0.0 
N386 ( .2656_17/64 PARABOLIC DRILL ) 
N388 T08 M06 
N390 M03 S2451 
N392 G0 G90 G54 X-0.7505 Y-0.4995 
N394 G43 H8 Z0.1 
N396 M08 
N398 G98 G73 Z-0.7 Q0.1 K0.2 R0.1 F10.0 
N400 X-0.591 Y-1.5315 
N402 X-3.9315 Y-0.4995 
N404 X-4.091 Y-1.5315 
N406 G80 
N408 (TIMELY NEW UNIVERSAL PRESS=CROWER SUPPORT PLATE) 
N410 (OPERATION 10) 
N412 (Q-5/16-18 OSG TAP) 
N414 M09 
N416 G28 M05 G91 Y0 Z0.0 
N418 ( 5/16-18 OSG TAP ) 
N420 T09 M06 
N422 M03 S489 
N424 G0 G90 G54 X-0.7505 Y-0.4995 
N426 G43 H9 Z0.1 
N428 M08 
N430 G98 G84 Z-0.8 R0.1 F27.1395 
N432 X-0.591 Y-1.5315 
N434 X-3.9315 Y-0.4995 
N436 X-4.091 Y-1.5315 
N438 G80 
N440 M09 
N442 G28 M05 G91 Y0 Z0.0 
N444 M30 

%