%
O00528 (CROWER-SUPPORT-PLATE-3.HAS)
N2 (DATE 10-17-2025 TIME 12:14) 
N4 (created by hyperMILL 2024 OPEN MIND Technologies AG) 
N6 ( COROMILL 1 1/2 ) 
N8 ( .375 STUB CARBIDE END MILL 4 FL. ) 
N10 ( 3/8 COUNTESINK .078 TIP X 82 DEG ) 
N12 G00 G17 G20 G40 G49 G80 G90 
N14 (TIMELY NEW UNIVERSAL PRESS=CROWER SUPPORT PLATE) 
N16 (OPERATION 1) 
N18 (COROMILL 1 1/2) 
N20 G28 M05 G91 Y0 Z0.0 
N22 ( COROMILL 1 1/2 ) 
N24 T01 M06 
N26 M03 S1910 
N28 G0 G90 G54 X5.482 Y-1.6475 
N30 G43 H1 Z0.1 
N32 M08 
N34 G1 Z-0.05 F10.0 
N36 G42 D1 Y-1.5725 F23.0 
N38 X4.682 
N40 X0.0 
N42 X-0.8 
N44 G40 Y-1.6475 
N46 G0 Z0.1 
N48 X5.482 
N50 Z0.05 
N52 G1 Z-0.1 F10.0 
N54 G42 D1 Y-1.5725 F23.0 
N56 X4.682 
N58 X0.0 
N60 X-0.8 
N62 G40 Y-1.6475 
N64 G0 Z0.1 
N66 X5.482 
N68 Z0.0 
N70 G1 Z-0.125 F10.0 
N72 G42 D1 Y-1.5725 F23.0 
N74 X4.682 
N76 X0.0 
N78 X-0.8 
N80 G40 Y-1.6475 
N82 G0 Z0.1 
N84 (TIMELY NEW UNIVERSAL PRESS=CROWER SUPPORT PLATE) 
N86 (OPERATION 4) 
N88 (G-.375 STUB CARBIDE END MILL 4 FL.) 
N90 M09 
N92 G28 M05 G91 Y0 Z0.0 
N94 ( .375 STUB CARBIDE END MILL 4 FL. ) 
N96 T02 M06 
N98 M03 S2343 
N100 G0 G90 G54 X4.882 Y-1.0188 
N102 G43 H2 Z0.1 
N104 M08 
N106 G1 Z-0.125 F10.0 
N108 G42 D2 Y-1.0 F8. 
N110 X4.682 
N112 X0.0 
N114 X-0.2 
N116 G40 Y-1.0188 
N118 G0 Z0.1 
N120 (TIMELY NEW UNIVERSAL PRESS=CROWER SUPPORT PLATE) 
N122 (OPERATION 2) 
N124 (3/8 COUNTESINK .078 TIP X 82 DEG) 
N126 M09 
N128 G28 M05 G91 Y0 Z0.0 
N130 ( 3/8 COUNTESINK .078 TIP X 82 DEG ) 
N132 T03 M06 
N134 M03 S1800 
N136 G0 G90 G54 X2.841 Y-0.5625 
N138 G43 H3 Z0.1 
N140 M08 
N142 G98 G83 Z-0.21 Q0.02 R-0.08 F4. 
N144 X1.841 
N146 G80 
N148 (TIMELY NEW UNIVERSAL PRESS=CROWER SUPPORT PLATE) 
N150 (OPERATION 3) 
N152 (3/8 COUNTESINK .078 TIP X 82 DEG) 
N154 S1800 
N156 G0 X2.841 Y-1.3125 
N158 Z0.1 
N160 G98 G83 Z-0.335 Q0.02 R-0.205 F4. 
N162 X1.841 
N164 G80 
N166 M09 
N168 G28 M05 G91 Y0 Z0.0 
N170 M30 

%