%
O00520 (PUSH-BASE-6.HAS)
N2 (DATE 10-15-2025 TIME 8:33) 
N4 (created by hyperMILL 2024 OPEN MIND Technologies AG) 
N6 ( .75 REG. CARBIDE END MILL 4 FL. ) 
N8 G00 G17 G20 G40 G49 G80 G90 
N10 (TIMELY NEW UNIVERSAL PRESS=SLIDE BASE) 
N12 (OPERATION 1) 
N14 (J-.75 REG. CARBIDE END MILL 4 FL.) 
N16 G28 M05 G91 Y0 Z0.0 
N18 ( .75 REG. CARBIDE END MILL 4 FL. ) 
N20 T01 M06 
N22 M03 S2550 
N24 G0 G90 G54 X1.8645 Y-1.5415 
N26 G43 H1 Z0.1 
N28 M08 
N30 G1 Z-0.825 F10.0 
N32 G42 D1 X1.902 F12. 
N34 G3 X1.802 Y-1.4415 I-0.1 J0.0 
N36 G1 X1.452 
N38 G3 X1.352 Y-1.5415 I0.0 J-0.1 
N40 G40 G1 X1.3895 
N42 G0 Z0.1 
N44 Y0.1665 
N46 G1 Z-0.825 F10.0 
N48 G42 D1 X1.352 F12. 
N50 G3 X1.452 Y0.0665 I0.1 J0.0 
N52 G1 X1.802 
N54 G3 X1.902 Y0.1665 I0.0 J0.1 
N56 G40 G1 X1.8645 
N58 G0 Z0.1 
N60 M09 
N62 G28 M05 G91 Y0 Z0.0 
N64 M30 

%