%
O00616 (ENCODER-BASE-4.HAS)
N2 (DATE 10-28-2025 TIME 12:01) 
N4 (created by hyperMILL 2024 OPEN MIND Technologies AG) 
N6 ( 3/4 COROMILL ) 
N8 ( .375 STUB CARBIDE END MILL 4 FL. ) 
N10 ( .375_3/8 X 90 DEG. SPOT DRILL ) 
N12 ( .3593_23/64 PARABOLIC DRILL ) 
N14 ( .250 STUB CARBIDE END MILL 4 FL. ) 
N16 ( .3730 REAMER HS 6 FL. ) 
N18 ( .3745 REAMER HS 6 FL. ) 
N20 ( .2656_17/64 PARABOLIC DRILL ) 
N22 ( 5/16-18 OSG TAP ) 
N24 ( .3281_21/64 PARABOLIC DRILL ) 
N26 ( .209_NO.4 PARABOLIC DRILL ) 
N28 ( 1/4-20 OSG TAP ) 
N30 ( .2343_15/64 PARABOLIC DRILL ) 
N32 ( .1875 STUB CARBIDE 4 FL. ) 
N34 ( .2480 REAMER HS 6 FL. ) 
N36 ( .2510 REAMER HS 6 FL. ) 
N38 ( .3125_5/16 PARABOLIC DRILL ) 
N40 ( .500_1/2 PARABOLIC DRILL ) 
N42 G00 G17 G20 G40 G49 G80 G90 
N44 (TIMELY NEW UNIVERSAL PRESS=ENCODER BASE) 
N46 (OPERATION 1) 
N48 (3/4 COROMILL) 
N50 G28 M05 G91 Y0 Z0.0 
N52 ( 3/4 COROMILL ) 
N54 T01 M06 
N56 M03 S5093 
N58 G0 G90 G54 X-1.875 Y-5.0925 
N60 G43 H1 Z0.1 
N62 M08 
N64 Z0.1078 
N66 G1 Z-0.078 F31.0 
N68 Y-4.68 
N70 X-1.385 
N72 Y0.0 
N74 X-2.365 
N76 Y-4.68 
N78 X-1.875 
N80 G3 X-1.8 Y-4.605 I0.0 J0.075 
N82 G1 Y-4.3095 
N84 G3 X-1.875 Y-4.2345 I-0.075 J0.0 
N86 G1 X-1.9007 
N88 G2 X-1.9195 Y-4.2157 I0.0 J0.019 
N90 G1 Y-0.4642 
N92 G2 X-1.9007 Y-0.4455 I0.019 J0.0 
N94 G1 X-1.8493 
N96 G2 X-1.8305 Y-0.4642 I0.0 J-0.019 
N98 G1 Y-4.2157 
N100 G2 X-1.8493 Y-4.2345 I-0.019 J0.0 
N102 G1 X-1.875 
N104 G0 Z0.1 
N106 Y-5.0925 
N108 Z0.0298 
N110 G1 Z-0.156 F31.0 
N112 Y-4.68 
N114 X-1.385 
N116 Y0.0 
N118 X-2.365 
N120 Y-4.68 
N122 X-1.875 
N124 G3 X-1.8 Y-4.605 I0.0 J0.075 
N126 G1 Y-4.3095 
N128 G3 X-1.875 Y-4.2345 I-0.075 J0.0 
N130 G1 X-1.9007 
N132 G2 X-1.9195 Y-4.2157 I0.0 J0.019 
N134 G1 Y-0.4642 
N136 G2 X-1.9007 Y-0.4455 I0.019 J0.0 
N138 G1 X-1.8493 
N140 G2 X-1.8305 Y-0.4642 I0.0 J-0.019 
N142 G1 Y-4.2157 
N144 G2 X-1.8493 Y-4.2345 I-0.019 J0.0 
N146 G1 X-1.875 
N148 G0 Z0.1 
N150 Y-5.0925 
N152 Z-0.0482 
N154 G1 Z-0.234 F31.0 
N156 Y-4.68 
N158 X-1.385 
N160 Y0.0 
N162 X-2.365 
N164 Y-4.68 
N166 X-1.875 
N168 G3 X-1.8 Y-4.605 I0.0 J0.075 
N170 G1 Y-4.3095 
N172 G3 X-1.875 Y-4.2345 I-0.075 J0.0 
N174 G1 X-1.9007 
N176 G2 X-1.9195 Y-4.2157 I0.0 J0.019 
N178 G1 Y-0.4642 
N180 G2 X-1.9007 Y-0.4455 I0.019 J0.0 
N182 G1 X-1.8493 
N184 G2 X-1.8305 Y-0.4642 I0.0 J-0.019 
N186 G1 Y-4.2157 
N188 G2 X-1.8493 Y-4.2345 I-0.019 J0.0 
N190 G1 X-1.875 
N192 G0 Z0.1 
N194 Y-5.0925 
N196 Z-0.1262 
N198 G1 Z-0.25 F31.0 
N200 Y-4.68 
N202 X-1.385 
N204 Y0.0 
N206 X-2.365 
N208 Y-4.68 
N210 X-1.875 
N212 G3 X-1.8 Y-4.605 I0.0 J0.075 
N214 G1 Y-4.3095 
N216 G3 X-1.875 Y-4.2345 I-0.075 J0.0 
N218 G1 X-1.9007 
N220 G2 X-1.9195 Y-4.2157 I0.0 J0.019 
N222 G1 Y-0.4642 
N224 G2 X-1.9007 Y-0.4455 I0.019 J0.0 
N226 G1 X-1.8493 
N228 G2 X-1.8305 Y-0.4642 I0.0 J-0.019 
N230 G1 Y-4.2157 
N232 G2 X-1.8493 Y-4.2345 I-0.019 J0.0 
N234 G1 X-1.875 
N236 G0 Z0.1 
N238 (TIMELY NEW UNIVERSAL PRESS=ENCODER BASE) 
N240 (OPERATION 2) 
N242 (G-.375 STUB CARBIDE END MILL 4 FL.) 
N244 M09 
N246 G28 M05 G91 Y0 Z0.0 
N248 ( .375 STUB CARBIDE END MILL 4 FL. ) 
N250 T02 M06 
N252 M03 S2343 
N254 G0 G90 G54 X-2.5438 Y0.3 
N256 G43 H2 Z0.1 
N258 M08 
N260 G1 Z-0.25 F10.0 
N262 G42 D2 X-2.5625 F8. 
N264 Y0.0 
N266 Y-4.68 
N268 Y-4.98 
N270 G40 X-2.5438 
N272 G0 Z0.1 
N274 X-1.2063 
N276 G1 Z-0.25 F10.0 
N278 G42 D2 X-1.1875 F8. 
N280 Y-4.68 
N282 Y0.0 
N284 Y0.3 
N286 G40 X-1.2063 
N288 G0 Z0.1 
N290 (TIMELY NEW UNIVERSAL PRESS=ENCODER BASE) 
N292 (OPERATION 3) 
N294 (.375_3/8 SPOT DRILL) 
N296 M09 
N298 G28 M05 G91 Y0 Z0.0 
N300 ( .375_3/8 X 90 DEG. SPOT DRILL ) 
N302 T03 M06 
N304 M03 S3475 
N306 G0 G90 G54 X-4.6875 Y-3.375 
N308 G43 H3 Z0.1 
N310 M08 
N312 G98 G81 Z-0.18 R0.1 F20.0 
N314 G80 
N316 (TIMELY NEW UNIVERSAL PRESS=ENCODER BASE) 
N318 (OPERATION 8) 
N320 (.375_3/8 SPOT DRILL) 
N322 S3475 
N324 G0 X-1.25 Y-0.5 
N326 Z0.1 
N328 G98 G81 Z-0.43 R-0.15 F20.0 
N330 G80 
N332 (TIMELY NEW UNIVERSAL PRESS=ENCODER BASE) 
N334 (OPERATION 10) 
N336 (.375_3/8 SPOT DRILL) 
N338 S3475 
N340 G0 X-3.8225 Y-0.3125 
N342 Z0.1 
N344 G98 G81 Z-0.16 R0.1 F20.0 
N346 X-3.0625 Y-0.75 
N348 X-4.8125 Y-0.9375 
N350 X-3.0625 Y-3.93 
N352 G80 
N354 (TIMELY NEW UNIVERSAL PRESS=ENCODER BASE) 
N356 (OPERATION 13) 
N358 (.375_3/8 SPOT DRILL) 
N360 S3475 
N362 G0 X-1.875 Y-1.34 
N364 Z0.1 
N366 G98 G81 Z-0.41 R-0.15 F20.0 
N368 Y-3.34 
N370 G80 
N372 (TIMELY NEW UNIVERSAL PRESS=ENCODER BASE) 
N374 (OPERATION 16) 
N376 (.375_3/8 SPOT DRILL) 
N378 S3475 
N380 G0 X-3.8125 Y-2.725 
N382 Z0.1 
N384 G98 G81 Z-0.125 R0.1 F20.0 
N386 Y-1.975 
N388 G80 
N390 (TIMELY NEW UNIVERSAL PRESS=ENCODER BASE) 
N392 (OPERATION 19) 
N394 (.375_3/8 SPOT DRILL) 
N396 S3475 
N398 G0 X-3.76 Y-1.0 
N400 Z0.1 
N402 G98 G81 Z-0.125 R0.1 F20.0 
N404 X-4.875 Y-0.25 
N406 G80 
N408 (TIMELY NEW UNIVERSAL PRESS=ENCODER BASE) 
N410 (OPERATION 24) 
N412 (.375_3/8 SPOT DRILL) 
N414 S3475 
N416 G0 X-5.75 Y-3.93 
N418 Z0.1 
N420 G98 G81 Z-0.164 R0.1 F20.0 
N422 Y-2.25 
N424 G80 
N426 (TIMELY NEW UNIVERSAL PRESS=ENCODER BASE) 
N428 (OPERATION 26) 
N430 (.375_3/8 SPOT DRILL) 
N432 S3475 
N434 G0 X-0.275 Y-3.34 
N436 Z0.1 
N438 G98 G81 Z-1.739 R-1.475 F20.0 
N440 Y-1.34 
N442 G80 
N444 (TIMELY NEW UNIVERSAL PRESS=ENCODER BASE) 
N446 (OPERATION 28) 
N448 (.375_3/8 SPOT DRILL) 
N450 S3475 
N452 G0 X-4.795 Y-2.6432 
N454 Z0.1 
N456 G98 G81 Z-0.18 R0.1 F20.0 
N458 X-5.375 Y-1.25 
N460 G80 
N462 (TIMELY NEW UNIVERSAL PRESS=ENCODER BASE) 
N464 (OPERATION 4) 
N466 (.3593_23/64 PARABOLIC DRILL) 
N468 M09 
N470 G28 M05 G91 Y0 Z0.0 
N472 ( .3593_23/64 PARABOLIC DRILL ) 
N474 T04 M06 
N476 M03 S1809 
N478 G0 G90 G54 X-4.6875 Y-3.375 
N480 G43 H4 Z0.1 
N482 M08 
N484 G98 G73 Z-2.5044 Q0.1 K0.2 R0.1 F13.0 
N486 X-1.25 Y-0.5 
N488 G80 
N490 (TIMELY NEW UNIVERSAL PRESS=ENCODER BASE) 
N492 (OPERATION 5) 
N494 (G-.250 STUB CARBIDE END MILL 4 FL.) 
N496 M09 
N498 G28 M05 G91 Y0 Z0.0 
N500 ( .250 STUB CARBIDE END MILL 4 FL. ) 
N502 T05 M06 
N504 M03 S3514 
N506 G0 G90 G54 X-4.6875 Y-3.375 
N508 G43 H5 Z0.1 
N510 M08 
N512 Z0.02 
N514 G42 D5 G1 X-4.6262 Z0.06 F14.0 
N516 G3 X-4.7488 I-0.061 J0.0 Z0.03 
N518 X-4.6262 I0.061 J0.0 Z0.0 
N520 X-4.7488 I-0.061 J0.0 Z-0.03 
N522 X-4.6262 I0.061 J0.0 Z-0.06 
N524 X-4.7488 I-0.061 J0.0 Z-0.09 
N526 X-4.6262 I0.061 J0.0 Z-0.12 
N528 X-4.7488 I-0.061 J0.0 Z-0.15 
N530 X-4.6262 I0.061 J0.0 Z-0.18 
N532 X-4.7488 I-0.061 J0.0 Z-0.21 
N534 X-4.6262 I0.061 J0.0 Z-0.24 
N536 X-4.7488 I-0.061 J0.0 Z-0.27 
N538 X-4.6262 I0.061 J0.0 Z-0.3 
N540 X-4.7488 I-0.061 J0.0 
N542 X-4.6262 I0.061 J0.0 
N544 G40 G1 X-4.6875 
N546 G0 Z0.1 
N548 (TIMELY NEW UNIVERSAL PRESS=ENCODER BASE) 
N550 (OPERATION 9) 
N552 (G-.250 STUB CARBIDE END MILL 4 FL.) 
N554 S3514 
N556 G0 X-1.25 Y-0.5 
N558 Z0.1 
N560 Z-0.23 
N562 G42 D5 G1 X-1.1887 Z-0.19 F14.0 
N564 G3 X-1.3113 I-0.061 J0.0 Z-0.22 
N566 X-1.1887 I0.061 J0.0 Z-0.25 
N568 X-1.3113 I-0.061 J0.0 Z-0.28 
N570 X-1.1887 I0.061 J0.0 Z-0.31 
N572 X-1.3113 I-0.061 J0.0 Z-0.34 
N574 X-1.1887 I0.061 J0.0 Z-0.37 
N576 X-1.3113 I-0.061 J0.0 Z-0.4 
N578 X-1.1887 I0.061 J0.0 Z-0.43 
N580 X-1.3113 I-0.061 J0.0 Z-0.46 
N582 X-1.1887 I0.061 J0.0 Z-0.49 
N584 X-1.3113 I-0.061 J0.0 Z-0.52 
N586 X-1.1887 I0.061 J0.0 Z-0.55 
N588 X-1.3113 I-0.061 J0.0 
N590 X-1.1887 I0.061 J0.0 
N592 G40 G1 X-1.25 
N594 G0 Z0.1 
N596 (TIMELY NEW UNIVERSAL PRESS=ENCODER BASE) 
N598 (OPERATION 6) 
N600 (.3730 REAMER HS 6 FL.) 
N602 M09 
N604 G28 M05 G91 Y0 Z0.0 
N606 ( .3730 REAMER HS 6 FL. ) 
N608 T06 M06 
N610 M03 S799 
N612 G0 G90 G54 X-4.6875 Y-3.375 
N614 G43 H6 Z0.1 
N616 M08 
N618 G98 G83 Z-2.517 Q0.5 R0.1 F6.0 
N620 X-1.25 Y-0.5 
N622 G80 
N624 (TIMELY NEW UNIVERSAL PRESS=ENCODER BASE) 
N626 (OPERATION 7) 
N628 (.3745 REAMER HS 6 FL.) 
N630 M09 
N632 G28 M05 G91 Y0 Z0.0 
N634 ( .3745 REAMER HS 6 FL. ) 
N636 T07 M06 
N638 M03 S551 
N640 G0 G90 G54 X-4.6875 Y-3.375 
N642 G43 H7 Z0.1 
N644 M08 
N646 G98 G83 Z-2.5173 Q0.5 R0.1 F9.0 
N648 X-1.25 Y-0.5 
N650 G80 
N652 (TIMELY NEW UNIVERSAL PRESS=ENCODER BASE) 
N654 (OPERATION 11) 
N656 (.2656_17/64 PARABOLIC DRILL) 
N658 M09 
N660 G28 M05 G91 Y0 Z0.0 
N662 ( .2656_17/64 PARABOLIC DRILL ) 
N664 T08 M06 
N666 M03 S2451 
N668 G0 G90 G54 X-3.8225 Y-0.3125 
N670 G43 H8 Z0.1 
N672 M08 
N674 G98 G73 Z-1.0 Q0.1 K0.2 R0.1 F10.0 
N676 X-3.0625 Y-0.75 
N678 X-4.8125 Y-0.9375 
N680 X-3.0625 Y-3.93 
N682 G80 
N684 (TIMELY NEW UNIVERSAL PRESS=ENCODER BASE) 
N686 (OPERATION 14) 
N688 (.2656_17/64 PARABOLIC DRILL) 
N690 S2451 
N692 G0 X-1.875 Y-1.34 
N694 Z0.1 
N696 G98 G73 Z-1.25 Q0.1 K0.2 R-0.15 F10.0 
N698 Y-3.34 
N700 G80 
N702 (TIMELY NEW UNIVERSAL PRESS=ENCODER BASE) 
N704 (OPERATION 12) 
N706 (Q-5/16-18 OSG TAP) 
N708 M09 
N710 G28 M05 G91 Y0 Z0.0 
N712 ( 5/16-18 OSG TAP ) 
N714 T09 M06 
N716 M03 S489 
N718 G0 G90 G54 X-3.8225 Y-0.3125 
N720 G43 H9 Z0.1 
N722 M08 
N724 G98 G84 Z-0.8 R0.1 F27.1395 
N726 X-3.0625 Y-0.75 
N728 X-4.8125 Y-0.9375 
N730 X-3.0625 Y-3.93 
N732 G80 
N734 (TIMELY NEW UNIVERSAL PRESS=ENCODER BASE) 
N736 (OPERATION 15) 
N738 (Q-5/16-18 OSG TAP) 
N740 S489 
N742 G0 X-1.875 Y-1.34 
N744 Z0.1 
N746 G98 G84 Z-1.05 R-0.15 F27.1395 
N748 Y-3.34 
N750 G80 
N752 (TIMELY NEW UNIVERSAL PRESS=ENCODER BASE) 
N754 (OPERATION 25) 
N756 (.3281_21/64 PARABOLIC DRILL) 
N758 M09 
N760 G28 M05 G91 Y0 Z0.0 
N762 ( .3281_21/64 PARABOLIC DRILL ) 
N764 T10 M06 
N766 M03 S1980 
N768 G0 G90 G54 X-5.75 Y-3.93 
N770 G43 H10 Z0.1 
N772 M08 
N774 G98 G73 Z-2.4979 Q0.1 K0.2 R0.1 F10.0 
N776 Y-2.25 
N778 G80 
N780 (TIMELY NEW UNIVERSAL PRESS=ENCODER BASE) 
N782 (OPERATION 27) 
N784 (.3281_21/64 PARABOLIC DRILL) 
N786 S1980 
N788 G0 X-0.275 Y-3.34 
N790 Z0.1 
N792 G98 G73 Z-2.4979 Q0.1 K0.2 R-1.475 F10.0 
N794 Y-1.34 
N796 G80 
N798 (TIMELY NEW UNIVERSAL PRESS=ENCODER BASE) 
N800 (OPERATION 17) 
N802 (.209_NO.4 PARABOLIC DRILL) 
N804 M09 
N806 G28 M05 G91 Y0 Z0.0 
N808 ( .209_NO.4 PARABOLIC DRILL ) 
N810 T11 M06 
N812 M03 S3107 
N814 G0 G90 G54 X-3.8125 Y-2.725 
N816 G43 H11 Z0.1 
N818 M08 
N820 G98 G73 Z-1.1433 Q0.1 K0.2 R0.1 F12.0 
N822 Y-1.975 
N824 G80 
N826 (TIMELY NEW UNIVERSAL PRESS=ENCODER BASE) 
N828 (OPERATION 18) 
N830 (O-1/4-20 OSG TAP) 
N832 M09 
N834 G28 M05 G91 Y0 Z0.0 
N836 ( 1/4-20 OSG TAP ) 
N838 T12 M06 
N840 M03 S611 
N842 G0 G90 G54 X-3.8125 Y-2.725 
N844 G43 H12 Z0.1 
N846 M08 
N848 G98 G84 Z-0.7 R0.1 F30.55 
N850 Y-1.975 
N852 G80 
N854 (TIMELY NEW UNIVERSAL PRESS=ENCODER BASE) 
N856 (OPERATION 20) 
N858 (.2343_15/64 PARABOLIC DRILL) 
N860 M09 
N862 G28 M05 G91 Y0 Z0.0 
N864 ( .2343_15/64 PARABOLIC DRILL ) 
N866 T13 M06 
N868 M03 S2775 
N870 G0 G90 G54 X-3.76 Y-1.0 
N872 G43 H13 Z0.1 
N874 M08 
N876 G98 G73 Z-0.6 Q0.1 K0.2 R0.1 F12.0 
N878 X-4.875 Y-0.25 
N880 G80 
N882 (TIMELY NEW UNIVERSAL PRESS=ENCODER BASE) 
N884 (OPERATION 21) 
N886 (D-.1875 STUB CARBIDE 4 FL.) 
N888 M09 
N890 G28 M05 G91 Y0 Z0.0 
N892 ( .1875 STUB CARBIDE 4 FL. ) 
N894 T14 M06 
N896 M03 S4686 
N898 G0 G90 G54 X-3.76 Y-1.0 
N900 G43 H14 Z0.1 
N902 M08 
N904 Z0.02 
N906 G42 D14 G1 X-3.7292 Z0.06 F15.0 
N908 G3 X-3.7908 I-0.031 J0.0 Z0.03 
N910 X-3.7292 I0.031 J0.0 Z0.0 
N912 X-3.7908 I-0.031 J0.0 Z-0.03 
N914 X-3.7292 I0.031 J0.0 Z-0.06 
N916 X-3.7908 I-0.031 J0.0 Z-0.09 
N918 X-3.7292 I0.031 J0.0 Z-0.12 
N920 X-3.7908 I-0.031 J0.0 Z-0.15 
N922 X-3.7292 I0.031 J0.0 Z-0.18 
N924 X-3.7908 I-0.031 J0.0 Z-0.21 
N926 X-3.7292 I0.031 J0.0 Z-0.24 
N928 X-3.7908 I-0.031 J0.0 Z-0.27 
N930 X-3.7292 I0.031 J0.0 Z-0.3 
N932 X-3.7908 I-0.031 J0.0 
N934 X-3.7292 I0.031 J0.0 
N936 G40 G1 X-3.76 
N938 G0 Z0.1 
N940 X-4.875 Y-0.25 
N942 Z0.02 
N944 G42 D14 G1 X-4.8442 Z0.06 F15.0 
N946 G3 X-4.9058 I-0.031 J0.0 Z0.03 
N948 X-4.8442 I0.031 J0.0 Z0.0 
N950 X-4.9058 I-0.031 J0.0 Z-0.03 
N952 X-4.8442 I0.031 J0.0 Z-0.06 
N954 X-4.9058 I-0.031 J0.0 Z-0.09 
N956 X-4.8442 I0.031 J0.0 Z-0.12 
N958 X-4.9058 I-0.031 J0.0 Z-0.15 
N960 X-4.8442 I0.031 J0.0 Z-0.18 
N962 X-4.9058 I-0.031 J0.0 Z-0.21 
N964 X-4.8442 I0.031 J0.0 Z-0.24 
N966 X-4.9058 I-0.031 J0.0 Z-0.27 
N968 X-4.8442 I0.031 J0.0 Z-0.3 
N970 X-4.9058 I-0.031 J0.0 
N972 X-4.8442 I0.031 J0.0 
N974 G40 G1 X-4.875 
N976 G0 Z0.1 
N978 (TIMELY NEW UNIVERSAL PRESS=ENCODER BASE) 
N980 (OPERATION 22) 
N982 (.2480 REAMER HS 6 FL.) 
N984 M09 
N986 G28 M05 G91 Y0 Z0.0 
N988 ( .2480 REAMER HS 6 FL. ) 
N990 T15 M06 
N992 M03 S1109 
N994 G0 G90 G54 X-3.76 Y-1.0 
N996 G43 H15 Z0.1 
N998 M08 
N1000 G98 G83 Z-0.5 Q0.4 R0.1 F9.0 
N1002 X-4.875 Y-0.25 
N1004 G80 
N1006 (TIMELY NEW UNIVERSAL PRESS=ENCODER BASE) 
N1008 (OPERATION 23) 
N1010 (.2510 REAMER HS 6 FL.) 
N1012 M09 
N1014 G28 M05 G91 Y0 Z0.0 
N1016 ( .2510 REAMER HS 6 FL. ) 
N1018 T16 M06 
N1020 M03 S639 
N1022 G0 G90 G54 X-3.76 Y-1.0 
N1024 G43 H16 Z0.1 
N1026 M08 
N1028 G98 G83 Z-0.5 Q0.5 R0.1 F10.0 
N1030 X-4.875 Y-0.25 
N1032 G80 
N1034 (TIMELY NEW UNIVERSAL PRESS=ENCODER BASE) 
N1036 (OPERATION 29) 
N1038 (.3125_5/16 PARABOLIC DRILL) 
N1040 M09 
N1042 G28 M05 G91 Y0 Z0.0 
N1044 ( .3125_5/16 PARABOLIC DRILL ) 
N1046 T17 M06 
N1048 M03 S2081 
N1050 G0 G90 G54 X-4.795 Y-2.6432 
N1052 G43 H17 Z0.1 
N1054 M08 
N1056 G98 G73 Z-0.5 Q0.1 K0.2 R0.1 F12.0 
N1058 G80 
N1060 (TIMELY NEW UNIVERSAL PRESS=ENCODER BASE) 
N1062 (OPERATION 31) 
N1064 (.3125_5/16 PARABOLIC DRILL) 
N1066 S2081 
N1068 G0 X-5.375 Y-1.25 
N1070 Z0.1 
N1072 G98 G73 Z-2.4946 Q0.1 K0.2 R0.1 F12.0 
N1074 G80 
N1076 (TIMELY NEW UNIVERSAL PRESS=ENCODER BASE) 
N1078 (OPERATION 30) 
N1080 (.500_1/2 PARABOLIC DRILL) 
N1082 M09 
N1084 G28 M05 G91 Y0 Z0.0 
N1086 ( .500_1/2 PARABOLIC DRILL ) 
N1088 T18 M06 
N1090 M03 S1299 
N1092 G0 G90 G54 X-4.795 Y-2.6432 
N1094 G43 H18 Z0.1 
N1096 M08 
N1098 G98 G73 Z-0.5 Q0.1 K0.2 R0.1 F12.0 
N1100 G80 
N1102 (TIMELY NEW UNIVERSAL PRESS=ENCODER BASE) 
N1104 (OPERATION 32) 
N1106 (.500_1/2 PARABOLIC DRILL) 
N1108 S1299 
N1110 G0 X-5.375 Y-1.25 
N1112 Z0.1 
N1114 G98 G73 Z-2.5335 Q0.1 K0.2 R0.1 F12.0 
N1116 G80 
N1118 M09 
N1120 G28 M05 G91 Y0 Z0.0 
N1122 M30 

%