%
O00610 (ENCODER-BASE-1.HAS)
N2 (DATE 10-27-2025 TIME 9:59) 
N4 (created by hyperMILL 2024 OPEN MIND Technologies AG) 
N6 ( .5_1/2 X 90 DEG. SPOT DRILL .390 TO .500 DIA. ) 
N8 ( .3125_5/16 PARABOLIC DRILL ) 
N10 ( .500_1/2 PARABOLIC DRILL ) 
N12 ( .04 X.25 SH X 60 DEG. ENGRAVE CUTTER ) 
N14 ( 3/4 COROMILL ) 
N16 ( .375 REG. CARBIDE END MILL 4 FL. ) 
N18 ( .375_3/8 X 90 DEG. SPOT DRILL ) 
N20 ( .166_NO.19 PARABOLIC DRILL ) 
N22 ( 10-32 NF OSG TAP ) 
N24 G00 G17 G20 G40 G49 G80 G90 
N26 (TIMELY NEW UNIVERSAL PRESS=ENCODER BASE) 
N28 (OPERATION 6) 
N30 (.5_1/2 SPOT DRILL .390 TO .500 DIA.) 
N32 G28 M05 G91 Y0 Z0.0 
N34 ( .5_1/2 X 90 DEG. SPOT DRILL .390 TO .500 DIA. ) 
N36 T01 M06 
N38 M03 S2274 
N40 G0 G90 G54 X5.375 Y-1.0 
N42 G43 H1 Z0.1 
N44 M08 
N46 G98 G81 Z-0.2 R0.1 F9.0 
N48 X0.5 
N50 G80 
N52 (TIMELY NEW UNIVERSAL PRESS=ENCODER BASE) 
N54 (OPERATION 7) 
N56 (.3125_5/16 PARABOLIC DRILL) 
N58 M09 
N60 G28 M05 G91 Y0 Z0.0 
N62 ( .3125_5/16 PARABOLIC DRILL ) 
N64 T02 M06 
N66 M03 S2081 
N68 G0 G90 G54 X5.375 Y-1.0 
N70 G43 H2 Z0.1 
N72 M08 
N74 G98 G73 Z-2.5 Q0.1 K0.2 R0.1 F12.0 
N76 X0.5 
N78 G80 
N80 (TIMELY NEW UNIVERSAL PRESS=ENCODER BASE) 
N82 (OPERATION 8) 
N84 (.500_1/2 PARABOLIC DRILL) 
N86 M09 
N88 G28 M05 G91 Y0 Z0.0 
N90 ( .500_1/2 PARABOLIC DRILL ) 
N92 T03 M06 
N94 M03 S1299 
N96 G0 G90 G54 X5.375 Y-1.0 
N98 G43 H3 Z0.1 
N100 M08 
N102 G98 G73 Z-2.5 Q0.1 K0.2 R0.1 F12.0 
N104 X0.5 
N106 G80 
N108 (TIMELY NEW UNIVERSAL PRESS=ENCODER BASE) 
N110 (OPERATION 9) 
N112 (.04 X.25 SH X 60 DEG. ENGRAVE CUTTER) 
N114 M09 
N116 G28 M05 G91 Y0 Z0.0 
N118 ( .04 X.25 SH X 60 DEG. ENGRAVE CUTTER ) 
N120 T04 M06 
N122 M03 S7640 
N124 G0 G90 G54 X0.728 Y-2.425 
N126 G43 H4 Z0.1 
N128 M08 
N130 G1 Z-0.006 F10.0 
N132 G42 D4 X0.73 F23.0 
N134 Y-2.325 
N136 Y-1.0 
N138 G3 X0.5 Y-0.77 I-0.23 J0.0 
N140 G1 X0.0 
N142 X-0.1 
N144 G40 Y-0.772 
N146 G0 Z0.1 
N148 X6.225 
N150 G1 Z-0.006 F10.0 
N152 G42 D4 Y-0.77 F23.0 
N154 X6.125 
N156 X5.375 
N158 G3 X5.145 Y-1.0 I0.0 J-0.23 
N160 G1 Y-2.325 
N162 Y-2.425 
N164 G40 X5.147 
N166 G0 Z0.1 
N168 (TIMELY NEW UNIVERSAL PRESS=ENCODER BASE) 
N170 (OPERATION 1) 
N172 (3/4 COROMILL) 
N174 M09 
N176 G28 M05 G91 Y0 Z0.0 
N178 ( 3/4 COROMILL ) 
N180 T05 M06 
N182 M03 S5093 
N184 G0 G90 G54 X4.25 Y0.4125 
N186 G43 H5 Z0.1 
N188 M08 
N190 Z0.1068 
N192 G1 Z-0.068 F31.0 
N194 Y0.0 
N196 X4.01 
N198 Y-2.325 
N200 X4.49 
N202 Y0.0 
N204 X4.25 
N206 G0 Z0.1 
N208 Y0.4125 
N210 Z0.0388 
N212 G1 Z-0.136 F31.0 
N214 Y0.0 
N216 X4.01 
N218 Y-2.325 
N220 X4.49 
N222 Y0.0 
N224 X4.25 
N226 G0 Z0.1 
N228 Y0.4125 
N230 Z-0.0292 
N232 G1 Z-0.204 F31.0 
N234 Y0.0 
N236 X4.01 
N238 Y-2.325 
N240 X4.49 
N242 Y0.0 
N244 X4.25 
N246 G0 Z0.1 
N248 Y0.4125 
N250 Z-0.0972 
N252 G1 Z-0.272 F31.0 
N254 Y0.0 
N256 X4.01 
N258 Y-2.325 
N260 X4.49 
N262 Y0.0 
N264 X4.25 
N266 G0 Z0.1 
N268 Y0.4125 
N270 Z-0.1652 
N272 G1 Z-0.34 F31.0 
N274 Y0.0 
N276 X4.01 
N278 Y-2.325 
N280 X4.49 
N282 Y0.0 
N284 X4.25 
N286 G0 Z0.1 
N288 Y0.4125 
N290 Z-0.2332 
N292 G1 Z-0.408 F31.0 
N294 Y0.0 
N296 X4.01 
N298 Y-2.325 
N300 X4.49 
N302 Y0.0 
N304 X4.25 
N306 G0 Z0.1 
N308 Y0.4125 
N310 Z-0.3012 
N312 G1 Z-0.476 F31.0 
N314 Y0.0 
N316 X4.01 
N318 Y-2.325 
N320 X4.49 
N322 Y0.0 
N324 X4.25 
N326 G0 Z0.1 
N328 Y0.4125 
N330 Z-0.3692 
N332 G1 Z-0.5 F31.0 
N334 Y0.0 
N336 X4.01 
N338 Y-2.325 
N340 X4.49 
N342 Y0.0 
N344 X4.25 
N346 G0 Z0.1 
N348 (TIMELY NEW UNIVERSAL PRESS=ENCODER BASE) 
N350 (OPERATION 2) 
N352 (H-.375 REG. CARBIDE END MILL 4 FL.) 
N354 M09 
N356 G28 M05 G91 Y0 Z0.0 
N358 ( .375 REG. CARBIDE END MILL 4 FL. ) 
N360 T06 M06 
N362 M03 S2343 
N364 G0 G90 G54 X3.8312 Y0.4 
N366 G43 H6 Z0.1 
N368 M08 
N370 G1 Z-0.5 F10.0 
N372 G42 D6 X3.8125 F14.0 
N374 Y0.0 
N376 Y-2.325 
N378 Y-2.725 
N380 G40 X3.8312 
N382 G0 Z0.1 
N384 X4.6688 
N386 G1 Z-0.5 F10.0 
N388 G42 D6 X4.6875 F14.0 
N390 Y-2.325 
N392 Y0.0 
N394 Y0.4 
N396 G40 X4.6688 
N398 G0 Z0.1 
N400 (TIMELY NEW UNIVERSAL PRESS=ENCODER BASE) 
N402 (OPERATION 3) 
N404 (.375_3/8 SPOT DRILL) 
N406 M09 
N408 G28 M05 G91 Y0 Z0.0 
N410 ( .375_3/8 X 90 DEG. SPOT DRILL ) 
N412 T07 M06 
N414 M03 S3475 
N416 G0 G90 G54 X4.625 Y-0.25 
N418 G43 H7 Z0.1 
N420 M08 
N422 G98 G81 Z-0.6 R-0.4 F20.0 
N424 X3.8745 
N426 Y-2.0 
N428 X4.625 
N430 G80 
N432 (TIMELY NEW UNIVERSAL PRESS=ENCODER BASE) 
N434 (OPERATION 4) 
N436 (.166_NO.19 PARABOLIC DRILL) 
N438 M09 
N440 G28 M05 G91 Y0 Z0.0 
N442 ( .166_NO.19 PARABOLIC DRILL ) 
N444 T08 M06 
N446 M03 S3912 
N448 G0 G90 G54 X4.625 Y-0.25 
N450 G43 H8 Z0.1 
N452 M08 
N454 G98 G73 Z-1.06 Q0.05 K0.15 R-0.4 F11.0 
N456 X3.8745 
N458 Y-2.0 
N460 X4.625 
N462 G80 
N464 (TIMELY NEW UNIVERSAL PRESS=ENCODER BASE) 
N466 (OPERATION 5) 
N468 (N-10-32 NF OSG TAP) 
N470 M09 
N472 G28 M05 G91 Y0 Z0.0 
N474 ( 10-32 NF OSG TAP ) 
N476 T09 M06 
N478 M03 S792 
N480 G0 G90 G54 X4.625 Y-0.25 
N482 G43 H9 Z0.1 
N484 M08 
N486 G98 G84 Z-0.96 R-0.4 F24.75 
N488 X3.8745 
N490 Y-2.0 
N492 X4.625 
N494 G80 
N496 M09 
N498 G28 M05 G91 Y0 Z0.0 
N500 M30 

%