%
O00622 (ENCODER-BASE-5.HAS)
N2 (DATE 10-28-2025 TIME 13:32) 
N4 (created by hyperMILL 2024 OPEN MIND Technologies AG) 
N6 
N8 (NOTA VIFOR THES PROGRAM BENSOW BACK SISIDE ) 
N10 
N12 ( COROMILL 1 1/2 ) 
N14 ( .5 REG. CARBIDE END MILL 4 FL. ) 
N16 G00 G17 G20 G40 G49 G80 G90 
N18 (TIMELY NEW UNIVERSAL PRESS=ENCODER BASE) 
N20 (OPERATION 1) 
N22 (COROMILL 1 1/2) 
N24 G28 M05 G91 Y0 Z0.0 
N26 ( COROMILL 1 1/2 ) 
N28 T01 M06 
N30 M03 S1910 
N32 G0 G90 G54 X1.55 Y-0.325 
N34 G43 H1 Z0.1 
N36 M08 
N38 G1 Z-1.0 F10.0 
N40 G42 D1 X0.75 F18. 
N42 G2 X-2.0 Y-3.075 I-2.75 J0.0 
N44 G40 G1 Y-3.875 
N46 G0 Z0.1 
N48 (TIMELY NEW UNIVERSAL PRESS=ENCODER BASE) 
N50 (OPERATION 3) 
N52 (COROMILL 1 1/2) 
N54 S1910 
N56 G0 X-0.425 Y0.8 
N58 Z0.1 
N60 G1 Z-1.0 F10.0 
N62 G42 D1 X-0.5 F18. 
N64 Y0.0 
N66 Y-1.0 
N68 G2 X-1.25 Y-1.75 I-0.75 J0.0 
N70 G1 X-4.68 
N72 X-5.48 
N74 G40 Y-1.825 
N76 G0 Z0.1 
N78 (TIMELY NEW UNIVERSAL PRESS=ENCODER BASE) 
N80 (OPERATION 2) 
N82 (H-.5 REG. CARBIDE END MILL 4 FL.) 
N84 M09 
N86 G28 M05 G91 Y0 Z0.0 
N88 ( .5 REG. CARBIDE END MILL 4 FL. ) 
N90 T02 M06 
N92 M03 S3820 
N94 G0 G90 G54 X-1.225 Y0.4 
N96 G43 H2 Z0.1 
N98 M08 
N100 G1 Z-0.78 F10.0 
N102 G42 D2 X-1.25 F8.0 
N104 Y0.0 
N106 Y-0.75 
N108 G2 X-1.5 Y-1.0 I-0.25 J0.0 
N110 G1 X-4.68 
N112 X-5.08 
N114 G40 Y-1.025 
N116 G0 Z0.1 
N118 M09 
N120 G28 M05 G91 Y0 Z0.0 
N122 M30 

%