%
O00614 (ENCODER-BASE-3.HAS)
N2 (DATE 10-27-2025 TIME 7:44) 
N4 (created by hyperMILL 2024 OPEN MIND Technologies AG) 
N6 
N8 (NOTA VIFOR THES PROGRAM BENSOW FRONT SISIDE ONLI) 
N10 
N12 ( COROMILL 1 1/2 ) 
N14 ( .5 REG. CARBIDE END MILL 4 FL. ) 
N16 ( .5_1/2 X 90 DEG. SPOT DRILL .265 TO .390 DIA. ) 
N18 ( .3281_21/64 PARABOLIC DRILL ) 
N20 ( .6562_21/32 SILVER & DEMING DRILL ) 
N22 ( .75 REG. CARBIDE END MILL 4 FL. ) 
N24 ( .375_3/8 X 90 DEG. SPOT DRILL ) 
N26 ( .2656_17/64 PARABOLIC DRILL ) 
N28 ( 5/16-18 OSG LONG TAP ) 
N30 G00 G17 G20 G40 G49 G80 G90 
N32 (TIMELY NEW UNIVERSAL PRESS=ENCODER BASE) 
N34 (OPERATION 1) 
N36 (COROMILL 1 1/2) 
N38 G28 M05 G91 Y0 Z0.0 
N40 ( COROMILL 1 1/2 ) 
N42 T01 M06 
N44 M03 S1910 
N46 G0 G90 G54 X5.48 Y-1.825 
N48 G43 H1 Z0.1 
N50 M08 
N52 G1 Z-0.75 F10.0 
N54 G42 D1 Y-1.75 F18. 
N56 X4.68 
N58 X0.0 
N60 X-0.8 
N62 G40 Y-1.825 
N64 G0 Z0.1 
N66 (TIMELY NEW UNIVERSAL PRESS=ENCODER BASE) 
N68 (OPERATION 2) 
N70 (H-.5 REG. CARBIDE END MILL 4 FL.) 
N72 M09 
N74 G28 M05 G91 Y0 Z0.0 
N76 ( .5 REG. CARBIDE END MILL 4 FL. ) 
N78 T02 M06 
N80 M03 S3820 
N82 G0 G90 G54 X5.08 Y-1.025 
N84 G43 H2 Z0.1 
N86 M08 
N88 G1 Z-0.53 F10.0 
N90 G42 D2 Y-1.0 F10. 
N92 X4.68 
N94 X0.0 
N96 X-0.4 
N98 G40 Y-1.025 
N100 G0 Z0.1 
N102 (TIMELY NEW UNIVERSAL PRESS=ENCODER BASE) 
N104 (OPERATION 3) 
N106 (.5_1/2 SPOT DRILL .265 TO .390 DIA.) 
N108 M09 
N110 G28 M05 G91 Y0 Z0.0 
N112 ( .5_1/2 X 90 DEG. SPOT DRILL .265 TO .390 DIA. ) 
N114 T03 M06 
N116 M03 S2894 
N118 G0 G90 G54 X2.036 Y-1.9075 
N120 G43 H3 Z0.1 
N122 M08 
N124 G98 G81 Z-0.93 R-0.65 F10.0 
N126 G80 
N128 (TIMELY NEW UNIVERSAL PRESS=ENCODER BASE) 
N130 (OPERATION 4) 
N132 (.3281_21/64 PARABOLIC DRILL) 
N134 M09 
N136 G28 M05 G91 Y0 Z0.0 
N138 ( .3281_21/64 PARABOLIC DRILL ) 
N140 T04 M06 
N142 M03 S1980 
N144 G0 G90 G54 X2.036 Y-1.9075 
N146 G43 H4 Z0.1 
N148 M08 
N150 G98 G73 Z-1.56 Q0.1 K0.2 R-0.65 F10.0 
N152 G80 
N154 (TIMELY NEW UNIVERSAL PRESS=ENCODER BASE) 
N156 (OPERATION 5) 
N158 (.6562_21/32 SILVER & DEMING DRILL) 
N160 M09 
N162 G28 M05 G91 Y0 Z0.0 
N164 ( .6562_21/32 SILVER & DEMING DRILL ) 
N166 T05 M06 
N168 M03 S1453 
N170 G0 G90 G54 X2.036 Y-1.9075 
N172 G43 H5 Z0.1 
N174 M08 
N176 G98 G73 Z-1.56 Q0.2 K0.4 R-0.65 F13.0 
N178 G80 
N180 (TIMELY NEW UNIVERSAL PRESS=ENCODER BASE) 
N182 (OPERATION 6) 
N184 (J-.75 REG. CARBIDE END MILL 4 FL.) 
N186 M09 
N188 G28 M05 G91 Y0 Z0.0 
N190 ( .75 REG. CARBIDE END MILL 4 FL. ) 
N192 T06 M06 
N194 M03 S2550 
N196 G0 G90 G54 X2.036 Y-1.9075 
N198 G43 H6 Z0.1 
N200 M08 
N202 Z-0.73 
N204 G42 D6 G1 X2.278 Z-0.749 F16. 
N206 G3 X1.794 I-0.242 J0.0 Z-0.794 
N208 X2.278 I0.242 J0.0 Z-0.839 
N210 X1.794 I-0.242 J0.0 Z-0.884 
N212 X2.278 I0.242 J0.0 Z-0.929 
N214 X1.794 I-0.242 J0.0 Z-0.974 
N216 X2.278 I0.242 J0.0 Z-1.019 
N218 X1.794 I-0.242 J0.0 Z-1.064 
N220 X2.278 I0.242 J0.0 Z-1.109 
N222 X1.794 I-0.242 J0.0 Z-1.154 
N224 X2.278 I0.242 J0.0 Z-1.199 
N226 X1.794 I-0.242 J0.0 Z-1.244 
N228 X2.278 I0.242 J0.0 Z-1.289 
N230 X1.794 I-0.242 J0.0 Z-1.334 
N232 X2.278 I0.242 J0.0 Z-1.379 
N234 X1.794 I-0.242 J0.0 Z-1.424 
N236 X2.278 I0.242 J0.0 Z-1.469 
N238 X1.794 I-0.242 J0.0 Z-1.514 
N240 X2.278 I0.242 J0.0 Z-1.559 
N242 X1.794 I-0.242 J0.0 
N244 X2.278 I0.242 J0.0 
N246 G40 G1 X2.036 
N248 G0 Z0.1 
N250 (TIMELY NEW UNIVERSAL PRESS=ENCODER BASE) 
N252 (OPERATION 7) 
N254 (J-.75 REG. CARBIDE END MILL 4 FL.) 
N256 S2550 
N258 G0 X1.9735 Y-2.0575 
N260 Z0.1 
N262 Z-0.65 
N264 G1 Z-1.559 F10.0 
N266 G42 D6 X1.936 F12. 
N268 G3 X2.036 Y-2.1575 I0.1 J0.0 
N270 Y-1.6575 I0.0 J0.25 
N272 Y-2.1575 I0.0 J-0.25 
N274 X2.136 Y-2.0575 I0.0 J0.1 
N276 G40 G1 X2.0985 
N278 G0 Z0.1 
N280 (TIMELY NEW UNIVERSAL PRESS=ENCODER BASE) 
N282 (OPERATION 8) 
N284 (.375_3/8 SPOT DRILL) 
N286 M09 
N288 G28 M05 G91 Y0 Z0.0 
N290 ( .375_3/8 X 90 DEG. SPOT DRILL ) 
N292 T07 M06 
N294 M03 S3475 
N296 G0 G90 G54 X2.036 Y-1.9075 
N298 G43 H7 Z0.1 
N300 M08 
N302 G98 G81 Z-1.719 R-1.459 F20.0 
N304 G80 
N306 (TIMELY NEW UNIVERSAL PRESS=ENCODER BASE) 
N308 (OPERATION 9) 
N310 (.2656_17/64 PARABOLIC DRILL) 
N312 M09 
N314 G28 M05 G91 Y0 Z0.0 
N316 ( .2656_17/64 PARABOLIC DRILL ) 
N318 T08 M06 
N320 M03 S2451 
N322 G0 G90 G54 X2.036 Y-1.9075 
N324 G43 H8 Z0.1 
N326 M08 
N328 G98 G73 Z-2.7 Q0.1 K0.2 R-1.459 F10.0 
N330 G80 
N332 M09 
N334 G28 M05 G91 Y0 Z0.0 
N336 ( 5/16-18 OSG L0NG TAP ) 
N338 T09 M06 
N340 M03 S489 
N342 G0 G90 G54 X2.036 Y-1.9075 
N344 G43 H9 Z0.1 
N346 M08 
N348 G98 G84 Z-2.3 R-1.459 F27.1395 
N350 G80 
N352 M09 
N354 G28 M05 G91 Y0 Z0.0 
N356 M30 

%