%
O00742 (MACHINE-SIDE-BOTTOM-BASE-PLATE-FOR-MATERIAL-GUIDE-2.HAS)
N2 (DATE 6-5-2025 TIME 10:21) 
N4 (created by hyperMILL 2024 OPEN MIND Technologies AG) 
N6 ( .5_1/2 X 90 DEG. SPOT DRILL .390 TO .500 DIA. ) 
N8 ( .3281_21/64 PARABOLIC DRILL ) 
N10 ( .3906_25/64 PARABOLIC DRILL ) 
N12 ( 3/8 COUNTERBORE W PLANE -.460 PL .510 ) 
N14 ( 3/8-16 OSG TAP ) 
N16 G00 G17 G20 G40 G49 G80 G90 
N18 (TIMELY NEW DUPLEX MILL=MACHINE SIDE BOTTOM BASE PLATE FOR MA) 
N20 (OPERATION 5) 
N22 (.5_1/2 SPOT DRILL .390 TO .500 DIA.) 
N24 G28 M05 G91 Y0 Z0.0 
N26 ( .5_1/2 X 90 DEG. SPOT DRILL .390 TO .500 DIA. ) 
N28 T01 M06 
N30 M03 S819 
N32 G0 G90 G54 X-0.35 Y-0.62 
N34 G43 H1 Z0.1 
N36 M08 
N38 G98 G81 Z-0.2 R0.1 F3.0 
N40 X-11.525 
N42 G80 
N44 (TIMELY NEW DUPLEX MILL=MACHINE SIDE BOTTOM BASE PLATE FOR MA) 
N46 (OPERATION 2) 
N48 (.3281_21/64 PARABOLIC DRILL) 
N50 M09 
N52 G28 M05 G91 Y0 Z0.0 
N54 ( .3281_21/64 PARABOLIC DRILL ) 
N56 T02 M06 
N58 M03 S1048 
N60 G0 G90 G54 X-0.35 Y-0.62 
N62 G43 H2 Z0.1 
N64 M08 
N66 G98 G73 Z-2.2 Q0.1 K0.2 R0.1 F4.0 
N68 X-11.525 
N70 G80 
N72 (TIMELY NEW DUPLEX MILL=MACHINE SIDE BOTTOM BASE PLATE FOR MA) 
N74 (OPERATION 6) 
N76 (.3906_25/64 PARABOLIC DRILL) 
N78 M09 
N80 G28 M05 G91 Y0 Z0.0 
N82 ( .3906_25/64 PARABOLIC DRILL ) 
N84 T03 M06 
N86 M03 S882 
N88 G0 G90 G54 X-0.35 Y-0.62 
N90 G43 H3 Z0.1 
N92 M08 
N94 G98 G73 Z-1.06 Q0.1 K0.2 R0.1 F5.0 
N96 X-11.525 
N98 G80 
N100 (TIMELY NEW DUPLEX MILL=MACHINE SIDE BOTTOM BASE PLATE FOR MA) 
N102 (OPERATION 7) 
N104 (3/8 COUNTERBORE) 
N106 M09 
N108 G28 M05 G91 Y0 Z0.0 
N110 ( 3/8 COUNTERBORE W PLANE -.460 PL .510 ) 
N112 T04 M06 
N114 M03 S553 
N116 G0 G90 G54 X-11.525 Y-0.62 
N118 G43 H4 Z0.1 
N120 M08 
N122 G98 G83 Z-0.91 Q0.04 R-0.46 F4.0 
N124 X-0.35 
N126 G80 
N128 (TIMELY NEW DUPLEX MILL=MACHINE SIDE BOTTOM BASE PLATE FOR MA) 
N130 (OPERATION 3) 
N132 (S-3/8-16 OSG TAP) 
N134 M09 
N136 G28 M05 G91 Y0 Z0.0 
N138 ( 3/8-16 OSG TAP ) 
N140 T05 M06 
N142 M03 S407 
N144 G0 G90 G54 X-11.525 Y-0.62 
N146 G43 H5 Z0.1 
N148 M08 
N150 G98 G84 Z-1.8 R-0.9 F25.4375 
N152 X-0.35 
N154 G80 
N156 M09 
N158 G28 M05 G91 Y0 Z0.0 
N160 M30 

%