%
O00746 (STATIONARY-SIDE-BOTTOM-BASE-PLATE-FOR-MATERIAL-GUIDE-1.HAS)
N2 (DATE 6-4-2025 TIME 10:47) 
N4 (created by hyperMILL 2024 OPEN MIND Technologies AG) 
N6 ( 1.0 REG. R. END MILL TIN 4 FL. ) 
N8 ( 1.0 REG. F. END MILL TIN 4 FL. ) 
N10 ( KOMET-1.0 ) 
N12 ( 3/4 COROMILL ) 
N14 ( .5_1/2 X 90 DEG. SPOT DRILL .265 TO .390 DIA. ) 
N16 ( .375_3/8 PARABOLIC DRILL ) 
N18 ( .7812_25/32 SILVER & DEMING DRILL ) 
N20 ( .75 REG. R. END MILL TIN 4 FL. ) 
N22 ( .75 REG. CARBIDE END MILL 4 FL. ) 
N24 ( .5 STUB R. END MILL TIN 4 FL. ) 
N26 ( .5 STUB CARBIDE END MILL 4 FL. ) 
N28 ( .04 X.25 SH X 60 DEG. ENGRAVE CUTTER ) 
N30 G00 G17 G20 G40 G49 G80 G90 
N32 (TIMELY NEW DUPLEX MILL=STATIONARY SIDE BOTTOM BASE PLATE FOR) 
N34 (OPERATION 1) 
N36 (D-1.0 REG. R. END MILL TIN 4 FL.) 
N38 G28 M05 G91 Y0 Z0.0 
N40 ( 1.0 REG. R. END MILL TIN 4 FL. ) 
N42 T01 M06 
N44 M03 S344 
N46 G0 G90 G54 X0.56 Y0.6 
N48 G43 H1 Z0.1 
N50 M08 
N52 G1 Z-1.4 F10.0 
N54 G42 D1 X0.51 F4. 
N56 Y0.0 
N58 Y-5.0 
N60 Y-5.6 
N62 G40 X0.56 
N64 G0 Z0.1 
N66 (TIMELY NEW DUPLEX MILL=STATIONARY SIDE BOTTOM BASE PLATE FOR) 
N68 (OPERATION 2) 
N70 (A-1.0 REG. F. END MILL TIN 4 FL.) 
N72 M09 
N74 G28 M05 G91 Y0 Z0.0 
N76 ( 1.0 REG. F. END MILL TIN 4 FL. ) 
N78 T02 M06 
N80 M03 S350 
N82 G0 G90 G54 X0.55 Y0.6 
N84 G43 H2 Z0.1 
N86 M08 
N88 G1 Z-1.4 F10.0 
N90 G42 D2 X0.5 F5. 
N92 Y0.0 
N94 Y-5.0 
N96 Y-5.6 
N98 G40 X0.55 
N100 G0 Z0.1 
N102 (TIMELY NEW DUPLEX MILL=STATIONARY SIDE BOTTOM BASE PLATE FOR) 
N104 (OPERATION 3) 
N106 (KOMET-1.0) 
N108 M09 
N110 G28 M05 G91 Y0 Z0.0 
N112 ( KOMET-1.0 ) 
N114 T03 M06 
N116 M03 S2200 
N118 G0 G90 G54 X-10.75 Y-1.0 
N120 G43 H3 Z0.1 
N122 M88 
N124 G98 G81 Z-1.35 R0.1 F6.0 
N126 X-1.125 
N128 G80 
N130 (TIMELY NEW DUPLEX MILL=STATIONARY SIDE BOTTOM BASE PLATE FOR) 
N132 (OPERATION 4) 
N134 (3/4 COROMILL) 
N136 M89 
N138 G28 M05 G91 Y0 Z0.0 
N140 ( 3/4 COROMILL ) 
N142 T04 M06 
N144 M03 S2900 
N146 G0 G90 G54 X-10.75 Y-1.0 
N148 G43 H4 Z0.1 
N150 M08 
N152 Z0.02 
N154 G42 D4 G1 X-10.5685 Z0.09 F18.0 
N156 G3 X-10.9315 I-0.181 J0.0 Z0.045 
N158 X-10.5685 I0.181 J0.0 Z0.0 
N160 X-10.9315 I-0.181 J0.0 Z-0.045 
N162 X-10.5685 I0.181 J0.0 Z-0.09 
N164 X-10.9315 I-0.181 J0.0 Z-0.135 
N166 X-10.5685 I0.181 J0.0 Z-0.18 
N168 X-10.9315 I-0.181 J0.0 Z-0.225 
N170 X-10.5685 I0.181 J0.0 Z-0.27 
N172 X-10.9315 I-0.181 J0.0 Z-0.315 
N174 X-10.5685 I0.181 J0.0 Z-0.36 
N176 X-10.9315 I-0.181 J0.0 Z-0.405 
N178 X-10.5685 I0.181 J0.0 Z-0.45 
N180 X-10.9315 I-0.181 J0.0 Z-0.495 
N182 X-10.5685 I0.181 J0.0 Z-0.54 
N184 X-10.9315 I-0.181 J0.0 Z-0.585 
N186 X-10.5685 I0.181 J0.0 Z-0.63 
N188 X-10.9315 I-0.181 J0.0 Z-0.675 
N190 X-10.5685 I0.181 J0.0 Z-0.72 
N192 X-10.9315 I-0.181 J0.0 Z-0.765 
N194 X-10.5685 I0.181 J0.0 Z-0.81 
N196 X-10.9315 I-0.181 J0.0 Z-0.855 
N198 X-10.5685 I0.181 J0.0 Z-0.9 
N200 X-10.9315 I-0.181 J0.0 Z-0.945 
N202 X-10.5685 I0.181 J0.0 Z-0.99 
N204 X-10.9315 I-0.181 J0.0 Z-1.035 
N206 X-10.5685 I0.181 J0.0 Z-1.08 
N208 X-10.9315 I-0.181 J0.0 Z-1.125 
N210 X-10.5685 I0.181 J0.0 Z-1.17 
N212 X-10.9315 I-0.181 J0.0 Z-1.215 
N214 X-10.5685 I0.181 J0.0 Z-1.26 
N216 X-10.9315 I-0.181 J0.0 
N218 X-10.5685 I0.181 J0.0 
N220 G40 G1 X-10.75 
N222 G0 Z0.1 
N224 X-1.125 
N226 Z0.02 
N228 G42 D4 G1 X-0.9435 Z0.09 F18.0 
N230 G3 X-1.3065 I-0.181 J0.0 Z0.045 
N232 X-0.9435 I0.181 J0.0 Z0.0 
N234 X-1.3065 I-0.181 J0.0 Z-0.045 
N236 X-0.9435 I0.181 J0.0 Z-0.09 
N238 X-1.3065 I-0.181 J0.0 Z-0.135 
N240 X-0.9435 I0.181 J0.0 Z-0.18 
N242 X-1.3065 I-0.181 J0.0 Z-0.225 
N244 X-0.9435 I0.181 J0.0 Z-0.27 
N246 X-1.3065 I-0.181 J0.0 Z-0.315 
N248 X-0.9435 I0.181 J0.0 Z-0.36 
N250 X-1.3065 I-0.181 J0.0 Z-0.405 
N252 X-0.9435 I0.181 J0.0 Z-0.45 
N254 X-1.3065 I-0.181 J0.0 Z-0.495 
N256 X-0.9435 I0.181 J0.0 Z-0.54 
N258 X-1.3065 I-0.181 J0.0 Z-0.585 
N260 X-0.9435 I0.181 J0.0 Z-0.63 
N262 X-1.3065 I-0.181 J0.0 Z-0.675 
N264 X-0.9435 I0.181 J0.0 Z-0.72 
N266 X-1.3065 I-0.181 J0.0 Z-0.765 
N268 X-0.9435 I0.181 J0.0 Z-0.81 
N270 X-1.3065 I-0.181 J0.0 Z-0.855 
N272 X-0.9435 I0.181 J0.0 Z-0.9 
N274 X-1.3065 I-0.181 J0.0 Z-0.945 
N276 X-0.9435 I0.181 J0.0 Z-0.99 
N278 X-1.3065 I-0.181 J0.0 Z-1.035 
N280 X-0.9435 I0.181 J0.0 Z-1.08 
N282 X-1.3065 I-0.181 J0.0 Z-1.125 
N284 X-0.9435 I0.181 J0.0 Z-1.17 
N286 X-1.3065 I-0.181 J0.0 Z-1.215 
N288 X-0.9435 I0.181 J0.0 Z-1.26 
N290 X-1.3065 I-0.181 J0.0 
N292 X-0.9435 I0.181 J0.0 
N294 G40 G1 X-1.125 
N296 G0 Z0.1 
N298 (TIMELY NEW DUPLEX MILL=STATIONARY SIDE BOTTOM BASE PLATE FOR) 
N300 (OPERATION 5) 
N302 (.5_1/2 SPOT DRILL .265 TO .390 DIA.) 
N304 M09 
N306 G28 M05 G91 Y0 Z0.0 
N308 ( .5_1/2 X 90 DEG. SPOT DRILL .265 TO .390 DIA. ) 
N310 T05 M06 
N312 M03 S1042 
N314 G0 G90 G54 X-6.875 Y-2.75 
N316 G43 H5 Z0.1 
N318 M08 
N320 G98 G81 Z-0.2 R0.1 F4.0 
N322 X-1.875 
N324 G80 
N326 (TIMELY NEW DUPLEX MILL=STATIONARY SIDE BOTTOM BASE PLATE FOR) 
N328 (OPERATION 6) 
N330 (.375_3/8 PARABOLIC DRILL) 
N332 M09 
N334 G28 M05 G91 Y0 Z0.0 
N336 ( .375_3/8 PARABOLIC DRILL ) 
N338 T06 M06 
N340 M03 S917 
N342 G0 G90 G54 X-6.875 Y-2.75 
N344 G43 H6 Z0.1 
N346 M08 
N348 G98 G73 Z-1.4277 Q0.1 K0.2 R0.1 F4.0 
N350 X-1.875 
N352 G80 
N354 (TIMELY NEW DUPLEX MILL=STATIONARY SIDE BOTTOM BASE PLATE FOR) 
N356 (OPERATION 7) 
N358 (.7812_25/32 SILVER & DEMING DRILL) 
N360 M09 
N362 G28 M05 G91 Y0 Z0.0 
N364 ( .7812_25/32 SILVER & DEMING DRILL ) 
N366 T07 M06 
N368 M03 S440 
N370 G0 G90 G54 X-6.875 Y-2.75 
N372 G43 H7 Z0.1 
N374 M08 
N376 G98 G73 Z-1.6347 Q0.2 K0.4 R0.1 F4.0 
N378 X-1.875 
N380 G80 
N382 (TIMELY NEW DUPLEX MILL=STATIONARY SIDE BOTTOM BASE PLATE FOR) 
N384 (OPERATION 8) 
N386 (F-.75 REG. R. END MILL TIN 4 FL.) 
N388 M09 
N390 G28 M05 G91 Y0 Z0.0 
N392 ( .75 REG. R. END MILL TIN 4 FL. ) 
N394 T08 M06 
N396 M03 S460 
N398 G0 G90 G54 X-1.875 Y-2.75 
N400 G43 H8 Z0.1 
N402 M08 
N404 G1 Z-0.16 F10.0 
N406 G42 D8 Y-2.76 F4. 
N408 G3 X-1.865 Y-2.75 I0.0 J0.01 
N410 G1 Y-2.5 
N412 G3 X-1.885 I-0.01 J0.0 
N414 G1 Y-3.0 
N416 G3 X-1.865 I0.01 J0.0 
N418 G1 Y-2.75 
N420 G3 X-1.875 Y-2.74 I-0.01 J0.0 
N422 G40 G1 Y-2.75 
N424 G0 Z0.1 
N426 Z-0.06 
N428 G1 Z-0.32 F10.0 
N430 G42 D8 Y-2.76 F4. 
N432 G3 X-1.865 Y-2.75 I0.0 J0.01 
N434 G1 Y-2.5 
N436 G3 X-1.885 I-0.01 J0.0 
N438 G1 Y-3.0 
N440 G3 X-1.865 I0.01 J0.0 
N442 G1 Y-2.75 
N444 G3 X-1.875 Y-2.74 I-0.01 J0.0 
N446 G40 G1 Y-2.75 
N448 G0 Z0.1 
N450 Z-0.22 
N452 G1 Z-0.48 F10.0 
N454 G42 D8 Y-2.76 F4. 
N456 G3 X-1.865 Y-2.75 I0.0 J0.01 
N458 G1 Y-2.5 
N460 G3 X-1.885 I-0.01 J0.0 
N462 G1 Y-3.0 
N464 G3 X-1.865 I0.01 J0.0 
N466 G1 Y-2.75 
N468 G3 X-1.875 Y-2.74 I-0.01 J0.0 
N470 G40 G1 Y-2.75 
N472 G0 Z0.1 
N474 Z-0.38 
N476 G1 Z-0.64 F10.0 
N478 G42 D8 Y-2.76 F4. 
N480 G3 X-1.865 Y-2.75 I0.0 J0.01 
N482 G1 Y-2.5 
N484 G3 X-1.885 I-0.01 J0.0 
N486 G1 Y-3.0 
N488 G3 X-1.865 I0.01 J0.0 
N490 G1 Y-2.75 
N492 G3 X-1.875 Y-2.74 I-0.01 J0.0 
N494 G40 G1 Y-2.75 
N496 G0 Z0.1 
N498 Z-0.54 
N500 G1 Z-0.8 F10.0 
N502 G42 D8 Y-2.76 F4. 
N504 G3 X-1.865 Y-2.75 I0.0 J0.01 
N506 G1 Y-2.5 
N508 G3 X-1.885 I-0.01 J0.0 
N510 G1 Y-3.0 
N512 G3 X-1.865 I0.01 J0.0 
N514 G1 Y-2.75 
N516 G3 X-1.875 Y-2.74 I-0.01 J0.0 
N518 G40 G1 Y-2.75 
N520 G0 Z0.1 
N522 Z-0.7 
N524 G1 Z-0.96 F10.0 
N526 G42 D8 Y-2.76 F4. 
N528 G3 X-1.865 Y-2.75 I0.0 J0.01 
N530 G1 Y-2.5 
N532 G3 X-1.885 I-0.01 J0.0 
N534 G1 Y-3.0 
N536 G3 X-1.865 I0.01 J0.0 
N538 G1 Y-2.75 
N540 G3 X-1.875 Y-2.74 I-0.01 J0.0 
N542 G40 G1 Y-2.75 
N544 G0 Z0.1 
N546 Z-0.86 
N548 G1 Z-1.12 F10.0 
N550 G42 D8 Y-2.76 F4. 
N552 G3 X-1.865 Y-2.75 I0.0 J0.01 
N554 G1 Y-2.5 
N556 G3 X-1.885 I-0.01 J0.0 
N558 G1 Y-3.0 
N560 G3 X-1.865 I0.01 J0.0 
N562 G1 Y-2.75 
N564 G3 X-1.875 Y-2.74 I-0.01 J0.0 
N566 G40 G1 Y-2.75 
N568 G0 Z0.1 
N570 Z-1.02 
N572 G1 Z-1.35 F10.0 
N574 G42 D8 Y-2.76 F4. 
N576 G3 X-1.865 Y-2.75 I0.0 J0.01 
N578 G1 Y-2.5 
N580 G3 X-1.885 I-0.01 J0.0 
N582 G1 Y-3.0 
N584 G3 X-1.865 I0.01 J0.0 
N586 G1 Y-2.75 
N588 G3 X-1.875 Y-2.74 I-0.01 J0.0 
N590 G40 G1 Y-2.75 
N592 G0 Z0.1 
N594 X-6.875 
N596 G1 Z-0.16 F10.0 
N598 G42 D8 Y-2.76 F4. 
N600 G3 X-6.865 Y-2.75 I0.0 J0.01 
N602 G1 Y-2.5 
N604 G3 X-6.885 I-0.01 J0.0 
N606 G1 Y-3.0 
N608 G3 X-6.865 I0.01 J0.0 
N610 G1 Y-2.75 
N612 G3 X-6.875 Y-2.74 I-0.01 J0.0 
N614 G40 G1 Y-2.75 
N616 G0 Z0.1 
N618 Z-0.06 
N620 G1 Z-0.32 F10.0 
N622 G42 D8 Y-2.76 F4. 
N624 G3 X-6.865 Y-2.75 I0.0 J0.01 
N626 G1 Y-2.5 
N628 G3 X-6.885 I-0.01 J0.0 
N630 G1 Y-3.0 
N632 G3 X-6.865 I0.01 J0.0 
N634 G1 Y-2.75 
N636 G3 X-6.875 Y-2.74 I-0.01 J0.0 
N638 G40 G1 Y-2.75 
N640 G0 Z0.1 
N642 Z-0.22 
N644 G1 Z-0.48 F10.0 
N646 G42 D8 Y-2.76 F4. 
N648 G3 X-6.865 Y-2.75 I0.0 J0.01 
N650 G1 Y-2.5 
N652 G3 X-6.885 I-0.01 J0.0 
N654 G1 Y-3.0 
N656 G3 X-6.865 I0.01 J0.0 
N658 G1 Y-2.75 
N660 G3 X-6.875 Y-2.74 I-0.01 J0.0 
N662 G40 G1 Y-2.75 
N664 G0 Z0.1 
N666 Z-0.38 
N668 G1 Z-0.64 F10.0 
N670 G42 D8 Y-2.76 F4. 
N672 G3 X-6.865 Y-2.75 I0.0 J0.01 
N674 G1 Y-2.5 
N676 G3 X-6.885 I-0.01 J0.0 
N678 G1 Y-3.0 
N680 G3 X-6.865 I0.01 J0.0 
N682 G1 Y-2.75 
N684 G3 X-6.875 Y-2.74 I-0.01 J0.0 
N686 G40 G1 Y-2.75 
N688 G0 Z0.1 
N690 Z-0.54 
N692 G1 Z-0.8 F10.0 
N694 G42 D8 Y-2.76 F4. 
N696 G3 X-6.865 Y-2.75 I0.0 J0.01 
N698 G1 Y-2.5 
N700 G3 X-6.885 I-0.01 J0.0 
N702 G1 Y-3.0 
N704 G3 X-6.865 I0.01 J0.0 
N706 G1 Y-2.75 
N708 G3 X-6.875 Y-2.74 I-0.01 J0.0 
N710 G40 G1 Y-2.75 
N712 G0 Z0.1 
N714 Z-0.7 
N716 G1 Z-0.96 F10.0 
N718 G42 D8 Y-2.76 F4. 
N720 G3 X-6.865 Y-2.75 I0.0 J0.01 
N722 G1 Y-2.5 
N724 G3 X-6.885 I-0.01 J0.0 
N726 G1 Y-3.0 
N728 G3 X-6.865 I0.01 J0.0 
N730 G1 Y-2.75 
N732 G3 X-6.875 Y-2.74 I-0.01 J0.0 
N734 G40 G1 Y-2.75 
N736 G0 Z0.1 
N738 Z-0.86 
N740 G1 Z-1.12 F10.0 
N742 G42 D8 Y-2.76 F4. 
N744 G3 X-6.865 Y-2.75 I0.0 J0.01 
N746 G1 Y-2.5 
N748 G3 X-6.885 I-0.01 J0.0 
N750 G1 Y-3.0 
N752 G3 X-6.865 I0.01 J0.0 
N754 G1 Y-2.75 
N756 G3 X-6.875 Y-2.74 I-0.01 J0.0 
N758 G40 G1 Y-2.75 
N760 G0 Z0.1 
N762 Z-1.02 
N764 G1 Z-1.35 F10.0 
N766 G42 D8 Y-2.76 F4. 
N768 G3 X-6.865 Y-2.75 I0.0 J0.01 
N770 G1 Y-2.5 
N772 G3 X-6.885 I-0.01 J0.0 
N774 G1 Y-3.0 
N776 G3 X-6.865 I0.01 J0.0 
N778 G1 Y-2.75 
N780 G3 X-6.875 Y-2.74 I-0.01 J0.0 
N782 G40 G1 Y-2.75 
N784 G0 Z0.1 
N786 (TIMELY NEW DUPLEX MILL=STATIONARY SIDE BOTTOM BASE PLATE FOR) 
N788 (OPERATION 9) 
N790 (J-.75 REG. CARBIDE END MILL 4 FL.) 
N792 M09 
N794 G28 M05 G91 Y0 Z0.0 
N796 ( .75 REG. CARBIDE END MILL 4 FL. ) 
N798 T09 M06 
N800 M03 S715 
N802 G0 G90 G54 X-1.1225 Y-0.8525 
N804 G43 H9 Z0.1 
N806 M08 
N808 G1 Z-1.5 F10.0 
N810 G42 D9 X-1.085 F4.0 
N812 G3 X-1.125 Y-0.8125 I-0.04 J0.0 
N814 Y-1.1875 I0.0 J-0.188 
N816 Y-0.8125 I0.0 J0.188 
N818 X-1.165 Y-0.8525 I0.0 J-0.04 
N820 G40 G1 X-1.1275 
N822 G0 Z0.1 
N824 X-10.7475 
N826 G1 Z-1.5 F10.0 
N828 G42 D9 X-10.71 F4.0 
N830 G3 X-10.75 Y-0.8125 I-0.04 J0.0 
N832 Y-1.1875 I0.0 J-0.188 
N834 Y-0.8125 I0.0 J0.188 
N836 X-10.79 Y-0.8525 I0.0 J-0.04 
N838 G40 G1 X-10.7525 
N840 G0 Z0.1 
N842 (TIMELY NEW DUPLEX MILL=STATIONARY SIDE BOTTOM BASE PLATE FOR) 
N844 (OPERATION 10) 
N846 (J-.75 REG. CARBIDE END MILL 4 FL.) 
N848 S715 
N850 G0 X-1.875 Y-2.75 
N852 Z0.1 
N854 G1 Z-1.5 F10.0 
N856 X-1.869 F4.0 
N858 G42 D9 Y-2.76 
N860 G3 X-1.859 Y-2.75 I0.0 J0.01 
N862 G1 Y-2.5 
N864 G3 X-1.891 I-0.016 J0.0 
N866 G1 Y-3.0 
N868 G3 X-1.859 I0.016 J0.0 
N870 G1 Y-2.75 
N872 G3 X-1.869 Y-2.74 I-0.01 J0.0 
N874 G40 G1 Y-2.75 
N876 G0 Z0.1 
N878 X-6.875 
N880 G1 Z-1.5 F10.0 
N882 X-6.869 F4.0 
N884 G42 D9 Y-2.76 
N886 G3 X-6.859 Y-2.75 I0.0 J0.01 
N888 G1 Y-2.5 
N890 G3 X-6.891 I-0.016 J0.0 
N892 G1 Y-3.0 
N894 G3 X-6.859 I0.016 J0.0 
N896 G1 Y-2.75 
N898 G3 X-6.869 Y-2.74 I-0.01 J0.0 
N900 G40 G1 Y-2.75 
N902 G0 Z0.1 
N904 (TIMELY NEW DUPLEX MILL=STATIONARY SIDE BOTTOM BASE PLATE FOR) 
N906 (OPERATION 11) 
N908 (D-.5 STUB R. END MILL TIN 4 FL.) 
N910 M09 
N912 G28 M05 G91 Y0 Z0.0 
N914 ( .5 STUB R. END MILL TIN 4 FL. ) 
N916 T10 M06 
N918 M03 S690 
N920 G0 G90 G54 X-4.47 Y0.3 
N922 G43 H10 Z0.1 
N924 M08 
N926 G1 Z-0.13 F10.0 
N928 G42 D10 X-4.495 F4.0 
N930 Y0.0 
N932 Y-5.0 
N934 Y-5.3 
N936 G40 X-4.47 
N938 G0 Z0.1 
N940 Y0.3 
N942 Z-0.03 
N944 G1 Z-0.26 F10.0 
N946 G42 D10 X-4.495 F4.0 
N948 Y0.0 
N950 Y-5.0 
N952 Y-5.3 
N954 G40 X-4.47 
N956 G0 Z0.1 
N958 X-4.28 
N960 G1 Z-0.13 F10.0 
N962 G42 D10 X-4.255 F4.0 
N964 Y-5.0 
N966 Y0.0 
N968 Y0.3 
N970 G40 X-4.28 
N972 G0 Z0.1 
N974 Y-5.3 
N976 Z-0.03 
N978 G1 Z-0.26 F10.0 
N980 G42 D10 X-4.255 F4.0 
N982 Y-5.0 
N984 Y0.0 
N986 Y0.3 
N988 G40 X-4.28 
N990 G0 Z0.1 
N992 (TIMELY NEW DUPLEX MILL=STATIONARY SIDE BOTTOM BASE PLATE FOR) 
N994 (OPERATION 12) 
N996 (G-.5 STUB CARBIDE END MILL 4 FL.) 
N998 M09 
N1000 G28 M05 G91 Y0 Z0.0 
N1002 ( .5 STUB CARBIDE END MILL 4 FL. ) 
N1004 T11 M06 
N1006 M03 S1070 
N1008 G0 G90 G54 X-4.476 Y0.3 
N1010 G43 H11 Z0.1 
N1012 M08 
N1014 G1 Z-0.26 F10.0 
N1016 G42 D11 X-4.501 F4.0 
N1018 Y0.0 
N1020 Y-5.0 
N1022 Y-5.3 
N1024 G40 X-4.476 
N1026 G0 Z0.1 
N1028 X-4.274 
N1030 G1 Z-0.26 F10.0 
N1032 G42 D11 X-4.249 F4.0 
N1034 Y-5.0 
N1036 Y0.0 
N1038 Y0.3 
N1040 G40 X-4.274 
N1042 G0 Z0.1 
N1044 (TIMELY NEW DUPLEX MILL=STATIONARY SIDE BOTTOM BASE PLATE FOR) 
N1046 (OPERATION 13) 
N1048 (.04 X.25 SH X 60 DEG. ENGRAVE CUTTER) 
N1050 M09 
N1052 G28 M05 G91 Y0 Z0.0 
N1054 ( .04 X.25 SH X 60 DEG. ENGRAVE CUTTER ) 
N1056 T12 M06 
N1058 M03 S2139 
N1060 G0 G90 G54 X-11.2125 Y-1.0 
N1062 G43 H12 Z0.1 
N1064 M08 
N1066 G1 Z-0.006 F10.0 
N1068 X-11.3125 F6.0 
N1070 X-11.875 
N1072 X-11.975 
N1074 G0 Z0.1 
N1076 X-0.6625 
N1078 G1 Z-0.006 F10.0 
N1080 X-0.5625 F6.0 
N1082 X0.0 
N1084 X0.1 
N1086 G0 Z0.1 
N1088 M09 
N1090 G28 M05 G91 Y0 Z0.0 
N1092 M30 

%