%
O00824 (MATL-HOLD-DOWN-BRACKET-2.HAS)
N2 (DATE 11-4-2025 TIME 11:29) 
N4 (created by hyperMILL 2024 OPEN MIND Technologies AG) 
N6 ( .375 STUB CARBIDE END MILL 4 FL. ) 
N8 ( .250 STUB CARBIDE END MILL 4 FL. ) 
N10 ( 3/16 45GRIS CATRE ) 
N12 ( .375 REG. CARBIDE END MILL 4 FL. ) 
N14 ( .5_1/2 X 90 DEG. SPOT DRILLL .218 TO.265 DIA. ) 
N16 ( .2656_17/64 PARABOLIC DRILL ) 
N18 ( 5/8 COUNTESINK .125 TIP X 82 DEG ) 
N20 ( 5/16-18 OSG TAP ) 
N22 G00 G17 G20 G40 G49 G80 G90 
N24 (TIMELY NEW UNIVERSAL PRESS=MATL HOLD DOWN BRACKET) 
N26 (OPERATION 1) 
N28 (G-.375 STUB CARBIDE END MILL 4 FL.) 
N30 G28 M05 G91 Y0 Z0.0 
N32 ( .375 STUB CARBIDE END MILL 4 FL. ) 
N34 T01 M06 
N36 M03 S1426 
N38 G0 G90 G54 X2.6503 Y0.3 
N40 G43 H1 Z0.1 
N42 M08 
N44 G1 Z-0.125 F10.0 
N46 G42 D1 X2.6315 F5.0 
N48 Y0.0 
N50 Y-0.1188 
N52 G2 X2.5594 Y-0.2666 I-0.188 J0.0 
N54 G3 X2.644 Y-0.5125 I0.085 J-0.108 
N56 X2.7286 Y-0.2666 I0.0 J0.137 
N58 G2 X2.6565 Y-0.1188 I0.115 J0.148 
N60 G1 Y0.0 
N62 Y0.3 
N64 G40 X2.6378 
N66 G0 Z0.1 
N68 (TIMELY NEW UNIVERSAL PRESS=MATL HOLD DOWN BRACKET) 
N70 (OPERATION 2) 
N72 (G-.375 STUB CARBIDE END MILL 4 FL.) 
N74 S1426 
N76 G0 X2.3231 Y0.1567 
N78 Z0.1 
N80 G1 Z-0.42 F10.0 
N82 G42 D1 X2.3069 Y0.1661 F5.0 
N84 X2.1569 Y-0.0938 
N86 G3 X3.1311 I0.487 J-0.281 
N88 G1 X2.9811 Y0.1661 
N90 G40 X2.9649 Y0.1567 
N92 G0 Z0.1 
N94 (TIMELY NEW UNIVERSAL PRESS=MATL HOLD DOWN BRACKET) 
N96 (OPERATION 3) 
N98 (G-.375 STUB CARBIDE END MILL 4 FL.) 
N100 S1426 
N102 G0 X2.4628 Y0.3136 
N104 Z0.1 
N106 G1 Z-0.42 F10.0 
N108 G42 D1 X2.444 F5.0 
N110 G3 X2.644 Y0.1137 I0.2 J0.0 
N112 G2 Y-0.8637 I0.0 J-0.489 
N114 Y0.1137 I0.0 J0.489 
N116 G3 X2.844 Y0.3136 I0.0 J0.2 
N118 G40 G1 X2.8253 
N120 G0 Z0.1 
N122 (TIMELY NEW UNIVERSAL PRESS=MATL HOLD DOWN BRACKET) 
N124 (OPERATION 10) 
N126 (G-.250 STUB CARBIDE END MILL 4 FL.) 
N128 M09 
N130 G28 M05 G91 Y0 Z0.0 
N132 ( .250 STUB CARBIDE END MILL 4 FL. ) 
N134 T02 M06 
N136 M03 S2139 
N138 G0 G90 G54 X2.2636 Y0.1911 
N140 G43 H2 Z0.1 
N142 M08 
N144 G1 Z-0.45 F10.0 
N146 G42 D2 X2.2527 Y0.1973 F5.0 
N148 X2.1027 Y-0.0625 
N150 G3 X3.1853 I0.541 J-0.312 
N152 G1 X3.0353 Y0.1973 
N154 G40 X3.0244 Y0.1911 
N156 G0 Z0.1 
N158 (TIMELY NEW UNIVERSAL PRESS=MATL HOLD DOWN BRACKET) 
N160 (OPERATION 11) 
N162 (G-.250 STUB CARBIDE END MILL 4 FL.) 
N164 S2139 
N166 G0 X2.9161 Y0.3745 
N168 Z0.1 
N170 G1 Z-0.45 F10.0 
N172 G42 D2 X2.9057 Y0.3814 F5.0 
N174 G3 X2.9618 Y0.1042 I0.167 J-0.111 
N176 G2 X2.644 Y-0.95 I-0.318 J-0.479 
N178 X2.3262 Y0.1042 I0.0 J0.575 
N180 G3 X2.3823 Y0.3814 I-0.111 J0.167 
N182 G40 G1 X2.3719 Y0.3745 
N184 G0 Z0.1 
N186 (TIMELY NEW UNIVERSAL PRESS=MATL HOLD DOWN BRACKET) 
N188 (OPERATION 12) 
N190 (3/16 45GRIS CATRE) 
N192 M09 
N194 G28 M05 G91 Y0 Z0.0 
N196 ( 3/16 45GRIS CATRE ) 
N198 T03 M06 
N200 M03 S2860 
N202 G0 G90 G54 X2.1474 Y0.0249 
N204 G43 H3 Z0.1 
N206 M08 
N208 G1 Z-0.04 F10.0 
N210 G42 D3 X2.1484 Y0.0266 F8. 
N212 G3 X2.0118 Y-0.01 I-0.05 J-0.087 
N214 X3.2762 I0.632 J-0.365 
N216 X3.1396 Y0.0266 I-0.087 J-0.05 
N218 G40 G1 X3.1406 Y0.0249 
N220 G0 Z0.1 
N222 (TIMELY NEW UNIVERSAL PRESS=MATL HOLD DOWN BRACKET) 
N224 (OPERATION 9) 
N226 (3/16 45GRIS CATRE) 
N228 S2860 
N230 G0 X2.546 Y0.0401 
N232 Z0.1 
N234 G1 Z-0.165 F10.0 
N236 G42 D3 X2.544 F6. 
N238 G3 X2.644 Y-0.0599 I0.1 J0.0 
N240 G2 Y-0.6902 I0.0 J-0.315 
N242 Y-0.0599 I0.0 J0.315 
N244 G3 X2.744 Y0.0401 I0.0 J0.1 
N246 G40 G1 X2.742 
N248 G0 Z0.1 
N250 (TIMELY NEW UNIVERSAL PRESS=MATL HOLD DOWN BRACKET) 
N252 (OPERATION 4) 
N254 (H-.375 REG. CARBIDE END MILL 4 FL.) 
N256 M09 
N258 G28 M05 G91 Y0 Z0.0 
N260 ( .375 REG. CARBIDE END MILL 4 FL. ) 
N262 T04 M06 
N264 M03 S1426 
N266 G0 G90 G54 X2.4628 Y0.3076 
N268 G43 H4 Z0.1 
N270 M08 
N272 G1 Z-0.42 F10.0 
N274 G42 D4 X2.444 F5.0 
N276 G3 X2.644 Y0.1076 I0.2 J0.0 
N278 G2 Y-0.8577 I0.0 J-0.483 
N280 Y0.1076 I0.0 J0.483 
N282 G3 X2.844 Y0.3076 I0.0 J0.2 
N284 G40 G1 X2.8253 
N286 G0 Z0.1 
N288 (TIMELY NEW UNIVERSAL PRESS=MATL HOLD DOWN BRACKET) 
N290 (OPERATION 5) 
N292 (.5_1/2 SPOT DRIL 218 TO.265 DIA.) 
N294 M09 
N296 G28 M05 G91 Y0 Z0.0 
N298 ( .5_1/2 X 90 DEG. SPOT DRILLL .218 TO.265 DIA. ) 
N300 T05 M06 
N302 M03 S1563 
N304 G0 G90 G54 X2.644 Y-0.375 
N306 G43 H5 Z0.1 
N308 M08 
N310 G98 G81 Z-0.325 R-0.025 F4.0 
N312 G80 
N314 (TIMELY NEW UNIVERSAL PRESS=MATL HOLD DOWN BRACKET) 
N316 (OPERATION 6) 
N318 (.2656_17/64 PARABOLIC DRILL) 
N320 M09 
N322 G28 M05 G91 Y0 Z0.0 
N324 ( .2656_17/64 PARABOLIC DRILL ) 
N326 T06 M06 
N328 M03 S1297 
N330 G0 G90 G54 X2.644 Y-0.375 
N332 G43 H6 Z0.1 
N334 M08 
N336 G98 G73 Z-0.7799 Q0.1 K0.2 R0.1 F4.0 
N338 G80 
N340 (TIMELY NEW UNIVERSAL PRESS=MATL HOLD DOWN BRACKET) 
N342 (OPERATION 8) 
N344 (5/8 COUNTESINK .125 TIP X 82 DEG) 
N346 M09 
N348 G28 M05 G91 Y0 Z0.0 
N350 ( 5/8 COUNTESINK .125 TIP X 82 DEG ) 
N352 T07 M06 
N354 M03 S375 
N356 G0 G90 G54 X2.644 Y-0.375 
N358 G43 H7 Z0.1 
N360 M08 
N362 G98 G73 Z-0.33 Q0.02 R-0.2 F1.5 
N364 G80 
N366 (TIMELY NEW UNIVERSAL PRESS=MATL HOLD DOWN BRACKET) 
N368 (OPERATION 7) 
N370 (Q-5/16-18 OSG TAP) 
N372 M09 
N374 G28 M05 G91 Y0 Z0.0 
N376 ( 5/16-18 OSG TAP ) 
N378 T08 M06 
N380 M03 S489 
N382 G0 G90 G54 X2.644 Y-0.375 
N384 G43 H8 Z0.1 
N386 M08 
N388 G98 G84 Z-0.8 R-0.025 F27.1395 
N390 G80 
N392 M09 
N394 G28 M05 G91 Y0 Z0.0 
N396 M30 

%