%
O00826 (MATL-HOLD-DOWN-BRACKET-3.HAS)
N2 (DATE 11-4-2025 TIME 12:44) 
N4 (created by hyperMILL 2024 OPEN MIND Technologies AG) 
N6 ( .375 REG. CARBIDE END MILL 4 FL. ) 
N8 ( .375_3/8 X 90 DEG. SPOT DRILL ) 
N10 ( .1406_9/64 PARABOLIC DRILL ) 
N12 ( .3125_5/16 PARABOLIC DRILL ) 
N14 ( .3593_23/64 PARABOLIC DRILL ) 
N16 ( .250 STUB CARBIDE END MILL 4 FL. ) 
N18 ( .3730 REAMER HS 6 FL. ) 
N20 ( .3750 REAMER HS 6 FL. ) 
N22 ( H-.3125 REG. CARBIDE END MILL 4 FL. ) 
N24 ( .250 REG. CARBIDE END MILL 4 FL. ) 
N26 ( .375 STUB CARBIDE END MILL 4 FL. ) 
N28 ( .75 REG. R. END MILL TIN 4 FL. ) 
N30 ( .75 REG. CARBIDE END MILL 4 FL. ) 
N32 G00 G17 G20 G40 G49 G80 G90 
N34 (TIMELY NEW UNIVERSAL PRESS=MATL HOLD DOWN BRACKET) 
N36 (OPERATION 1) 
N38 (H-.375 REG. CARBIDE END MILL 4 FL.) 
N40 G28 M05 G91 Y0 Z0.0 
N42 ( .375 REG. CARBIDE END MILL 4 FL. ) 
N44 T01 M06 
N46 M03 S1426 
N48 G0 G90 G54 X0.2062 Y-0.5 
N50 G43 H1 Z0.1 
N52 M08 
N54 Z0.1074 
N56 G1 Z-0.074 F7.0 
N58 X0.0 
N60 Y0.0 
N62 X-0.3685 
N64 Y-0.75 
N66 G3 X-0.312 Y-0.8065 I0.056 J0.0 
N68 G1 X0.0 
N70 Y-0.5 
N72 G3 X-0.0375 Y-0.4625 I-0.037 J0.0 
N74 G1 X-0.1313 
N76 G3 X-0.1688 Y-0.5 I0.0 J-0.037 
N78 G1 Y-0.6359 
N80 X-0.1706 Y-0.6378 
N82 X-0.1979 
N84 X-0.1998 Y-0.6359 
N86 Y-0.1706 
N88 X-0.1979 Y-0.1688 
N90 X-0.1706 
N92 X-0.1688 Y-0.1706 
N94 Y-0.5 
N96 G0 Z0.1 
N98 X0.2062 
N100 Z0.0334 
N102 G1 Z-0.148 F7.0 
N104 X0.0 
N106 Y0.0 
N108 X-0.3685 
N110 Y-0.75 
N112 G3 X-0.312 Y-0.8065 I0.056 J0.0 
N114 G1 X0.0 
N116 Y-0.5 
N118 G3 X-0.0375 Y-0.4625 I-0.037 J0.0 
N120 G1 X-0.1313 
N122 G3 X-0.1688 Y-0.5 I0.0 J-0.037 
N124 G1 Y-0.6359 
N126 X-0.1706 Y-0.6378 
N128 X-0.1979 
N130 X-0.1998 Y-0.6359 
N132 Y-0.1706 
N134 X-0.1979 Y-0.1688 
N136 X-0.1706 
N138 X-0.1688 Y-0.1706 
N140 Y-0.5 
N142 G0 Z0.1 
N144 X0.2062 
N146 Z-0.0406 
N148 G1 Z-0.222 F7.0 
N150 X0.0 
N152 Y0.0 
N154 X-0.3685 
N156 Y-0.75 
N158 G3 X-0.312 Y-0.8065 I0.056 J0.0 
N160 G1 X0.0 
N162 Y-0.5 
N164 G3 X-0.0375 Y-0.4625 I-0.037 J0.0 
N166 G1 X-0.1313 
N168 G3 X-0.1688 Y-0.5 I0.0 J-0.037 
N170 G1 Y-0.6359 
N172 X-0.1706 Y-0.6378 
N174 X-0.1979 
N176 X-0.1998 Y-0.6359 
N178 Y-0.1706 
N180 X-0.1979 Y-0.1688 
N182 X-0.1706 
N184 X-0.1688 Y-0.1706 
N186 Y-0.5 
N188 G0 Z0.1 
N190 X0.2062 
N192 Z-0.1146 
N194 G1 Z-0.296 F7.0 
N196 X0.0 
N198 Y0.0 
N200 X-0.3685 
N202 Y-0.75 
N204 G3 X-0.312 Y-0.8065 I0.056 J0.0 
N206 G1 X0.0 
N208 Y-0.5 
N210 G3 X-0.0375 Y-0.4625 I-0.037 J0.0 
N212 G1 X-0.1313 
N214 G3 X-0.1688 Y-0.5 I0.0 J-0.037 
N216 G1 Y-0.6359 
N218 X-0.1706 Y-0.6378 
N220 X-0.1979 
N222 X-0.1998 Y-0.6359 
N224 Y-0.1706 
N226 X-0.1979 Y-0.1688 
N228 X-0.1706 
N230 X-0.1688 Y-0.1706 
N232 Y-0.5 
N234 G0 Z0.1 
N236 X0.2062 
N238 Z-0.1886 
N240 G1 Z-0.313 F7.0 
N242 X0.0 
N244 Y0.0 
N246 X-0.3685 
N248 Y-0.75 
N250 G3 X-0.312 Y-0.8065 I0.056 J0.0 
N252 G1 X0.0 
N254 Y-0.5 
N256 G3 X-0.0375 Y-0.4625 I-0.037 J0.0 
N258 G1 X-0.1313 
N260 G3 X-0.1688 Y-0.5 I0.0 J-0.037 
N262 G1 Y-0.6359 
N264 X-0.1706 Y-0.6378 
N266 X-0.1979 
N268 X-0.1998 Y-0.6359 
N270 Y-0.1706 
N272 X-0.1979 Y-0.1688 
N274 X-0.1706 
N276 X-0.1688 Y-0.1706 
N278 Y-0.5 
N280 G0 Z0.1 
N282 (TIMELY NEW UNIVERSAL PRESS=MATL HOLD DOWN BRACKET) 
N284 (OPERATION 2) 
N286 (H-.375 REG. CARBIDE END MILL 4 FL.) 
N288 S1426 
N290 G0 X-0.3558 Y0.2 
N292 Z0.1 
N294 G1 Z-0.313 F10.0 
N296 G42 D1 X-0.3745 F4. 
N298 Y0.0 
N300 Y-0.75 
N302 G3 X-0.312 Y-0.8125 I0.062 J0.0 
N304 G1 X0.0 
N306 X0.2 
N308 G40 Y-0.7937 
N310 G0 Z0.1 
N312 (TIMELY NEW UNIVERSAL PRESS=MATL HOLD DOWN BRACKET) 
N314 (OPERATION 3) 
N316 (.375_3/8 SPOT DRILL) 
N318 M09 
N320 G28 M05 G91 Y0 Z0.0 
N322 ( .375_3/8 X 90 DEG. SPOT DRILL ) 
N324 T02 M06 
N326 M03 S1250 
N328 G0 G90 G54 X-3.019 Y-0.375 
N330 G43 H2 Z0.1 
N332 M08 
N334 G98 G81 Z-0.07 R0.1 F4.0 
N336 X-2.269 
N338 G80 
N340 (TIMELY NEW UNIVERSAL PRESS=MATL HOLD DOWN BRACKET) 
N342 (OPERATION 7) 
N344 (.375_3/8 SPOT DRILL) 
N346 S1250 
N348 G0 X-4.4205 Y-0.3835 
N350 Z0.1 
N352 G98 G81 Z-0.18 R0.1 F4. 
N354 G80 
N356 (TIMELY NEW UNIVERSAL PRESS=MATL HOLD DOWN BRACKET) 
N358 (OPERATION 5) 
N360 (.375_3/8 SPOT DRILL) 
N362 S1250 
N364 G0 X-0.25 Y-0.5 
N366 Z0.1 
N368 G98 G81 Z-0.46 R0.1 F4. 
N370 G80 
N372 (TIMELY NEW UNIVERSAL PRESS=MATL HOLD DOWN BRACKET) 
N374 (OPERATION 4) 
N376 (.1406_9/64 PARABOLIC DRILL) 
N378 M09 
N380 G28 M05 G91 Y0 Z0.0 
N382 ( .1406_9/64 PARABOLIC DRILL ) 
N384 T03 M06 
N386 M03 S2445 
N388 G0 G90 G54 X-3.019 Y-0.375 
N390 G43 H3 Z0.1 
N392 M08 
N394 G98 G83 Z-0.5091 Q0.09 R0.1 F3. 
N396 X-2.269 
N398 G80 
N400 (TIMELY NEW UNIVERSAL PRESS=MATL HOLD DOWN BRACKET) 
N402 (OPERATION 6) 
N404 (.3125_5/16 PARABOLIC DRILL) 
N406 M09 
N408 G28 M05 G91 Y0 Z0.0 
N410 ( .3125_5/16 PARABOLIC DRILL ) 
N412 T04 M06 
N414 M03 S1102 
N416 G0 G90 G54 X-0.25 Y-0.5 
N418 G43 H4 Z0.1 
N420 M08 
N422 G98 G73 Z-0.7896 Q0.1 K0.2 R-0.213 F4. 
N424 G80 
N426 (TIMELY NEW UNIVERSAL PRESS=MATL HOLD DOWN BRACKET) 
N428 (OPERATION 8) 
N430 (.3593_23/64 PARABOLIC DRILL) 
N432 M09 
N434 G28 M05 G91 Y0 Z0.0 
N436 ( .3593_23/64 PARABOLIC DRILL ) 
N438 T05 M06 
N440 M03 S958 
N442 G0 G90 G54 X-4.4205 Y-0.3835 
N444 G43 H5 Z0.1 
N446 M08 
N448 G98 G73 Z-0.7994 Q0.1 K0.2 R0.1 F4.0 
N450 G80 
N452 (TIMELY NEW UNIVERSAL PRESS=MATL HOLD DOWN BRACKET) 
N454 (OPERATION 9) 
N456 (G-.250 STUB CARBIDE END MILL 4 FL.) 
N458 M09 
N460 G28 M05 G91 Y0 Z0.0 
N462 ( .250 STUB CARBIDE END MILL 4 FL. ) 
N464 T06 M06 
N466 M03 S2139 
N468 G0 G90 G54 X-4.4205 Y-0.3835 
N470 G43 H6 Z0.1 
N472 M08 
N474 Z0.02 
N476 G42 D6 G1 X-4.359 Z0.06 F6.0 
N478 G3 X-4.482 I-0.061 J0.0 Z0.03 
N480 X-4.359 I0.062 J0.0 Z0.0 
N482 X-4.482 I-0.061 J0.0 Z-0.03 
N484 X-4.359 I0.062 J0.0 Z-0.06 
N486 X-4.482 I-0.061 J0.0 Z-0.09 
N488 X-4.359 I0.062 J0.0 Z-0.12 
N490 X-4.482 I-0.061 J0.0 Z-0.15 
N492 X-4.359 I0.062 J0.0 Z-0.18 
N494 X-4.482 I-0.061 J0.0 Z-0.21 
N496 X-4.359 I0.062 J0.0 Z-0.24 
N498 X-4.482 I-0.061 J0.0 Z-0.27 
N500 X-4.359 I0.062 J0.0 Z-0.3 
N502 X-4.482 I-0.061 J0.0 
N504 X-4.359 I0.062 J0.0 
N506 G40 G1 X-4.4205 
N508 G0 Z0.1 
N510 (TIMELY NEW UNIVERSAL PRESS=MATL HOLD DOWN BRACKET) 
N512 (OPERATION 10) 
N514 (.3730 REAMER HS 6 FL.) 
N516 M09 
N518 G28 M05 G91 Y0 Z0.0 
N520 ( .3730 REAMER HS 6 FL. ) 
N522 T07 M06 
N524 M03 S666 
N526 G0 G90 G54 X-4.4205 Y-0.3835 
N528 G43 H7 Z0.1 
N530 M08 
N532 G98 G83 Z-0.812 Q0.5 R0.1 F5.0 
N534 G80 
N536 (TIMELY NEW UNIVERSAL PRESS=MATL HOLD DOWN BRACKET) 
N538 (OPERATION 11) 
N540 (.3750 REAMER HS 6 FL.) 
N542 M09 
N544 G28 M05 G91 Y0 Z0.0 
N546 ( .3750 REAMER HS 6 FL. ) 
N548 T08 M06 
N550 M03 S458 
N552 G0 G90 G54 X-4.4205 Y-0.3835 
N554 G43 H8 Z0.1 
N556 M08 
N558 G98 G83 Z-0.8124 Q0.5 R0.1 F8.0 
N560 G80 
N562 (TIMELY NEW UNIVERSAL PRESS=MATL HOLD DOWN BRACKET) 
N564 (OPERATION 13) 
N566 (H-.3125 REG. CARBIDE END MILL 4 FL.) 
N568 M09 
N570 G28 M05 G91 Y0 Z0.0 
N572 ( H-.3125 REG. CARBIDE END MILL 4 FL. ) 
N574 T09 M06 
N576 M03 S1300 
N578 G0 G90 G54 X-0.25 Y-0.615 
N580 G43 H9 Z0.1 
N582 M08 
N584 G98 G81 Z-0.75 R-0.213 F2. 
N586 G80 
N588 Y-0.385 
N590 G98 G81 Z-0.75 R-0.213 F2. 
N592 G80 
N594 (TIMELY NEW UNIVERSAL PRESS=MATL HOLD DOWN BRACKET) 
N596 (OPERATION 14) 
N598 (H-.250 REG. CARBIDE END MILL 4 FL.) 
N600 M09 
N602 G28 M05 G91 Y0 Z0.0 
N604 ( .250 REG. CARBIDE END MILL 4 FL. ) 
N606 T10 M06 
N608 M03 S2139 
N610 G0 G90 G54 X-0.241 Y-0.5175 
N612 G43 H10 Z0.1 
N614 M08 
N616 Z-0.213 
N618 G1 Z-0.7 F10.0 
N620 G42 D10 Y-0.53 F3.0 
N622 G3 X-0.211 Y-0.5 I0.0 J0.03 
N624 G1 Y-0.385 
N626 G3 X-0.289 I-0.039 J0.0 
N628 G1 Y-0.615 
N630 G3 X-0.211 I0.039 J0.0 
N632 G1 Y-0.5 
N634 G3 X-0.241 Y-0.47 I-0.03 J0.0 
N636 G40 G1 Y-0.4825 
N638 G0 Z0.1 
N640 (TIMELY NEW UNIVERSAL PRESS=MATL HOLD DOWN BRACKET) 
N642 (OPERATION 15) 
N644 (G-.375 STUB CARBIDE END MILL 4 FL.) 
N646 M09 
N648 G28 M05 G91 Y0 Z0.0 
N650 ( .375 STUB CARBIDE END MILL 4 FL. ) 
N652 T11 M06 
N654 M03 S1426 
N656 G0 G90 G54 X-4.4205 Y-0.3835 
N658 G43 H11 Z0.1 
N660 M08 
N662 Z0.02 
N664 G42 D11 G1 X-4.311 Z0.015 F6. 
N666 G3 X-4.53 I-0.109 J0.0 Z-0.03 
N668 X-4.311 I0.11 J0.0 Z-0.075 
N670 X-4.53 I-0.109 J0.0 Z-0.12 
N672 X-4.311 I0.11 J0.0 Z-0.165 
N674 X-4.53 I-0.109 J0.0 Z-0.21 
N676 X-4.311 I0.11 J0.0 Z-0.255 
N678 X-4.53 I-0.109 J0.0 
N680 X-4.311 I0.11 J0.0 
N682 G40 G1 X-4.4205 
N684 G0 Z0.1 
N686 (TIMELY NEW UNIVERSAL PRESS=MATL HOLD DOWN BRACKET) 
N688 (OPERATION 16) 
N690 (F-.75 REG. R. END MILL TIN 4 FL.) 
N692 M09 
N694 G28 M05 G91 Y0 Z0.0 
N696 ( .75 REG. R. END MILL TIN 4 FL. ) 
N698 T12 M06 
N700 M03 S460 
N702 G0 G90 G54 X-4.7993 Y-1.9564 
N704 G43 H12 Z0.1 
N706 M08 
N708 G1 Z-1.2 F10.0 
N710 G42 D12 X-4.7805 Y-1.9889 F4. 
N712 G3 X-4.6341 Y-1.4425 I-0.2 J0.346 
N714 G1 X-5.0393 Y-0.7408 
N716 G2 Y-0.0262 I0.619 J0.357 
N718 G1 X-4.9766 Y0.0822 
N720 G2 X-4.7749 Y0.2515 I0.333 J-0.192 
N722 G1 X-4.4719 Y0.3618 
N724 G3 X-4.2328 Y0.8745 I-0.137 J0.376 
N726 G40 G1 X-4.2681 Y0.8616 
N728 G0 Z0.1 
N730 (TIMELY NEW UNIVERSAL PRESS=MATL HOLD DOWN BRACKET) 
N732 (OPERATION 17) 
N734 (J-.75 REG. CARBIDE END MILL 4 FL.) 
N736 M09 
N738 G28 M05 G91 Y0 Z0.0 
N740 ( .75 REG. CARBIDE END MILL 4 FL. ) 
N742 T13 M06 
N744 M03 S715 
N746 G0 G90 G54 X-4.7906 Y-1.9514 
N748 G43 H13 Z0.1 
N750 M08 
N752 G1 Z-1.2 F10.0 
N754 G42 D13 X-4.7719 Y-1.9839 F6. 
N756 G3 X-4.6255 Y-1.4375 I-0.2 J0.346 
N758 G1 X-5.0306 Y-0.7358 
N760 G2 Y-0.0312 I0.61 J0.352 
N762 G1 X-4.968 Y0.0772 
N764 G2 X-4.7715 Y0.2421 I0.325 J-0.187 
N766 G1 X-4.4685 Y0.3524 
N768 G3 X-4.2294 Y0.8651 I-0.137 J0.376 
N770 G40 G1 X-4.2647 Y0.8522 
N772 G0 Z0.1 
N774 M09 
N776 G28 M05 G91 Y0 Z0.0 
N778 M30 

%