%
O00812 (MATL-HOLD-DOWN-PIVOT-2.HAS)
N2 (DATE 10-30-2025 TIME 16:20) 
N4 (created by hyperMILL 2024 OPEN MIND Technologies AG) 
N6 ( 1.0 X .062 REG. F. END MILL TIN 4 FL. ) 
N8 ( .5_1/2 X 90 DEG. SPOT DRILL .265 TO .390 DIA. ) 
N10 ( .2343_15/64 PARABOLIC DRILL ) 
N12 ( .1875 STUB CARBIDE 4 FL. ) 
N14 ( .2480 REAMER HS 6 FL. ) 
N16 ( .2495 REAMER HS 6 FL. ) 
N18 ( .3281_21/64 PARABOLIC DRILL ) 
N20 ( .5312_17/32 SILVER & DEMING DRILL ) 
N22 G00 G17 G20 G40 G49 G80 G90 
N24 (TIMELY NEW UNIVERSAL PRESS=MATL. HOLD DOWN PIVOT) 
N26 (OPERATION 3) 
N28 (AD-1.0 X .062 REG. F. END MILL TIN 4 FL.) 
N30 G28 M05 G91 Y0 Z0.0 
N32 ( 1.0 X .062 REG. F. END MILL TIN 4 FL. ) 
N34 T01 M06 
N36 M03 S380 
N38 G0 G90 G54 X2.29 Y-1.8 
N40 G43 H1 Z0.1 
N42 M08 
N44 Z0.1698 
N46 G1 Z-0.698 F8.0 
N48 Y-1.25 
N50 X2.445 
N52 Y0.0 
N54 X2.135 
N56 Y-1.25 
N58 X2.29 
N60 G0 Z0.1 
N62 (TIMELY NEW UNIVERSAL PRESS=MATL. HOLD DOWN PIVOT) 
N64 (OPERATION 2) 
N66 (AD-1.0 X .062 REG. F. END MILL TIN 4 FL.) 
N68 S350 
N70 G0 X2.165 Y0.6 
N72 Z0.1 
N74 G1 Z-0.698 F20.0 
N76 G42 D1 X2.115 F6.0 
N78 Y0.0 
N80 Y-1.25 
N82 Y-1.85 
N84 G40 X2.165 
N86 G0 Z0.1 
N88 X2.415 
N90 G1 Z-0.698 F20.0 
N92 G42 D1 X2.465 F6.0 
N94 Y-1.25 
N96 Y0.0 
N98 Y0.6 
N100 G40 X2.415 
N102 G0 Z0.1 
N104 (TIMELY NEW UNIVERSAL PRESS=MATL. HOLD DOWN PIVOT) 
N106 (OPERATION 4) 
N108 (.5_1/2 SPOT DRILL .265 TO .390 DIA.) 
N110 M09 
N112 G28 M05 G91 Y0 Z0.0 
N114 ( .5_1/2 X 90 DEG. SPOT DRILL .265 TO .390 DIA. ) 
N116 T02 M06 
N118 M03 S1042 
N120 G0 G90 G54 X1.365 Y-0.25 
N122 G43 H2 Z0.1 
N124 M08 
N126 G98 G81 Z-0.125 R0.1 F4.0 
N128 X0.25 Y-1.0 
N130 G80 
N132 (TIMELY NEW UNIVERSAL PRESS=MATL. HOLD DOWN PIVOT) 
N134 (OPERATION 9) 
N136 (.5_1/2 SPOT DRILL .265 TO .390 DIA.) 
N138 S1042 
N140 G0 X0.3125 Y-0.3125 
N142 Z0.1 
N144 G98 G81 Z-0.164 R0.1 F4.0 
N146 X1.3025 Y-0.9375 
N148 G80 
N150 (TIMELY NEW UNIVERSAL PRESS=MATL. HOLD DOWN PIVOT) 
N152 (OPERATION 11) 
N154 (.5_1/2 SPOT DRILL .265 TO .390 DIA.) 
N156 S1042 
N158 G0 X2.0625 Y-0.49 
N160 Z0.1 
N162 G98 G81 Z-0.898 R-0.598 F4.0 
N164 G80 
N166 (TIMELY NEW UNIVERSAL PRESS=MATL. HOLD DOWN PIVOT) 
N168 (OPERATION 5) 
N170 (.2343_15/64 PARABOLIC DRILL) 
N172 M09 
N174 G28 M05 G91 Y0 Z0.0 
N176 ( .2343_15/64 PARABOLIC DRILL ) 
N178 T03 M06 
N180 M03 S1469 
N182 G0 G90 G54 X1.365 Y-0.25 
N184 G43 H3 Z0.1 
N186 M08 
N188 G98 G73 Z-1.2735 Q0.1 K0.2 R0.1 F4. 
N190 X0.25 Y-1.0 
N192 G80 
N194 (TIMELY NEW UNIVERSAL PRESS=MATL. HOLD DOWN PIVOT) 
N196 (OPERATION 6) 
N198 (D-.1875 STUB CARBIDE 4 FL.) 
N200 M09 
N202 G28 M05 G91 Y0 Z0.0 
N204 ( .1875 STUB CARBIDE 4 FL. ) 
N206 T04 M06 
N208 M03 S2850 
N210 G0 G90 G54 X1.365 Y-0.25 
N212 G43 H4 Z0.1 
N214 M08 
N216 Z0.02 
N218 G42 D4 G1 X1.395 Z0.06 F8.0 
N220 G3 X1.335 I-0.03 J0.0 Z0.03 
N222 X1.395 I0.03 J0.0 Z0.0 
N224 X1.335 I-0.03 J0.0 Z-0.03 
N226 X1.395 I0.03 J0.0 Z-0.06 
N228 X1.335 I-0.03 J0.0 Z-0.09 
N230 X1.395 I0.03 J0.0 Z-0.12 
N232 X1.335 I-0.03 J0.0 Z-0.15 
N234 X1.395 I0.03 J0.0 Z-0.18 
N236 X1.335 I-0.03 J0.0 Z-0.21 
N238 X1.395 I0.03 J0.0 Z-0.24 
N240 X1.335 I-0.03 J0.0 Z-0.27 
N242 X1.395 I0.03 J0.0 Z-0.3 
N244 X1.335 I-0.03 J0.0 
N246 X1.395 I0.03 J0.0 
N248 G40 G1 X1.365 
N250 G0 Z0.1 
N252 X0.25 Y-1.0 
N254 Z0.02 
N256 G42 D4 G1 X0.28 Z0.06 F8.0 
N258 G3 X0.22 I-0.03 J0.0 Z0.03 
N260 X0.28 I0.03 J0.0 Z0.0 
N262 X0.22 I-0.03 J0.0 Z-0.03 
N264 X0.28 I0.03 J0.0 Z-0.06 
N266 X0.22 I-0.03 J0.0 Z-0.09 
N268 X0.28 I0.03 J0.0 Z-0.12 
N270 X0.22 I-0.03 J0.0 Z-0.15 
N272 X0.28 I0.03 J0.0 Z-0.18 
N274 X0.22 I-0.03 J0.0 Z-0.21 
N276 X0.28 I0.03 J0.0 Z-0.24 
N278 X0.22 I-0.03 J0.0 Z-0.27 
N280 X0.28 I0.03 J0.0 Z-0.3 
N282 X0.22 I-0.03 J0.0 
N284 X0.28 I0.03 J0.0 
N286 G40 G1 X0.25 
N288 G0 Z0.1 
N290 (TIMELY NEW UNIVERSAL PRESS=MATL. HOLD DOWN PIVOT) 
N292 (OPERATION 7) 
N294 (.2480 REAMER HS 6 FL.) 
N296 M09 
N298 G28 M05 G91 Y0 Z0.0 
N300 ( .2480 REAMER HS 6 FL. ) 
N302 T05 M06 
N304 M03 S924 
N306 G0 G90 G54 X1.365 Y-0.25 
N308 G43 H5 Z0.1 
N310 M08 
N312 G98 G83 Z-1.2895 Q0.4 R0.1 F6. 
N314 X0.25 Y-1.0 
N316 G80 
N318 (TIMELY NEW UNIVERSAL PRESS=MATL. HOLD DOWN PIVOT) 
N320 (OPERATION 8) 
N322 (.2495 REAMER HS 6 FL.) 
N324 M09 
N326 G28 M05 G91 Y0 Z0.0 
N328 ( .2495 REAMER HS 6 FL. ) 
N330 T06 M06 
N332 M03 S536 
N334 G0 G90 G54 X1.365 Y-0.25 
N336 G43 H6 Z0.1 
N338 M08 
N340 G98 G83 Z-1.3149 Q0.5 R0.1 F8.0 
N342 X0.25 Y-1.0 
N344 G80 
N346 (TIMELY NEW UNIVERSAL PRESS=MATL. HOLD DOWN PIVOT) 
N348 (OPERATION 10) 
N350 (.3281_21/64 PARABOLIC DRILL) 
N352 M09 
N354 G28 M05 G91 Y0 Z0.0 
N356 ( .3281_21/64 PARABOLIC DRILL ) 
N358 T07 M06 
N360 M03 S1048 
N362 G0 G90 G54 X0.3125 Y-0.3125 
N364 G43 H7 Z0.1 
N366 M08 
N368 G98 G73 Z-1.2929 Q0.1 K0.2 R0.1 F4.0 
N370 X1.3025 Y-0.9375 
N372 G80 
N374 (TIMELY NEW UNIVERSAL PRESS=MATL. HOLD DOWN PIVOT) 
N376 (OPERATION 12) 
N378 (.3281_21/64 PARABOLIC DRILL) 
N380 S1048 
N382 G0 X2.0625 Y-0.49 
N384 Z0.1 
N386 G98 G73 Z-1.2929 Q0.1 K0.2 R-0.598 F4.0 
N388 G80 
N390 (TIMELY NEW UNIVERSAL PRESS=MATL. HOLD DOWN PIVOT) 
N392 (OPERATION 13) 
N394 (.5312_17/32 SILVER & DEMING DRILL) 
N396 M09 
N398 G28 M05 G91 Y0 Z0.0 
N400 ( .5312_17/32 SILVER & DEMING DRILL ) 
N402 T08 M06 
N404 M03 S647 
N406 G0 G90 G54 X2.0625 Y-0.49 
N408 G43 H8 Z0.1 
N410 M08 
N412 G98 G73 Z-1.3846 Q0.1 K0.2 R-0.598 F5.0 
N414 G80 
N416 M09 
N418 G28 M05 G91 Y0 Z0.0 
N420 M30 

%