%
O00822 (BOTTOM-DIE-SET-SINGLE-PIECE-2.HAS)
N2 (DATE 11-18-2025 TIME 13:37) 
N4 (created by hyperMILL 2024 OPEN MIND Technologies AG) 
N6 (NOTA GET ORIGEN FROHOLE IN ECH DIE) 
N8 ( .5_1/2 X 90 DEG. SPOT DRILLL .218 TO.265 DIA. ) 
N10 ( .375 REG. R. END MILL TIN 4 FL. ) 
N12 ( .375 REG. CARBIDE END MILL 4 FL. ) 
N14 ( 5/16 COUNTERBORE W PLANE -.330 PL.380 ) 
N16 ( 1/2 COUNTERBORE FULL SIDE ) 
N18 ( .375 STUB R. END MILL TIN 4 FL. ) 
N20 ( .375 STUB CARBIDE END MILL 4 FL. ) 
N22 ( .250 STUB CARBIDE END MILL 4 FL. ) 
N24 ( .250 REG. CARBIDE END MILL 4 FL. ) 
N26 ( .250_1/4 X 90 DEG. SPOT DRILL ) 
N28 ( .166_NO.19 PARABOLIC DRILL ) 
N30 ( 10-32 NF OSG TAP ) 
N32 G00 G17 G20 G40 G49 G80 G90 
N34 (TIMELY NEW UNIVERSAL PRESS=BOTTOM DIE SET SINGLE PIECE) 
N36 (OPERATION 1) 
N38 (.5_1/2 SPOT DRIL 218 TO.265 DIA.) 
N40 G28 M05 G91 Y0 Z0.0 
N42 ( .5_1/2 X 90 DEG. SPOT DRILLL .218 TO.265 DIA. ) 
N44 T01 M06 
N46 M03 S1563 
N48 G0 G90 G54 X-3.0 Y-1.0 
N50 G43 H1 Z0.1 
N52 M08 
N54 G98 G81 Z-0.138 R0.1 F4.0 
N56 Y1.0 
N58 G80 
N60 (TIMELY NEW UNIVERSAL PRESS=BOTTOM DIE SET SINGLE PIECE) 
N62 (OPERATION 2) 
N64 (.5_1/2 SPOT DRILL .265 TO .390 DIA.) 
N66 S1042 
N68 G0 X-2.125 Y-0.375 
N70 Z0.1 
N72 G98 G81 Z-0.16 R0.1 F4.0 
N74 X-4.125 Y0.75 
N76 G80 
N78 (TIMELY NEW UNIVERSAL PRESS=BOTTOM DIE SET SINGLE PIECE) 
N80 (OPERATION 3) 
N82 (E-.375 REG. R. END MILL TIN 4 FL.) 
N84 M09 
N86 G28 M05 G91 Y0 Z0.0 
N88 ( .375 REG. R. END MILL TIN 4 FL. ) 
N90 T02 M06 
N92 M03 S980 
N94 G0 G90 G54 X-3.125 Y0.0 
N96 G43 H2 Z0.1 
N98 M08 
N100 G1 Z-0.107 F10.0 
N102 X-3.625 F6.0 
N104 Z-0.214 F10.0 
N106 X-3.125 F6.0 
N108 Z-0.321 F10.0 
N110 X-3.625 F6.0 
N112 Z-0.428 F10.0 
N114 X-3.125 F6.0 
N116 Z-0.535 F10.0 
N118 X-3.625 F6.0 
N120 Z-0.642 F10.0 
N122 X-3.125 F6.0 
N124 Z-0.749 F10.0 
N126 X-3.625 F6.0 
N128 Z-0.856 F10.0 
N130 X-3.125 F6.0 
N132 Z-0.95 F10.0 
N134 X-3.625 F6.0 
N136 G0 Z0.1 
N138 (TIMELY NEW UNIVERSAL PRESS=BOTTOM DIE SET SINGLE PIECE) 
N140 (OPERATION 4) 
N142 (E-.375 REG. R. END MILL TIN 4 FL.) 
N144 S980 
N146 G0 X-3.3537 Y0.012 
N148 Z0.1 
N150 G1 Z-0.32 F10.0 
N152 G42 D2 X-3.335 F4.0 
N154 G3 X-3.375 Y0.052 I-0.04 J0.0 
N156 G1 X-3.625 
N158 G3 Y-0.052 I0.0 J-0.052 
N160 G1 X-3.125 
N162 G3 Y0.052 I0.0 J0.052 
N164 G1 X-3.375 
N166 G3 X-3.415 Y0.012 I0.0 J-0.04 
N168 G40 G1 X-3.3963 
N170 G0 Z0.1 
N172 X-3.3537 
N174 Z-0.22 
N176 G1 Z-0.64 F10.0 
N178 G42 D2 X-3.335 F4.0 
N180 G3 X-3.375 Y0.052 I-0.04 J0.0 
N182 G1 X-3.625 
N184 G3 Y-0.052 I0.0 J-0.052 
N186 G1 X-3.125 
N188 G3 Y0.052 I0.0 J0.052 
N190 G1 X-3.375 
N192 G3 X-3.415 Y0.012 I0.0 J-0.04 
N194 G40 G1 X-3.3963 
N196 G0 Z0.1 
N198 X-3.3537 
N200 Z-0.54 
N202 G1 Z-0.95 F10.0 
N204 G42 D2 X-3.335 F4.0 
N206 G3 X-3.375 Y0.052 I-0.04 J0.0 
N208 G1 X-3.625 
N210 G3 Y-0.052 I0.0 J-0.052 
N212 G1 X-3.125 
N214 G3 Y0.052 I0.0 J0.052 
N216 G1 X-3.375 
N218 G3 X-3.415 Y0.012 I0.0 J-0.04 
N220 G40 G1 X-3.3963 
N222 G0 Z0.1 
N224 (TIMELY NEW UNIVERSAL PRESS=BOTTOM DIE SET SINGLE PIECE) 
N226 (OPERATION 5) 
N228 (H-.375 REG. CARBIDE END MILL 4 FL.) 
N230 M09 
N232 G28 M05 G91 Y0 Z0.0 
N234 ( .375 REG. CARBIDE END MILL 4 FL. ) 
N236 T03 M06 
N238 M03 S1426 
N240 G0 G90 G54 X-3.3537 Y0.018 
N242 G43 H3 Z0.1 
N244 M08 
N246 G1 Z-0.95 F10.0 
N248 G42 D3 X-3.335 F4.0 
N250 G3 X-3.375 Y0.058 I-0.04 J0.0 
N252 G1 X-3.625 
N254 G3 Y-0.058 I0.0 J-0.058 
N256 G1 X-3.125 
N258 G3 Y0.058 I0.0 J0.058 
N260 G1 X-3.375 
N262 G3 X-3.415 Y0.018 I0.0 J-0.04 
N264 G40 G1 X-3.3963 
N266 G0 Z0.1 
N268 (TIMELY NEW UNIVERSAL PRESS=BOTTOM DIE SET SINGLE PIECE) 
N270 (OPERATION 8) 
N272 (5/16 COUNTERBORE) 
N274 M09 
N276 G28 M05 G91 Y0 Z0.0 
N278 ( 5/16 COUNTERBORE W PLANE -.330 PL.380 ) 
N280 T04 M06 
N282 M03 S663 
N284 G0 G90 G54 X-2.125 Y-1.125 
N286 G43 H4 Z0.1 
N288 M08 
N290 G98 G83 Z-0.72 Q0.04 R-0.36 F3. 
N292 X-3.75 
N294 Y1.125 
N296 X-2.125 
N298 G80 
N300 (TIMELY NEW UNIVERSAL PRESS=BOTTOM DIE SET SINGLE PIECE) 
N302 (OPERATION 12) 
N304 (1/2 COUNTERBORE FULL SIDE) 
N306 M09 
N308 G28 M05 G91 Y0 Z0.0 
N310 ( 1/2 COUNTERBORE FULL SIDE ) 
N312 T05 M06 
N314 M03 S412 
N316 G0 G90 G54 X1.9375 Y1.5 
N318 G43 H5 Z0.1 
N320 M08 
N322 G98 G83 Z-1.05 Q0.05 R-0.5 F3.5 
N324 Y-1.5 
N326 X-1.155 Y-1.4 
N328 Y1.4 
N330 G80 
N332 (TIMELY NEW UNIVERSAL PRESS=BOTTOM DIE SET SINGLE PIECE) 
N334 (OPERATION 13) 
N336 (D-.375 STUB R. END MILL TIN 4 FL.) 
N338 M09 
N340 G28 M05 G91 Y0 Z0.0 
N342 ( .375 STUB R. END MILL TIN 4 FL. ) 
N344 T06 M06 
N346 M03 S917 
N348 G0 G90 G54 X-4.9062 Y1.75 
N350 G43 H6 Z0.1 
N352 M08 
N354 Z0.1123 
N356 G1 Z-0.123 F8. 
N358 X-4.7 
N360 Y1.4475 
N362 X-4.1662 
N364 G3 X-4.1475 Y1.4663 I0.0 J0.019 
N366 G1 Y2.0337 
N368 G3 X-4.1662 Y2.0525 I-0.019 J0.0 
N370 G1 X-4.7 
N372 Y1.75 
N374 G3 X-4.6625 Y1.7125 I0.038 J0.0 
N376 G1 X-4.5148 
N378 G3 X-4.4772 Y1.75 I0.0 J0.038 
N380 G1 Y1.811 
N382 G2 X-4.4585 Y1.8297 I0.019 J0.0 
N384 G1 X-4.389 
N386 G2 X-4.3703 Y1.811 I0.0 J-0.019 
N388 G1 Y1.689 
N390 G2 X-4.389 Y1.6703 I-0.019 J0.0 
N392 G1 X-4.4585 
N394 G2 X-4.4772 Y1.689 I0.0 J0.019 
N396 G1 Y1.75 
N398 G0 Z0.1 
N400 X-4.9062 
N402 Z-0.0107 
N404 G1 Z-0.246 F8. 
N406 X-4.7 
N408 Y1.4475 
N410 X-4.1662 
N412 G3 X-4.1475 Y1.4663 I0.0 J0.019 
N414 G1 Y2.0337 
N416 G3 X-4.1662 Y2.0525 I-0.019 J0.0 
N418 G1 X-4.7 
N420 Y1.75 
N422 G3 X-4.6625 Y1.7125 I0.038 J0.0 
N424 G1 X-4.5148 
N426 G3 X-4.4772 Y1.75 I0.0 J0.038 
N428 G1 Y1.811 
N430 G2 X-4.4585 Y1.8297 I0.019 J0.0 
N432 G1 X-4.389 
N434 G2 X-4.3703 Y1.811 I0.0 J-0.019 
N436 G1 Y1.689 
N438 G2 X-4.389 Y1.6703 I-0.019 J0.0 
N440 G1 X-4.4585 
N442 G2 X-4.4772 Y1.689 I0.0 J0.019 
N444 G1 Y1.75 
N446 G0 Z0.1 
N448 X-4.9062 
N450 Z-0.1337 
N452 G1 Z-0.369 F8. 
N454 X-4.7 
N456 Y1.4475 
N458 X-4.1662 
N460 G3 X-4.1475 Y1.4663 I0.0 J0.019 
N462 G1 Y2.0337 
N464 G3 X-4.1662 Y2.0525 I-0.019 J0.0 
N466 G1 X-4.7 
N468 Y1.75 
N470 G3 X-4.6625 Y1.7125 I0.038 J0.0 
N472 G1 X-4.5148 
N474 G3 X-4.4772 Y1.75 I0.0 J0.038 
N476 G1 Y1.811 
N478 G2 X-4.4585 Y1.8297 I0.019 J0.0 
N480 G1 X-4.389 
N482 G2 X-4.3703 Y1.811 I0.0 J-0.019 
N484 G1 Y1.689 
N486 G2 X-4.389 Y1.6703 I-0.019 J0.0 
N488 G1 X-4.4585 
N490 G2 X-4.4772 Y1.689 I0.0 J0.019 
N492 G1 Y1.75 
N494 G0 Z0.1 
N496 X-4.9062 
N498 Z-0.2567 
N500 G1 Z-0.49 F8. 
N502 X-4.7 
N504 Y1.4475 
N506 X-4.1662 
N508 G3 X-4.1475 Y1.4663 I0.0 J0.019 
N510 G1 Y2.0337 
N512 G3 X-4.1662 Y2.0525 I-0.019 J0.0 
N514 G1 X-4.7 
N516 Y1.75 
N518 G3 X-4.6625 Y1.7125 I0.038 J0.0 
N520 G1 X-4.5148 
N522 G3 X-4.4772 Y1.75 I0.0 J0.038 
N524 G1 Y1.811 
N526 G2 X-4.4585 Y1.8297 I0.019 J0.0 
N528 G1 X-4.389 
N530 G2 X-4.3703 Y1.811 I0.0 J-0.019 
N532 G1 Y1.689 
N534 G2 X-4.389 Y1.6703 I-0.019 J0.0 
N536 G1 X-4.4585 
N538 G2 X-4.4772 Y1.689 I0.0 J0.019 
N540 G1 Y1.75 
N542 G0 Z0.1 
N544 (TIMELY NEW UNIVERSAL PRESS=BOTTOM DIE SET SINGLE PIECE) 
N546 (OPERATION 14) 
N548 (D-.375 STUB R. END MILL TIN 4 FL.) 
N550 S917 
N552 G0 X-4.9062 Y-1.75 
N554 Z0.1 
N556 Z0.1123 
N558 G1 Z-0.123 F8. 
N560 X-4.7 
N562 Y-2.0525 
N564 X-4.1662 
N566 G3 X-4.1475 Y-2.0337 I0.0 J0.019 
N568 G1 Y-1.4663 
N570 G3 X-4.1662 Y-1.4475 I-0.019 J0.0 
N572 G1 X-4.7 
N574 Y-1.75 
N576 G3 X-4.6625 Y-1.7875 I0.038 J0.0 
N578 G1 X-4.5148 
N580 G3 X-4.4772 Y-1.75 I0.0 J0.038 
N582 G1 Y-1.689 
N584 G2 X-4.4585 Y-1.6703 I0.019 J0.0 
N586 G1 X-4.389 
N588 G2 X-4.3703 Y-1.689 I0.0 J-0.019 
N590 G1 Y-1.811 
N592 G2 X-4.389 Y-1.8297 I-0.019 J0.0 
N594 G1 X-4.4585 
N596 G2 X-4.4772 Y-1.811 I0.0 J0.019 
N598 G1 Y-1.75 
N600 G0 Z0.1 
N602 X-4.9062 
N604 Z-0.0107 
N606 G1 Z-0.246 F8. 
N608 X-4.7 
N610 Y-2.0525 
N612 X-4.1662 
N614 G3 X-4.1475 Y-2.0337 I0.0 J0.019 
N616 G1 Y-1.4663 
N618 G3 X-4.1662 Y-1.4475 I-0.019 J0.0 
N620 G1 X-4.7 
N622 Y-1.75 
N624 G3 X-4.6625 Y-1.7875 I0.038 J0.0 
N626 G1 X-4.5148 
N628 G3 X-4.4772 Y-1.75 I0.0 J0.038 
N630 G1 Y-1.689 
N632 G2 X-4.4585 Y-1.6703 I0.019 J0.0 
N634 G1 X-4.389 
N636 G2 X-4.3703 Y-1.689 I0.0 J-0.019 
N638 G1 Y-1.811 
N640 G2 X-4.389 Y-1.8297 I-0.019 J0.0 
N642 G1 X-4.4585 
N644 G2 X-4.4772 Y-1.811 I0.0 J0.019 
N646 G1 Y-1.75 
N648 G0 Z0.1 
N650 X-4.9062 
N652 Z-0.1337 
N654 G1 Z-0.369 F8. 
N656 X-4.7 
N658 Y-2.0525 
N660 X-4.1662 
N662 G3 X-4.1475 Y-2.0337 I0.0 J0.019 
N664 G1 Y-1.4663 
N666 G3 X-4.1662 Y-1.4475 I-0.019 J0.0 
N668 G1 X-4.7 
N670 Y-1.75 
N672 G3 X-4.6625 Y-1.7875 I0.038 J0.0 
N674 G1 X-4.5148 
N676 G3 X-4.4772 Y-1.75 I0.0 J0.038 
N678 G1 Y-1.689 
N680 G2 X-4.4585 Y-1.6703 I0.019 J0.0 
N682 G1 X-4.389 
N684 G2 X-4.3703 Y-1.689 I0.0 J-0.019 
N686 G1 Y-1.811 
N688 G2 X-4.389 Y-1.8297 I-0.019 J0.0 
N690 G1 X-4.4585 
N692 G2 X-4.4772 Y-1.811 I0.0 J0.019 
N694 G1 Y-1.75 
N696 G0 Z0.1 
N698 X-4.9062 
N700 Z-0.2567 
N702 G1 Z-0.49 F8. 
N704 X-4.7 
N706 Y-2.0525 
N708 X-4.1662 
N710 G3 X-4.1475 Y-2.0337 I0.0 J0.019 
N712 G1 Y-1.4663 
N714 G3 X-4.1662 Y-1.4475 I-0.019 J0.0 
N716 G1 X-4.7 
N718 Y-1.75 
N720 G3 X-4.6625 Y-1.7875 I0.038 J0.0 
N722 G1 X-4.5148 
N724 G3 X-4.4772 Y-1.75 I0.0 J0.038 
N726 G1 Y-1.689 
N728 G2 X-4.4585 Y-1.6703 I0.019 J0.0 
N730 G1 X-4.389 
N732 G2 X-4.3703 Y-1.689 I0.0 J-0.019 
N734 G1 Y-1.811 
N736 G2 X-4.389 Y-1.8297 I-0.019 J0.0 
N738 G1 X-4.4585 
N740 G2 X-4.4772 Y-1.811 I0.0 J0.019 
N742 G1 Y-1.75 
N744 G0 Z0.1 
N746 (TIMELY NEW UNIVERSAL PRESS=BOTTOM DIE SET SINGLE PIECE) 
N748 (OPERATION 15) 
N750 (G-.375 STUB CARBIDE END MILL 4 FL.) 
N752 M09 
N754 G28 M05 G91 Y0 Z0.0 
N756 ( .375 STUB CARBIDE END MILL 4 FL. ) 
N758 T07 M06 
N760 M03 S1426 
N762 G0 G90 G54 X-4.9062 Y1.75 
N764 G43 H7 Z0.1 
N766 M08 
N768 G1 Z-0.5004 F9. 
N770 X-4.7 
N772 Y1.4575 
N774 X-4.1762 
N776 G3 X-4.1575 Y1.4763 I0.0 J0.019 
N778 G1 Y2.0238 
N780 G3 X-4.1762 Y2.0425 I-0.019 J0.0 
N782 G1 X-4.7 
N784 Y1.75 
N786 G3 X-4.6625 Y1.7125 I0.038 J0.0 
N788 G1 X-4.5519 
N790 G3 X-4.5144 Y1.75 I0.0 J0.038 
N792 G1 Y1.8381 
N794 G2 X-4.4956 Y1.8569 I0.019 J0.0 
N796 G1 X-4.3619 
N798 G2 X-4.3431 Y1.8381 I0.0 J-0.019 
N800 G1 Y1.6619 
N802 G2 X-4.3619 Y1.6431 I-0.019 J0.0 
N804 G1 X-4.4956 
N806 G2 X-4.5144 Y1.6619 I0.0 J0.019 
N808 G1 Y1.75 
N810 G0 Z0.1 
N812 (TIMELY NEW UNIVERSAL PRESS=BOTTOM DIE SET SINGLE PIECE) 
N814 (OPERATION 16) 
N816 (G-.375 STUB CARBIDE END MILL 4 FL.) 
N818 S1426 
N820 G0 X-4.9062 Y-1.75 
N822 Z0.1 
N824 G1 Z-0.5004 F9. 
N826 X-4.7 
N828 Y-2.0425 
N830 X-4.1762 
N832 G3 X-4.1575 Y-2.0238 I0.0 J0.019 
N834 G1 Y-1.4763 
N836 G3 X-4.1762 Y-1.4575 I-0.019 J0.0 
N838 G1 X-4.7 
N840 Y-1.75 
N842 G3 X-4.6625 Y-1.7875 I0.038 J0.0 
N844 G1 X-4.5519 
N846 G3 X-4.5144 Y-1.75 I0.0 J0.038 
N848 G1 Y-1.6619 
N850 G2 X-4.4956 Y-1.6431 I0.019 J0.0 
N852 G1 X-4.3619 
N854 G2 X-4.3431 Y-1.6619 I0.0 J-0.019 
N856 G1 Y-1.8381 
N858 G2 X-4.3619 Y-1.8569 I-0.019 J0.0 
N860 G1 X-4.4956 
N862 G2 X-4.5144 Y-1.8381 I0.0 J0.019 
N864 G1 Y-1.75 
N866 G0 Z0.1 
N868 (TIMELY NEW UNIVERSAL PRESS=BOTTOM DIE SET SINGLE PIECE) 
N870 (OPERATION 23) 
N872 (G-.375 STUB CARBIDE END MILL 4 FL.) 
N874 S1426 
N876 G0 X-4.9 Y1.4603 
N878 Z0.1 
N880 G1 Z-0.5 F10.0 
N882 G42 D7 Y1.4415 F5.0 
N884 X-4.7 
N886 X-4.1415 
N888 Y2.0585 
N890 X-4.7 
N892 X-4.9 
N894 G40 Y2.0398 
N896 G0 Z0.1 
N898 Y-2.0398 
N900 G1 Z-0.5 F10.0 
N902 G42 D7 Y-2.0585 F5.0 
N904 X-4.7 
N906 X-4.1415 
N908 Y-1.4415 
N910 X-4.7 
N912 X-4.9 
N914 G40 Y-1.4603 
N916 G0 Z0.1 
N918 (TIMELY NEW UNIVERSAL PRESS=BOTTOM DIE SET SINGLE PIECE) 
N920 (OPERATION 24) 
N922 (G-.250 STUB CARBIDE END MILL 4 FL.) 
N924 M09 
N926 G28 M05 G91 Y0 Z0.0 
N928 ( .250 STUB CARBIDE END MILL 4 FL. ) 
N930 T08 M06 
N932 M03 S2139 
N934 G0 G90 G54 X-4.1511 Y2.0489 
N936 G43 H8 Z0.1 
N938 M08 
N940 G1 Z-0.25 F10.0 
N942 X-4.1857 Y2.0143 F6.0 
N944 G3 X-4.079 Y2.0585 I0.044 J0.044 
N946 G1 Y2.11 
N948 G3 X-4.09 Y2.121 I-0.011 J0.0 
N950 G1 X-4.1415 
N952 G3 X-4.1857 Y2.0143 I0.0 J-0.062 
N954 G1 X-4.1511 Y2.0489 
N956 Z-0.496 F10.0 
N958 X-4.1857 Y2.0143 F6.0 
N960 G3 X-4.079 Y2.0585 I0.044 J0.044 
N962 G1 Y2.11 
N964 G3 X-4.09 Y2.121 I-0.011 J0.0 
N966 G1 X-4.1415 
N968 G3 X-4.1857 Y2.0143 I0.0 J-0.062 
N970 G0 Z0.1 
N972 X-4.1511 Y1.4511 
N974 G1 Z-0.25 F10.0 
N976 X-4.1857 Y1.4857 F6.0 
N978 G3 X-4.1415 Y1.379 I0.044 J-0.044 
N980 G1 X-4.09 
N982 G3 X-4.079 Y1.39 I0.0 J0.011 
N984 G1 Y1.4415 
N986 G3 X-4.1857 Y1.4857 I-0.062 J0.0 
N988 G1 X-4.1511 Y1.4511 
N990 Z-0.496 F10.0 
N992 X-4.1857 Y1.4857 F6.0 
N994 G3 X-4.1415 Y1.379 I0.044 J-0.044 
N996 G1 X-4.09 
N998 G3 X-4.079 Y1.39 I0.0 J0.011 
N1000 G1 Y1.4415 
N1002 G3 X-4.1857 Y1.4857 I-0.062 J0.0 
N1004 G0 Z0.1 
N1006 X-4.1511 Y-1.4511 
N1008 G1 Z-0.25 F10.0 
N1010 X-4.1857 Y-1.4857 F6.0 
N1012 G3 X-4.079 Y-1.4415 I0.044 J0.044 
N1014 G1 Y-1.39 
N1016 G3 X-4.09 Y-1.379 I-0.011 J0.0 
N1018 G1 X-4.1415 
N1020 G3 X-4.1857 Y-1.4857 I0.0 J-0.062 
N1022 G1 X-4.1511 Y-1.4511 
N1024 Z-0.496 F10.0 
N1026 X-4.1857 Y-1.4857 F6.0 
N1028 G3 X-4.079 Y-1.4415 I0.044 J0.044 
N1030 G1 Y-1.39 
N1032 G3 X-4.09 Y-1.379 I-0.011 J0.0 
N1034 G1 X-4.1415 
N1036 G3 X-4.1857 Y-1.4857 I0.0 J-0.062 
N1038 G0 Z0.1 
N1040 X-4.1511 Y-2.0489 
N1042 G1 Z-0.25 F10.0 
N1044 X-4.1857 Y-2.0143 F6.0 
N1046 G3 X-4.1415 Y-2.121 I0.044 J-0.044 
N1048 G1 X-4.09 
N1050 G3 X-4.079 Y-2.11 I0.0 J0.011 
N1052 G1 Y-2.0585 
N1054 G3 X-4.1857 Y-2.0143 I-0.062 J0.0 
N1056 G1 X-4.1511 Y-2.0489 
N1058 Z-0.496 F10.0 
N1060 X-4.1857 Y-2.0143 F6.0 
N1062 G3 X-4.1415 Y-2.121 I0.044 J-0.044 
N1064 G1 X-4.09 
N1066 G3 X-4.079 Y-2.11 I0.0 J0.011 
N1068 G1 Y-2.0585 
N1070 G3 X-4.1857 Y-2.0143 I-0.062 J0.0 
N1072 G0 Z0.1 
N1074 (TIMELY NEW UNIVERSAL PRESS=BOTTOM DIE SET SINGLE PIECE) 
N1076 (OPERATION 19) 
N1078 (H-.250 REG. CARBIDE END MILL 4 FL.) 
N1080 M09 
N1082 G28 M05 G91 Y0 Z0.0 
N1084 ( .250 REG. CARBIDE END MILL 4 FL. ) 
N1086 T09 M06 
N1088 M03 S2139 
N1090 G0 G90 G54 X-4.9 Y1.3875 
N1092 G43 H9 Z0.1 
N1094 M08 
N1096 G1 Z-0.5004 F10.0 
N1098 G42 D9 Y1.375 F4. 
N1100 X-4.7 
N1102 X-4.09 
N1104 G3 X-4.075 Y1.39 I0.0 J0.015 
N1106 G1 Y2.11 
N1108 G3 X-4.09 Y2.125 I-0.015 J0.0 
N1110 G1 X-4.7 
N1112 X-4.9 
N1114 G40 Y2.1125 
N1116 G0 Z0.1 
N1118 Y-2.1125 
N1120 G1 Z-0.5004 F10.0 
N1122 G42 D9 Y-2.125 F4. 
N1124 X-4.7 
N1126 X-4.09 
N1128 G3 X-4.075 Y-2.11 I0.0 J0.015 
N1130 G1 Y-1.39 
N1132 G3 X-4.09 Y-1.375 I-0.015 J0.0 
N1134 G1 X-4.7 
N1136 X-4.9 
N1138 G40 Y-1.3875 
N1140 G0 Z0.1 
N1142 (TIMELY NEW UNIVERSAL PRESS=BOTTOM DIE SET SINGLE PIECE) 
N1144 (OPERATION 20) 
N1146 (.250_1/4 SPOT DRILL) 
N1148 M09 
N1150 G28 M05 G91 Y0 Z0.0 
N1152 ( .250_1/4 X 90 DEG. SPOT DRILL ) 
N1154 T10 M06 
N1156 M03 S1875 
N1158 G0 G90 G54 X-4.16 Y-2.04 
N1160 G43 H10 Z0.1 
N1162 M08 
N1164 G98 G81 Z-0.596 R-0.4 F3. 
N1166 Y-1.46 
N1168 Y1.46 
N1170 Y2.04 
N1172 G80 
N1174 (TIMELY NEW UNIVERSAL PRESS=BOTTOM DIE SET SINGLE PIECE) 
N1176 (OPERATION 21) 
N1178 (.166_NO.19 PARABOLIC DRILL) 
N1180 M09 
N1182 G28 M05 G91 Y0 Z0.0 
N1184 ( .166_NO.19 PARABOLIC DRILL ) 
N1186 T11 M06 
N1188 M03 S2071 
N1190 G0 G90 G54 X-4.16 Y-2.04 
N1192 G43 H11 Z0.1 
N1194 M08 
N1196 G98 G73 Z-1.2 Q0.05 K0.15 R-0.4 F4.0 
N1198 Y-1.46 
N1200 Y1.46 
N1202 Y2.04 
N1204 G80 
N1206 (TIMELY NEW UNIVERSAL PRESS=BOTTOM DIE SET SINGLE PIECE) 
N1208 (OPERATION 22) 
N1210 (N-10-32 NF OSG TAP) 
N1212 M09 
N1214 G28 M05 G91 Y0 Z0.0 
N1216 M00 
N1218 ( 10-32 NF OSG TAP ) 
N1220 T12 M06 
N1222 M03 S792 
N1224 G0 G90 G54 X-4.16 Y-2.04 
N1226 G43 H12 Z0.1 
N1228 M08 
N1230 G98 G84 Z-1.0 R-0.4 F24.75 
N1232 Y-1.46 
N1234 Y1.46 
N1236 Y2.04 
N1238 G80 
N1240 M09 
N1242 G28 M05 G91 Y0 Z0.0 
N1244 M30 

%