%
O06002 (3-1-5-DIE-INSERT-EMBOSS-3A.HAS) 
N5 (MODIFIKE 9-8-2025) 
N10 (Code from M312emb.dwg) 
N15 (MILL, DRILL & TAP TOP DIE INSERT DETAIL #3) 
N20 T1M06(3/8 C END MILL X.032R) 
N25 G90G54G00X4.425Y0.25 
N30 S1400 M03 
N35 G43H01Z0.1M08 
N40 G01 Z-0.09 F4. 
N45 G01X4.625Y0.05 
N50 G01Y-1.071 
N55 G02X4.575Y-1.121I-0.05J0 
N60 G01X1.425 
N65 G02X1.375Y-1.071I0J0.05 
N70 G01Y0.05 
N75 G01X1.575Y0.25 
N80 G01X1.375Y0.05 
N85 G01Y-0.15 
N90 G01X4.625 
N95 G01Y-0.475 
N100 G01X1.375 
N105 G01Y-0.8 
N110 G01X4.625 
N115 G01X4.5501Y-0.76 
N120 G00Z0.1 
N125 G00G80Z0.1M09 
N130 G28G91Y0.Z0.M05 
N135 T2M06(3/8 CARBIDE END MILL X 1/32 R) 
N140 G90G54G00X1.5625Y0.25 
N145 S1629M03 
N150 G43H02Z0.1M08 
N155 G01 Z-0.1 F5. 
N160 G01 G42 D02 X1.3625Y0.05 
N165 G01Y-1.071 
N170 G03X1.425Y-1.1335I0.0625J0 
N175 G01X4.575 
N180 G03X4.6375Y-1.071I0J0.0625 
N185 G01Y0.05 
N190 G01 G40 X4.4375Y0.25 
N195 G01 X4.6375Y0.05 F9. 
N200 G01X4.625 Y-0.125 
N205 G01X1.375 
N210 G01 Y-0.375 
N215 G01X4.625 
N220 G01 Y-0.625 
N225 G01X1.375 
N230 Y-0.875 
N235 G01X4.625 
N240 
N245 G00Z0.1 
N250 G00G80Z0.1M09 
N255 G28G91Y0.Z0.M05 
N260 T3M06(3/8 SPOTTING DRILL) 
N265 G90G54G00X0.25Y-0.375 
N270 S1273M03 
N275 G43H03Z0.1M08 
N280 G81G98 Z-0.125 R0.1 F3. 
N285 Y-1.313 
N290 X5.75 
N295 Y-0.375 
N300 X4.4025Y-0.561 Z-0.209 
N305 X3.7423Y-0.896 Z-0.147 
N310 X3. Z-0.209 
N315 X2.2578 Z-0.147 
N320 X1.5975Y-0.561 Z-0.209 
N325 X1.353Y-0.267 Z-0.178 
N330 X4.2428Y-0.263 
N335 X4.647Y-0.267 
N340 G00G80Z0.1M09 
N345 G28G91Y0.Z0.M05 
N350 T4M06(N4 DRILL) 
N355 G90G54G00X0.25Y-0.375 
N360 S1411M03 
N365 G43H04Z0.1M08 
N370 G73G98Z-0.85Q0.1K0.35R0.1F4.2 
N375 Y-1.313 
N380 X5.75 
N385 Y-0.375 
N390 G00G80Z0.1M09 
N395 G28G91Y0.Z0.M05 
N400 T5 M06(3/32 DRILL) 
N405 G90G54G00 X2.2578 Y-0.896 
N410 S3080M03 
N415 G43 H05 Z0.1M08 
N420 G73G98Z-0.85Q0.1K0.25R0.1 F2.5 
N425 X3.7423 
N430 G00G80Z0.1M09 
N435 G28G91Y0.Z0.M05 
N440 T6 M06(7/32 DRILL) 
N445 G90G54G00X1.5975Y-0.561 
N450 S1320 M03 
N455 G43 H06 Z0.1M08 
N460 G73G98Z-0.85Q0.1 K0.2 R0.1 F3.5 
N465 X3. Y-0.896 
N470 X4.4025Y-0.561 
N475 G00G80Z0.1M09 
N480 G28G91Y0.Z0.M05 
N485 T7 M06(5/32 DRILL) 
N490 G90G54G00X1.353Y-0.267 
N495 S1833M03 
N500 G43 H07 Z0.1M08 
N505 G73G98 Z-0.22 Q0.1R0.1 F3. 
N510 X4.2428Y-0.263 
N515 X4.647Y-0.267 
N520 G00G80Z0.1M09 
N525 G28G91Y0.Z0.M05 
N530 T8 M06(5/32 BALL END MILL) 
N535 G90G54G00X1.353Y-0.267 
N540 S3425M03 
N545 G43 H08 Z0.1M08 
N550 G01 Z-0.147 F3. 
N555 G01X1.353Y-0.267 
N560 G01X1.4305 
N565 G02X1.4493Y-0.2571I0.167J-0.294 
N570 G01X1.353 F5. 
N575 G03Y-0.2769I0J-0.0099 
N580 G01X1.4142 
N585 G03X1.3996Y-0.2869I0.1833J-0.2841 
N590 G01X1.353 
N595 G02Y-0.2471I0J0.0199 
N600 G01X1.4718 
N605 G02X1.5005Y-0.2371I0.1257J-0.3139 
N610 G01X1.353 
N615 G03Y-0.2969I0J-0.0299 
N620 G01X1.3864 
N625 G00Z0.1 
N630 G00X4.244Y-0.2625Z0.1 
N635 G01 Z-0.147 F3. 
N640 G01X4.32Y-0.2331 
N645 G01X1.68 
N650 G02X1.7127Y-0.2431I-0.0825J-0.3279 
N655 G01X4.2873 F5. 
N660 G03X4.2628Y-0.2531I0.1152J-0.3179 
N665 G01X1.7372 
N670 G02X1.7572Y-0.263I-0.1397J-0.3079 
N675 G01X4.2428 
N680 G03X4.2256Y-0.2729I0.1597J-0.298 
N685 G01X1.7744 
N690 G02X1.7897Y-0.2829I-0.1769J-0.2881 
N695 G01X4.2103 
N700 G03X4.1965Y-0.2929I0.1922J-0.2781 
N705 G01X1.8035 
N710 G00Z0.1 
N715 G00X4.647Y-0.267Z0.1 
N720 G01 Z-0.147 F3. 
N725 G01X4.5695 
N730 G03X4.5507Y-0.2571I-0.167J-0.294 
N735 G01X4.647 F5. 
N740 G02Y-0.2769I0J-0.0099 
N745 G01X4.5858 
N750 G02X4.6004Y-0.2869I-0.1833J-0.2841 
N755 G01X4.647 
N760 G03Y-0.2471I0J0.0199 
N765 G01X4.5282 
N770 G03X4.4995Y-0.2371I-0.1257J-0.3139 
N775 G01X4.647 
N780 G02Y-0.2969I0J-0.0299 
N785 G01X4.61 
N790 G00Z0.1 
N795 G00X3.Y-0.267 
N800 G01 Z-0.147 F3. 
N805 G01X3.Y-0.3169 
N810 G01X1.8401 
N815 G02X1.8253Y-0.3112I0J0.0219 
N820 G03X1.3697I-0.2278J-0.2498 
N825 G02X1.3539Y-0.3169I-0.0148J0.0163 
N830 G02X1.353Y-0.2171I-0.0009J0.0499 
N835 G01X4.647 
N840 G02X4.6461Y-0.3169I0J-0.0499 
N845 G02X4.6303Y-0.3112I-0.001J0.022 
N850 G03X4.1747I-0.2278J-0.2498 
N855 G02X4.1599Y-0.3169I-0.0147J0.0162 
N860 G01X3. 
N865 G01X3.Y-0.267 
N870 G00 Z0.1 
N875 G00X1.353Y-0.267 
N880 G01 Z-0.193 F3. 
N885 G01X1.4305 
N890 G02X1.4493Y-0.2571I0.167J-0.294 
N895 G01X1.353 F5. 
N900 G03Y-0.2769I0J-0.0099 
N905 G01X1.4142 
N910 G03X1.3996Y-0.2869I0.1833J-0.2841 
N915 G01X1.353 
N920 G02Y-0.2471I0J0.0199 
N925 G01X1.4718 
N930 G02X1.5005Y-0.2371I0.1257J-0.3139 
N935 G01X1.353 
N940 G03Y-0.2969I0J-0.0299 
N945 G01X1.3864 
N950 G00Z0.1 
N955 G00X4.244Y-0.2625Z0.1 
N960 G01 Z-0.193 F3. 
N965 G01X4.32Y-0.2331 
N970 G01X1.68 
N975 G02X1.7127Y-0.2431I-0.0825J-0.3279 
N980 G01X4.2873 F5. 
N985 G03X4.2628Y-0.2531I0.1152J-0.3179 
N990 G01X1.7372 
N995 G02X1.7572Y-0.263I-0.1397J-0.3079 
N1000 G01X4.2428 
N1005 G03X4.2256Y-0.2729I0.1597J-0.298 
N1010 G01X1.7744 
N1015 G02X1.7897Y-0.2829I-0.1769J-0.2881 
N1020 G01X4.2103 
N1025 G03X4.1965Y-0.2929I0.1922J-0.2781 
N1030 G01X1.8035 
N1035 G00Z0.1 
N1040 G00X4.647Y-0.267Z0.1 
N1045 G01 Z-0.193 F3. 
N1050 G01X4.5695 
N1055 G03X4.5507Y-0.2571I-0.167J-0.294 
N1060 G01X4.647 F5. 
N1065 G02Y-0.2769I0J-0.0099 
N1070 G01X4.5858 
N1075 G02X4.6004Y-0.2869I-0.1833J-0.2841 
N1080 G01X4.647 
N1085 G03Y-0.2471I0J0.0199 
N1090 G01X4.5282 
N1095 G03X4.4995Y-0.2371I-0.1257J-0.3139 
N1100 G01X4.647 
N1105 G02Y-0.2969I0J-0.0299 
N1110 G01X4.61 
N1115 G00Z0.1 
N1120 G00X3.Y-0.267 
N1125 G01 Z-0.193 F3. 
N1130 G01X3.Y-0.3169 
N1135 G01X1.8401 
N1140 G02X1.8253Y-0.3112I0J0.0219 
N1145 G03X1.3697I-0.2278J-0.2498 
N1150 G02X1.3539Y-0.3169I-0.0148J0.0163 
N1155 G02X1.353Y-0.2171I-0.0009J0.0499 
N1160 G01X4.647 
N1165 G02X4.6461Y-0.3169I0J-0.0499 
N1170 G02X4.6303Y-0.3112I-0.001J0.022 
N1175 G03X4.1747I-0.2278J-0.2498 
N1180 G02X4.1599Y-0.3169I-0.0147J0.0162 
N1185 G01X3. 
N1190 G01X3.Y-0.267 
N1195 G00 Z0.1 
N1200 G00X1.353Y-0.267 
N1205 G01 Z-0.236 F3. 
N1210 G01X1.4305 
N1215 G02X1.4493Y-0.2571I0.167J-0.294 
N1220 G01X1.353 F5. 
N1225 G03Y-0.2769I0J-0.0099 
N1230 G01X1.4142 
N1235 G03X1.3996Y-0.2869I0.1833J-0.2841 
N1240 G01X1.353 
N1245 G02Y-0.2471I0J0.0199 
N1250 G01X1.4718 
N1255 G02X1.5005Y-0.2371I0.1257J-0.3139 
N1260 G01X1.353 
N1265 G03Y-0.2969I0J-0.0299 
N1270 G01X1.3864 
N1275 G00Z0.1 
N1280 G00X4.244Y-0.2625Z0.1 
N1285 G01 Z-0.236 F3. 
N1290 G01X4.32Y-0.2331 
N1295 G01X1.68 
N1300 G02X1.7127Y-0.2431I-0.0825J-0.3279 
N1305 G01X4.2873 F5. 
N1310 G03X4.2628Y-0.2531I0.1152J-0.3179 
N1315 G01X1.7372 
N1320 G02X1.7572Y-0.263I-0.1397J-0.3079 
N1325 G01X4.2428 
N1330 G03X4.2256Y-0.2729I0.1597J-0.298 
N1335 G01X1.7744 
N1340 G02X1.7897Y-0.2829I-0.1769J-0.2881 
N1345 G01X4.2103 
N1350 G03X4.1965Y-0.2929I0.1922J-0.2781 
N1355 G01X1.8035 
N1360 G00Z0.1 
N1365 G00X4.647Y-0.267Z0.1 
N1370 G01 Z-0.236 F3. 
N1375 G01X4.5695 
N1380 G03X4.5507Y-0.2571I-0.167J-0.294 
N1385 G01X4.647 F5. 
N1390 G02Y-0.2769I0J-0.0099 
N1395 G01X4.5858 
N1400 G02X4.6004Y-0.2869I-0.1833J-0.2841 
N1405 G01X4.647 
N1410 G03Y-0.2471I0J0.0199 
N1415 G01X4.5282 
N1420 G03X4.4995Y-0.2371I-0.1257J-0.3139 
N1425 G01X4.647 
N1430 G02Y-0.2969I0J-0.0299 
N1435 G01X4.61 
N1440 G00Z0.1 
N1445 G00X3.Y-0.267 
N1450 G01 Z-0.236 F3. 
N1455 G01X3.Y-0.3169 
N1460 G01X1.8401 
N1465 G02X1.8253Y-0.3112I0J0.0219 
N1470 G03X1.3697I-0.2278J-0.2498 
N1475 G02X1.3539Y-0.3169I-0.0148J0.0163 
N1480 G02X1.353Y-0.2171I-0.0009J0.0499 
N1485 G01X4.647 
N1490 G02X4.6461Y-0.3169I0J-0.0499 
N1495 G02X4.6303Y-0.3112I-0.001J0.022 
N1500 G03X4.1747I-0.2278J-0.2498 
N1505 G02X4.1599Y-0.3169I-0.0147J0.0162 
N1510 G01X3. 
N1515 G01 G42 D08 X2.98 Y-0.267 
N1520 G01 X3. F4. 
N1525 G01Y-0.3269 
N1530 G01X4.1599 
N1535 G03X4.1814Y-0.3186I0J0.0319 
N1540 G02X4.6236I0.2211J-0.2424 
N1545 G03X4.6463Y-0.3269I0.0215J0.0236 
N1550 G03X4.647Y-0.2071I0.0007J0.0599 
N1555 G01X1.353 
N1560 G03X1.3537Y-0.3269I0J-0.0599 
N1565 G03X1.3764Y-0.3185I0.0011J0.032 
N1570 G02X1.8186I0.2211J-0.2425 
N1575 G03X1.8401Y-0.3269I0.0215J0.0236 
N1580 G01X3. 
N1585 G01 G40 Y-0.267 
N1590 G00Z0.1 
N1595 G00G80Z0.1M09 
N1600 G28G91Y0.Z0.M05 
N1605 T9 M06(1/8 X .040 R CUTTER CARBIDE) 
N1610 G90G54G00X1.237Y0.1 
N1615 S4500M03 
N1620 G43 H09 Z0.1M08 
N1625 G01 Z-0.038 F4.5 
N1630 G42 D09 G01X1.2 
N1635 G01Y-1.071 
N1640 G03X1.425Y-1.296I0.225J0 
N1645 G01X4.575 
N1650 G03X4.8Y-1.071I0J0.225 
N1655 G01Y0.1 
N1660 G01 G40 X4.763 
N1665 G00Z0.1 
N1670 G00X1.237 
N1675 G01 Z-0.139 F10. 
N1680 G01 G42 D09 Y0.025F4.5 
N1685 G01X4.763 
N1690 G01 G40 Y0.1 
N1695 G00Z0.1 
N1700 G00X3.Y-0.3269 
N1705 G01 Z-0.139 F4.5 
N1710 G01 G42 D09 Y-0.38 
N1715 G01 X4.1599 
N1720 G03X4.2172Y-0.3578I0J0.085 
N1725 G02X4.5878I0.1853J-0.2032 
N1730 G03X4.6468Y-0.38I0.0573J0.0629 
N1735 G03X4.647Y-0.154I0.0002J0.113 
N1740 G01X1.353 
N1745 G03X1.3532Y-0.38I0J-0.113 
N1750 G03X1.4122Y-0.3578I0.0016J0.0851 
N1755 G02X1.7828I0.1853J-0.2032 
N1760 G03X1.8401Y-0.38I0.0573J0.0628 
N1765 G01X2.999 
N1770 G01 G40 Y-0.3269 
N1775 G00Z0.1 
N1780 G00G80Z0.1M09 
N1785 G28G91Y0.Z0.M05 
N1790 M30 

%